#define x_width 64
#define x_height 64
static char x_bits[] = {
0xff, 0xff, 0xff, 0xff, 0xff, 0x00, 0x00, 0x00, 
0x11, 0x00, 0x00, 0x00, 0x88, 0x01, 0x00, 0x00, 
0x1d, 0x05, 0x00, 0x00, 0xb8, 0x01, 0x00, 0x00, 
0x85, 0x0a, 0x00, 0x00, 0xa0, 0x01, 0x00, 0x00, 
0x47, 0x05, 0x00, 0x00, 0xe0, 0x01, 0x00, 0x00, 
0x81, 0x02, 0x00, 0x00, 0x80, 0x01, 0x00, 0x00, 
0x01, 0x00, 0x00, 0x00, 0x80, 0x01, 0x00, 0x00, 
0xf1, 0xff, 0xff, 0xff, 0x8f, 0x01, 0x00, 0x00, 
0x01, 0x00, 0x00, 0x00, 0x80, 0x01, 0x00, 0x00, 
0x01, 0x00, 0x00, 0x00, 0x80, 0x01, 0x00, 0x00, 
0x01, 0x00, 0x00, 0x00, 0x80, 0x01, 0x00, 0x00, 
0x01, 0x00, 0x00, 0x00, 0x80, 0x01, 0x00, 0x00, 
0x01, 0x00, 0x00, 0x00, 0x80, 0x01, 0x00, 0x00, 
0x01, 0x00, 0x00, 0x00, 0x80, 0x01, 0x00, 0x00, 
0x01, 0x00, 0x00, 0x00, 0x80, 0x01, 0x00, 0x00, 
0x01, 0x00, 0x00, 0x00, 0x80, 0x01, 0x00, 0x00, 
0x01, 0x00, 0x00, 0x00, 0x80, 0x01, 0x00, 0x00, 
0x01, 0x00, 0x00, 0x00, 0x80, 0x01, 0x00, 0x00, 
0x01, 0x00, 0x00, 0x00, 0x80, 0x01, 0x00, 0x00, 
0x01, 0x00, 0x00, 0x00, 0x80, 0x01, 0x00, 0x00, 
0x01, 0x00, 0x00, 0x00, 0x80, 0x01, 0x00, 0x00, 
0x01, 0x00, 0x00, 0x00, 0x80, 0x01, 0x00, 0x00, 
0x01, 0x00, 0x00, 0x00, 0x80, 0x01, 0x00, 0x00, 
0x01, 0x00, 0x00, 0x00, 0x80, 0x01, 0x00, 0x00, 
0x01, 0x00, 0x00, 0x00, 0x80, 0x01, 0x00, 0x00, 
0x01, 0x00, 0x00, 0x00, 0x80, 0x01, 0x00, 0x00, 
0x01, 0x00, 0x00, 0x00, 0x80, 0x01, 0x00, 0x00, 
0x01, 0x00, 0x00, 0x00, 0x80, 0x01, 0x00, 0x00, 
0x01, 0x00, 0x00, 0x00, 0x80, 0x01, 0x00, 0x00, 
0x01, 0x00, 0x00, 0x00, 0x80, 0x01, 0x00, 0x00, 
0x01, 0x00, 0x00, 0x00, 0x80, 0x01, 0x00, 0x00, 
0x01, 0x00, 0x00, 0x00, 0x80, 0x01, 0x00, 0x00, 
0x01, 0x00, 0x00, 0x00, 0x80, 0x01, 0x00, 0x00, 
0x01, 0x00, 0x00, 0x00, 0x80, 0x01, 0x00, 0x00, 
0x01, 0x00, 0x00, 0x00, 0x80, 0x01, 0x00, 0x00, 
0x07, 0x00, 0x00, 0x00, 0xe0, 0x01, 0x00, 0x00, 
0x05, 0x00, 0x00, 0x00, 0xa0, 0x01, 0x00, 0x00, 
0x1d, 0x00, 0x00, 0x00, 0xb8, 0x01, 0x00, 0x00, 
0x11, 0x00, 0x00, 0x00, 0x88, 0x01, 0x00, 0x00, 
0xff, 0xff, 0xff, 0xff, 0xff, 0x01, 0x00, 0x00, 
0xfe, 0xff, 0xff, 0xff, 0xff, 0x01, 0x00, 0x00, 
0x00, 0x00, 0x00, 0x00, 0x00, 0x00, 0x00, 0x00, 
0x00, 0x00, 0x00, 0x00, 0x00, 0x00, 0x00, 0x00, 
0x00, 0x00, 0x00, 0x00, 0x00, 0x00, 0x00, 0x00, 
0x00, 0x00, 0x00, 0x00, 0x00, 0x00, 0x00, 0x00, 
0x00, 0x00, 0x00, 0x00, 0x00, 0x00, 0x00, 0x00, 
0x00, 0x00, 0x00, 0x00, 0x00, 0x00, 0x00, 0x00, 
0x00, 0x00, 0x00, 0x00, 0x00, 0x00, 0x00, 0x00, 
0x00, 0x00, 0x00, 0x00, 0x00, 0x00, 0x00, 0x00, 
0x00, 0x00, 0x00, 0x00, 0x00, 0x00, 0x00, 0x00, 
0x00, 0x00, 0x00, 0x00, 0x00, 0x00, 0x00, 0x00, 
0x00, 0x00, 0x00, 0x00, 0x00, 0x00, 0x00, 0x00, 
0x00, 0x00, 0x00, 0x00, 0x00, 0x00, 0x00, 0x00, 
0x00, 0x00, 0x00, 0x00, 0x00, 0x00, 0x00, 0x00, 
0x00, 0x00, 0x00, 0x00, 0x00, 0x00, 0x00, 0x00, 
0x00, 0x00, 0x00, 0x00, 0x00, 0x00, 0x00, 0x00, 
0x00, 0x00, 0x00, 0x00, 0x00, 0x00, 0x00, 0x00, 
0x00, 0x00, 0x00, 0x00, 0x00, 0x00, 0x00, 0x00, 
0x00, 0x00, 0x00, 0x00, 0x00, 0x00, 0x00, 0x00, 
0x00, 0x00, 0x00, 0x00, 0x00, 0x00, 0x00, 0x00, 
0x00, 0x00, 0x00, 0x00, 0x00, 0x00, 0x00, 0x00, 
0x00, 0x00, 0x00, 0x00, 0x00, 0x00, 0x00, 0x00, 
0x00, 0x00, 0x00, 0x00, 0x00, 0x00, 0x00, 0x00, 
0x00, 0x00, 0x00, 0x00, 0x00, 0x00, 0x00, 0x00, 
}; 
