#define x_width 64
#define x_height 64
static char x_bits[] = {
0xff, 0xff, 0xff, 0xff, 0xff, 0x01, 0x00, 0x00, 
0xff, 0xff, 0xff, 0xff, 0xff, 0x01, 0x00, 0x00, 
0xff, 0xff, 0xff, 0xff, 0xff, 0x01, 0x00, 0x00, 
0xff, 0xff, 0xff, 0xff, 0xff, 0x01, 0x00, 0x00, 
0xff, 0xff, 0xff, 0xff, 0xff, 0x01, 0x00, 0x00, 
0xff, 0xff, 0xff, 0xff, 0xff, 0x01, 0x00, 0x00, 
0xff, 0xff, 0xff, 0xff, 0xff, 0x01, 0x00, 0x00, 
0xff, 0xff, 0xff, 0xff, 0xff, 0x01, 0x00, 0x00, 
0xff, 0xff, 0xff, 0xff, 0xff, 0x01, 0x00, 0x00, 
0xff, 0xff, 0xff, 0xff, 0xff, 0x01, 0x00, 0x00, 
0xff, 0xff, 0xff, 0xff, 0xff, 0x01, 0x00, 0x00, 
0xff, 0xff, 0xff, 0xff, 0xff, 0x01, 0x00, 0x00, 
0xff, 0xff, 0xff, 0xff, 0xff, 0x01, 0x00, 0x00, 
0xff, 0xff, 0xff, 0xff, 0xff, 0x01, 0x00, 0x00, 
0xff, 0xff, 0xff, 0xff, 0xff, 0x01, 0x00, 0x00, 
0xff, 0xff, 0xff, 0xff, 0xff, 0x01, 0x00, 0x00, 
0xff, 0xff, 0xff, 0xff, 0xff, 0x01, 0x00, 0x00, 
0xff, 0xff, 0xff, 0xff, 0xff, 0x01, 0x00, 0x00, 
0xff, 0xff, 0xff, 0xff, 0xff, 0x01, 0x00, 0x00, 
0xff, 0xff, 0xff, 0xff, 0xff, 0x01, 0x00, 0x00, 
0xff, 0xff, 0xff, 0xff, 0xff, 0x01, 0x00, 0x00, 
0xff, 0xff, 0xff, 0xff, 0xff, 0x01, 0x00, 0x00, 
0xff, 0xff, 0xff, 0xff, 0xff, 0x01, 0x00, 0x00, 
0xff, 0xff, 0xff, 0xff, 0xff, 0x01, 0x00, 0x00, 
0xff, 0xff, 0xff, 0xff, 0xff, 0x01, 0x00, 0x00, 
0xff, 0xff, 0xff, 0xff, 0xff, 0x01, 0x00, 0x00, 
0xff, 0xff, 0xff, 0xff, 0xff, 0x01, 0x00, 0x00, 
0xff, 0xff, 0xff, 0xff, 0xff, 0x01, 0x00, 0x00, 
0xff, 0xff, 0xff, 0xff, 0xff, 0x01, 0x00, 0x00, 
0xff, 0xff, 0xff, 0xff, 0xff, 0x01, 0x00, 0x00, 
0xff, 0xff, 0xff, 0xff, 0xff, 0x01, 0x00, 0x00, 
0xff, 0xff, 0xff, 0xff, 0xff, 0x01, 0x00, 0x00, 
0xff, 0xff, 0xff, 0xff, 0xff, 0x01, 0x00, 0x00, 
0xff, 0xff, 0xff, 0xff, 0xff, 0x01, 0x00, 0x00, 
0xff, 0xff, 0xff, 0xff, 0xff, 0x01, 0x00, 0x00, 
0xff, 0xff, 0xff, 0xff, 0xff, 0x01, 0x00, 0x00, 
0xff, 0xff, 0xff, 0xff, 0xff, 0x01, 0x00, 0x00, 
0xff, 0xff, 0xff, 0xff, 0xff, 0x01, 0x00, 0x00, 
0xff, 0xff, 0xff, 0xff, 0xff, 0x01, 0x00, 0x00, 
0xff, 0xff, 0xff, 0xff, 0xff, 0x01, 0x00, 0x00, 
0xff, 0xff, 0xff, 0xff, 0xff, 0x01, 0x00, 0x00, 
0x00, 0x00, 0x00, 0x00, 0x00, 0x00, 0x00, 0x00, 
0x00, 0x00, 0x00, 0x00, 0x00, 0x00, 0x00, 0x00, 
0x00, 0x00, 0x00, 0x00, 0x00, 0x00, 0x00, 0x00, 
0x00, 0x00, 0x00, 0x00, 0x00, 0x00, 0x00, 0x00, 
0x00, 0x00, 0x00, 0x00, 0x00, 0x00, 0x00, 0x00, 
0x00, 0x00, 0x00, 0x00, 0x00, 0x00, 0x00, 0x00, 
0x00, 0x00, 0x00, 0x00, 0x00, 0x00, 0x00, 0x00, 
0x00, 0x00, 0x00, 0x00, 0x00, 0x00, 0x00, 0x00, 
0x00, 0x00, 0x00, 0x00, 0x00, 0x00, 0x00, 0x00, 
0x00, 0x00, 0x00, 0x00, 0x00, 0x00, 0x00, 0x00, 
0x00, 0x00, 0x00, 0x00, 0x00, 0x00, 0x00, 0x00, 
0x00, 0x00, 0x00, 0x00, 0x00, 0x00, 0x00, 0x00, 
0x00, 0x00, 0x00, 0x00, 0x00, 0x00, 0x00, 0x00, 
0x00, 0x00, 0x00, 0x00, 0x00, 0x00, 0x00, 0x00, 
0x00, 0x00, 0x00, 0x00, 0x00, 0x00, 0x00, 0x00, 
0x00, 0x00, 0x00, 0x00, 0x00, 0x00, 0x00, 0x00, 
0x00, 0x00, 0x00, 0x00, 0x00, 0x00, 0x00, 0x00, 
0x00, 0x00, 0x00, 0x00, 0x00, 0x00, 0x00, 0x00, 
0x00, 0x00, 0x00, 0x00, 0x00, 0x00, 0x00, 0x00, 
0x00, 0x00, 0x00, 0x00, 0x00, 0x00, 0x00, 0x00, 
0x00, 0x00, 0x00, 0x00, 0x00, 0x00, 0x00, 0x00, 
0x00, 0x00, 0x00, 0x00, 0x00, 0x00, 0x00, 0x00, 
0x00, 0x00, 0x00, 0x00, 0x00, 0x00, 0x00, 0x00, 
}; 
