#define x_width 64
#define x_height 64
static char x_bits[] = {
0x00, 0x00, 0x00, 0x00, 0x00, 0x00, 0x00, 0x00, 
0x00, 0x00, 0x00, 0x00, 0x00, 0x00, 0x00, 0x00, 
0x00, 0x00, 0x00, 0x00, 0x00, 0x00, 0x00, 0x00, 
0x00, 0x00, 0x00, 0x00, 0x00, 0x00, 0x00, 0x00, 
0x00, 0x00, 0x00, 0x00, 0x00, 0x00, 0x00, 0x00, 
0x00, 0x00, 0x00, 0x00, 0x00, 0x00, 0x00, 0x00, 
0x00, 0x00, 0x00, 0x00, 0x00, 0x00, 0x00, 0x00, 
0x00, 0x00, 0x00, 0x00, 0x00, 0x00, 0x00, 0x00, 
0x00, 0x04, 0xff, 0xff, 0xff, 0xff, 0x01, 0x00, 
0x00, 0x06, 0x01, 0x00, 0x00, 0x00, 0x01, 0x00, 
0x00, 0x05, 0x01, 0x00, 0x00, 0x00, 0x01, 0x00, 
0x80, 0x04, 0x01, 0x00, 0x00, 0x00, 0x01, 0x00, 
0x40, 0x04, 0x01, 0x80, 0x03, 0x00, 0x01, 0x00, 
0x20, 0x04, 0x01, 0x60, 0x0c, 0x00, 0x01, 0x00, 
0x10, 0x04, 0x01, 0x20, 0x08, 0x00, 0x01, 0x00, 
0x08, 0x04, 0x01, 0x10, 0x10, 0x00, 0x01, 0x00, 
0x04, 0x04, 0x01, 0x10, 0x10, 0x00, 0x01, 0x00, 
0x04, 0x04, 0x01, 0x10, 0x10, 0x00, 0x01, 0x00, 
0x04, 0x04, 0x01, 0x20, 0x08, 0x00, 0x01, 0x00, 
0x04, 0x0e, 0x01, 0x60, 0x0c, 0x00, 0x01, 0x00, 
0x04, 0x1f, 0x01, 0x80, 0x03, 0x00, 0x01, 0x00, 
0x04, 0x1f, 0x01, 0x00, 0x00, 0x00, 0x01, 0x00, 
0x04, 0x1f, 0x01, 0x00, 0x00, 0x00, 0x01, 0x00, 
0x04, 0x0e, 0x01, 0x00, 0x00, 0x00, 0x01, 0x00, 
0x04, 0x00, 0x01, 0xc0, 0x07, 0x00, 0x01, 0x00, 
0x04, 0x00, 0x01, 0x20, 0x08, 0x00, 0x01, 0x00, 
0x04, 0x00, 0x01, 0x10, 0x10, 0x00, 0x01, 0x00, 
0x0e, 0x00, 0x01, 0x08, 0x20, 0x00, 0x01, 0x00, 
0x1f, 0x00, 0x01, 0x04, 0x40, 0x00, 0x01, 0x00, 
0x1f, 0x00, 0x01, 0x04, 0x40, 0x00, 0x01, 0x00, 
0x1f, 0x00, 0x01, 0x04, 0x40, 0x00, 0x01, 0x00, 
0x0e, 0x00, 0x01, 0x04, 0x40, 0x00, 0x01, 0x00, 
0x00, 0x00, 0x01, 0x04, 0x40, 0x00, 0x01, 0x00, 
0x00, 0x00, 0x01, 0x08, 0x20, 0x00, 0x01, 0x00, 
0x00, 0x00, 0x01, 0x10, 0x10, 0x00, 0x01, 0x00, 
0x00, 0x00, 0x01, 0x20, 0x08, 0x00, 0x01, 0x00, 
0x00, 0x06, 0x01, 0xc0, 0x07, 0x00, 0x01, 0x00, 
0x00, 0x05, 0x01, 0x00, 0x00, 0x00, 0x01, 0x00, 
0x80, 0x04, 0x01, 0x00, 0x00, 0x00, 0x01, 0x00, 
0x40, 0x0e, 0x01, 0x00, 0x00, 0x00, 0x01, 0x00, 
0x20, 0x1f, 0x01, 0x00, 0x00, 0x00, 0x01, 0x00, 
0x10, 0x1f, 0x01, 0x00, 0x00, 0x00, 0x01, 0x00, 
0x08, 0x1f, 0x01, 0x00, 0x00, 0x00, 0x01, 0x00, 
0x04, 0x0e, 0x01, 0x00, 0x00, 0x00, 0x01, 0x00, 
0x04, 0x00, 0x01, 0x00, 0x00, 0x00, 0x01, 0x00, 
0x04, 0x00, 0x01, 0x00, 0x00, 0x00, 0x01, 0x00, 
0x04, 0x00, 0xff, 0xff, 0xff, 0xff, 0x01, 0x00, 
0x0e, 0x00, 0x00, 0x00, 0x00, 0x00, 0x00, 0x00, 
0x1f, 0x00, 0x84, 0xc8, 0xe1, 0xe3, 0x00, 0x00, 
0x1f, 0x00, 0x84, 0x48, 0x82, 0x10, 0x01, 0x00, 
0x1f, 0x00, 0x8a, 0x48, 0x84, 0x10, 0x01, 0x00, 
0x0e, 0x00, 0x8a, 0x48, 0x84, 0x10, 0x01, 0x00, 
0x00, 0x00, 0x8a, 0x48, 0x84, 0x10, 0x01, 0x00, 
0x00, 0x00, 0x91, 0x48, 0x84, 0x10, 0x01, 0x00, 
0x00, 0x00, 0x9f, 0x48, 0x84, 0x10, 0x01, 0x00, 
0x00, 0x00, 0x91, 0x48, 0x82, 0x10, 0x01, 0x00, 
0x00, 0x00, 0x11, 0xc7, 0xe1, 0xe3, 0x00, 0x00, 
0x00, 0x00, 0x00, 0x00, 0x00, 0x00, 0x00, 0x00, 
0x00, 0x00, 0x00, 0x00, 0x00, 0x00, 0x00, 0x00, 
0x00, 0x00, 0x00, 0x00, 0x00, 0x00, 0x00, 0x00, 
0x00, 0x00, 0x00, 0x00, 0x00, 0x00, 0x00, 0x00, 
0x00, 0x00, 0x00, 0x00, 0x00, 0x00, 0x00, 0x00, 
0x00, 0x00, 0x00, 0x00, 0x00, 0x00, 0x00, 0x00, 
0x00, 0x00, 0x00, 0x00, 0x00, 0x00, 0x00, 0x00, 
}; 
