#define x_width 64
#define x_height 64
static char x_bits[] = {
0x00, 0x00, 0x00, 0x00, 0x00, 0x00, 0x00, 0x00, 
0x00, 0x00, 0x00, 0x00, 0x00, 0x00, 0x00, 0x00, 
0x00, 0x00, 0x00, 0x00, 0x00, 0x00, 0x00, 0x00, 
0x00, 0x00, 0x00, 0x00, 0x00, 0x00, 0x00, 0x00, 
0x00, 0x00, 0x00, 0x00, 0x00, 0x00, 0x00, 0x00, 
0x00, 0x00, 0x00, 0xf8, 0xff, 0x01, 0x00, 0x00, 
0x00, 0x00, 0x00, 0xfe, 0xff, 0x07, 0x00, 0x00, 
0x00, 0x00, 0x80, 0xff, 0xff, 0x1f, 0x00, 0x00, 
0x00, 0x00, 0xc0, 0xcf, 0x4c, 0x3e, 0x00, 0x00, 
0x00, 0x00, 0xe0, 0xdf, 0xd9, 0x3e, 0x00, 0x00, 
0x00, 0x00, 0xf0, 0x3f, 0xbb, 0x7e, 0x00, 0x00, 
0x00, 0x00, 0xf0, 0xfb, 0xb6, 0xfd, 0x00, 0x00, 
0x00, 0x00, 0xf8, 0xf7, 0xfc, 0xff, 0x01, 0x00, 
0x00, 0x00, 0x78, 0xff, 0xff, 0xdf, 0x03, 0x00, 
0x00, 0x00, 0x78, 0xf8, 0xff, 0xc1, 0x07, 0x00, 
0x00, 0x00, 0x3c, 0xc0, 0x3f, 0x80, 0x07, 0x00, 
0x00, 0x00, 0x3c, 0x00, 0x0e, 0x80, 0x07, 0x00, 
0x00, 0x00, 0x3c, 0x00, 0x00, 0x80, 0x07, 0x00, 
0x00, 0x00, 0x3c, 0x00, 0x00, 0x80, 0x07, 0x00, 
0x00, 0x00, 0x3c, 0x00, 0x00, 0x80, 0x07, 0x00, 
0x00, 0x00, 0x3c, 0x00, 0x00, 0x80, 0x07, 0x00, 
0x00, 0x00, 0x3c, 0x00, 0x00, 0x80, 0x07, 0x00, 
0x00, 0x00, 0x3c, 0x00, 0x00, 0x80, 0x07, 0x00, 
0x00, 0x00, 0x3c, 0x00, 0x00, 0x80, 0x07, 0x00, 
0x00, 0x00, 0x3c, 0x00, 0x00, 0x80, 0x07, 0x00, 
0x00, 0x00, 0x3c, 0x1f, 0x80, 0x8f, 0x07, 0x00, 
0x00, 0x00, 0xdc, 0x3f, 0xc0, 0x3f, 0x07, 0x00, 
0x00, 0x00, 0x7c, 0x70, 0xe0, 0x60, 0x07, 0x00, 
0x00, 0x00, 0x7c, 0xfe, 0xf0, 0x67, 0x07, 0x00, 
0x00, 0x00, 0x7c, 0xcd, 0x78, 0x6b, 0x07, 0x00, 
0x00, 0x00, 0x3c, 0xcd, 0x00, 0x4b, 0x07, 0x00, 
0x00, 0x00, 0x3c, 0xb0, 0xc0, 0x40, 0x07, 0x00, 
0x00, 0x00, 0x18, 0x8c, 0x00, 0x03, 0x03, 0x00, 
0x00, 0x00, 0x18, 0x80, 0x00, 0x00, 0x03, 0x00, 
0x00, 0x00, 0x18, 0x80, 0x00, 0x00, 0x03, 0x00, 
0x00, 0x00, 0x18, 0x80, 0x00, 0x00, 0x03, 0x00, 
0x00, 0x00, 0x10, 0x80, 0x08, 0x00, 0x03, 0x00, 
0x00, 0x00, 0x30, 0xb8, 0xe8, 0x80, 0x01, 0x00, 
0x00, 0x00, 0x20, 0x44, 0x10, 0xc1, 0x01, 0x00, 
0x00, 0x00, 0x60, 0x82, 0x08, 0x62, 0x00, 0x00, 
0x00, 0x00, 0xa0, 0x01, 0x07, 0x5c, 0x00, 0x00, 
0x00, 0x00, 0x40, 0x1e, 0xc0, 0x43, 0x00, 0x00, 
0x00, 0x00, 0x40, 0xe4, 0x3f, 0x21, 0x00, 0x00, 
0x00, 0x00, 0x40, 0x08, 0x80, 0x20, 0x00, 0x00, 
0x00, 0x00, 0x80, 0x30, 0x40, 0x20, 0x00, 0x00, 
0x00, 0x00, 0x80, 0xf0, 0x3f, 0x10, 0x00, 0x00, 
0x00, 0x00, 0x00, 0x31, 0x00, 0x10, 0x00, 0x00, 
0x00, 0x00, 0x00, 0x39, 0x00, 0x08, 0x00, 0x00, 
0x00, 0x00, 0x00, 0x9d, 0x0f, 0x08, 0x00, 0x00, 
0x00, 0x00, 0x0c, 0x0e, 0x00, 0x04, 0x00, 0x00, 
0x00, 0x00, 0x13, 0x07, 0x00, 0x04, 0x00, 0x00, 
0x00, 0x80, 0xb4, 0x07, 0x00, 0x02, 0x00, 0x00, 
0x00, 0x80, 0xf2, 0x0b, 0x00, 0x01, 0x00, 0x00, 
0x00, 0x80, 0xf8, 0x11, 0x80, 0x00, 0x00, 0x00, 
0x00, 0x80, 0xfb, 0xe0, 0x7f, 0x00, 0x00, 0x00, 
0x00, 0x80, 0x77, 0x00, 0x00, 0x00, 0x00, 0x00, 
0x00, 0x00, 0x77, 0x00, 0x00, 0x00, 0x00, 0x00, 
0x00, 0x00, 0x3f, 0x00, 0x00, 0x00, 0x00, 0x00, 
0x00, 0x00, 0x1e, 0x00, 0x00, 0x00, 0x00, 0x00, 
0x00, 0x00, 0x00, 0x00, 0x00, 0x00, 0x00, 0x00, 
0x00, 0x00, 0x00, 0x00, 0x00, 0x00, 0x00, 0x00, 
0x00, 0x00, 0x00, 0x00, 0x00, 0x00, 0x00, 0x00, 
0x00, 0x00, 0x00, 0x00, 0x00, 0x00, 0x00, 0x00, 
0x00, 0x00, 0x00, 0x00, 0x00, 0x00, 0x00, 0x00, 
}; 
