#define x_width 64
#define x_height 64
static char x_bits[] = {
0xff, 0xff, 0xff, 0xff, 0xff, 0xff, 0xff, 0xff, 
0xff, 0xff, 0xff, 0xff, 0xff, 0xff, 0xff, 0xff, 
0x03, 0x00, 0x00, 0x00, 0x00, 0x00, 0x00, 0xc0, 
0xfb, 0xff, 0xfc, 0x7f, 0xfe, 0x3f, 0xff, 0xdf, 
0x0b, 0x80, 0x04, 0x40, 0x02, 0x20, 0x01, 0xd0, 
0x8b, 0x83, 0x84, 0x43, 0xc2, 0x21, 0xe1, 0xd0, 
0x8b, 0x84, 0x44, 0x44, 0x22, 0x22, 0x11, 0xd1, 
0x8b, 0x84, 0x44, 0x44, 0x22, 0x20, 0x11, 0xd0, 
0x8b, 0x84, 0x44, 0x44, 0x22, 0x20, 0x11, 0xd0, 
0x8b, 0x87, 0x44, 0x44, 0x22, 0x23, 0x91, 0xd1, 
0x8b, 0x88, 0x44, 0x44, 0x22, 0x22, 0x11, 0xd1, 
0x8b, 0x88, 0x44, 0x44, 0x22, 0x22, 0x11, 0xd1, 
0x8b, 0x88, 0x44, 0x44, 0x22, 0x23, 0x91, 0xd1, 
0x8b, 0x87, 0x84, 0x43, 0xc2, 0x22, 0x61, 0xd1, 
0x0b, 0x80, 0x04, 0x40, 0x02, 0x20, 0x01, 0xd0, 
0xfb, 0xff, 0xfc, 0x7f, 0xfe, 0x3f, 0xff, 0xdf, 
0x03, 0x00, 0x00, 0x00, 0x00, 0x00, 0x00, 0xc0, 
0x03, 0x00, 0x00, 0x00, 0x00, 0x00, 0x00, 0xc0, 
0xfb, 0xff, 0xfc, 0x7f, 0xfe, 0x3f, 0xff, 0xdf, 
0xab, 0xaa, 0xac, 0x6a, 0xaa, 0x2a, 0x01, 0xd0, 
0x5b, 0xd5, 0x54, 0x55, 0x56, 0x35, 0x11, 0xd0, 
0xab, 0xaa, 0xac, 0x6a, 0xaa, 0x2a, 0x11, 0xd0, 
0x5b, 0xd5, 0x54, 0x55, 0x56, 0x35, 0x11, 0xd0, 
0xab, 0xaa, 0xac, 0x6a, 0xaa, 0x2a, 0x11, 0xd0, 
0x5b, 0xd5, 0x54, 0x55, 0x56, 0x35, 0x11, 0xd0, 
0xab, 0xaa, 0xac, 0x6a, 0xaa, 0x2a, 0x11, 0xd0, 
0x5b, 0xd5, 0x54, 0x55, 0x56, 0x35, 0x11, 0xd0, 
0xab, 0xaa, 0xac, 0x6a, 0xaa, 0x2a, 0x11, 0xd0, 
0x5b, 0xd5, 0x54, 0x55, 0x56, 0x35, 0xf1, 0xd1, 
0xab, 0xaa, 0xac, 0x6a, 0xaa, 0x2a, 0x01, 0xd0, 
0xfb, 0xff, 0xfc, 0x7f, 0xfe, 0x3f, 0xff, 0xdf, 
0x03, 0x00, 0x00, 0x00, 0x00, 0x00, 0x00, 0xc0, 
0x03, 0x00, 0x00, 0x00, 0x00, 0x00, 0x00, 0xc0, 
0xfb, 0xff, 0xfc, 0x7f, 0xfe, 0x3f, 0xff, 0xdf, 
0x0b, 0x80, 0x54, 0x55, 0x56, 0x35, 0x01, 0xd0, 
0x8b, 0x8f, 0xac, 0x6a, 0xaa, 0x2a, 0xf1, 0xd1, 
0x0b, 0x82, 0x54, 0x55, 0x56, 0x35, 0x11, 0xd0, 
0x0b, 0x82, 0xac, 0x6a, 0xaa, 0x2a, 0x11, 0xd0, 
0x0b, 0x82, 0x54, 0x55, 0x56, 0x35, 0x11, 0xd0, 
0x0b, 0x82, 0xac, 0x6a, 0xaa, 0x2a, 0xf1, 0xd0, 
0x0b, 0x82, 0x54, 0x55, 0x56, 0x35, 0x11, 0xd0, 
0x0b, 0x82, 0xac, 0x6a, 0xaa, 0x2a, 0x11, 0xd0, 
0x0b, 0x82, 0x54, 0x55, 0x56, 0x35, 0x11, 0xd0, 
0x0b, 0x82, 0xac, 0x6a, 0xaa, 0x2a, 0xf1, 0xd1, 
0x0b, 0x80, 0x54, 0x55, 0x56, 0x35, 0x01, 0xd0, 
0xfb, 0xff, 0xfc, 0x7f, 0xfe, 0x3f, 0xff, 0xdf, 
0x03, 0x00, 0x00, 0x00, 0x00, 0x00, 0x00, 0xc0, 
0x03, 0x00, 0x00, 0x00, 0x00, 0x00, 0x00, 0xc0, 
0xfb, 0xff, 0xfc, 0x7f, 0xfe, 0x3f, 0xff, 0xdf, 
0x0b, 0x80, 0x04, 0x40, 0x02, 0x20, 0xab, 0xda, 
0x0b, 0x87, 0x84, 0x43, 0x22, 0x20, 0x55, 0xd5, 
0x8b, 0x88, 0x44, 0x44, 0x22, 0x20, 0xab, 0xda, 
0x8b, 0x88, 0x44, 0x44, 0x22, 0x20, 0x55, 0xd5, 
0x8b, 0x88, 0x44, 0x44, 0x22, 0x20, 0xab, 0xda, 
0x8b, 0x88, 0x44, 0x44, 0x22, 0x20, 0x55, 0xd5, 
0x8b, 0x88, 0x44, 0x44, 0x22, 0x20, 0xab, 0xda, 
0x8b, 0x88, 0x44, 0x44, 0x22, 0x20, 0x55, 0xd5, 
0x8b, 0x88, 0x44, 0x44, 0x22, 0x20, 0xab, 0xda, 
0x0b, 0x87, 0x84, 0x43, 0xe2, 0x23, 0x55, 0xd5, 
0x0b, 0x80, 0x04, 0x40, 0x02, 0x20, 0xab, 0xda, 
0xfb, 0xff, 0xfc, 0x7f, 0xfe, 0x3f, 0xff, 0xdf, 
0x03, 0x00, 0x00, 0x00, 0x00, 0x00, 0x00, 0xc0, 
0xff, 0xff, 0xff, 0xff, 0xff, 0xff, 0xff, 0xff, 
0xff, 0xff, 0xff, 0xff, 0xff, 0xff, 0xff, 0xff, 
}; 
