#define x_width 64
#define x_height 64
static char x_bits[] = {
0xfd, 0xff, 0xff, 0xff, 0xff, 0xff, 0x3f, 0x11, 
0xfe, 0xff, 0xff, 0xff, 0xff, 0xff, 0x3f, 0x11, 
0x03, 0x00, 0x00, 0x00, 0x00, 0x00, 0x60, 0x44, 
0x03, 0x00, 0x00, 0x00, 0x00, 0x00, 0x60, 0x44, 
0xc3, 0x03, 0x00, 0x00, 0x00, 0x20, 0x60, 0x11, 
0x23, 0x04, 0x00, 0x00, 0x00, 0x50, 0x60, 0x11, 
0x23, 0x04, 0x00, 0x00, 0x00, 0x88, 0x60, 0x44, 
0x23, 0x04, 0x00, 0x00, 0x00, 0x04, 0x61, 0x44, 
0x23, 0x04, 0x00, 0x00, 0x00, 0x02, 0x62, 0x11, 
0x23, 0x04, 0x00, 0x00, 0x00, 0x01, 0x64, 0x11, 
0xe3, 0x07, 0x00, 0x00, 0x00, 0x02, 0x62, 0x44, 
0x23, 0x04, 0x00, 0x00, 0x00, 0x04, 0x61, 0x44, 
0x23, 0x04, 0x00, 0x00, 0x00, 0x88, 0x60, 0x11, 
0x23, 0x04, 0x00, 0x00, 0x00, 0x50, 0x60, 0x11, 
0x73, 0x0e, 0x00, 0x00, 0x00, 0x20, 0x60, 0x44, 
0x03, 0x00, 0x00, 0x00, 0x00, 0x00, 0x60, 0x44, 
0x03, 0x00, 0x00, 0x00, 0x00, 0x00, 0x60, 0x11, 
0x03, 0x00, 0x00, 0x00, 0x00, 0x00, 0x60, 0x11, 
0x03, 0x00, 0x00, 0x00, 0x00, 0x00, 0x60, 0x44, 
0x03, 0x00, 0x00, 0x00, 0x00, 0x00, 0x60, 0x44, 
0x03, 0x00, 0x00, 0x00, 0x00, 0x00, 0x60, 0x11, 
0x03, 0x00, 0x00, 0x00, 0x00, 0x00, 0x60, 0x11, 
0x03, 0x00, 0x00, 0x00, 0x00, 0x00, 0x60, 0x44, 
0x03, 0x00, 0x00, 0x00, 0x00, 0x00, 0x60, 0x44, 
0x03, 0x00, 0x00, 0x00, 0x00, 0x00, 0x60, 0x11, 
0x03, 0x00, 0x00, 0x00, 0x00, 0x00, 0x60, 0x11, 
0x03, 0x00, 0x00, 0x00, 0x00, 0x00, 0x60, 0x44, 
0x03, 0x00, 0x00, 0x00, 0x00, 0x00, 0x60, 0x44, 
0x03, 0x00, 0x00, 0x00, 0x00, 0x00, 0x60, 0x11, 
0x03, 0x00, 0x00, 0x00, 0x00, 0x00, 0x60, 0x11, 
0x03, 0x00, 0x00, 0x00, 0x00, 0x00, 0x60, 0x44, 
0x03, 0x00, 0x00, 0x00, 0x00, 0x00, 0x60, 0x44, 
0x03, 0x00, 0x00, 0x00, 0x00, 0x00, 0x60, 0x11, 
0x03, 0x00, 0x00, 0x00, 0x00, 0x00, 0x60, 0x11, 
0x03, 0x00, 0x00, 0x00, 0x00, 0x00, 0x60, 0x44, 
0x03, 0x00, 0x00, 0x00, 0x00, 0x00, 0x60, 0x44, 
0x03, 0x00, 0x00, 0x00, 0x00, 0x00, 0x60, 0x11, 
0x03, 0x00, 0x00, 0x00, 0x00, 0x00, 0x60, 0x11, 
0x03, 0x00, 0x00, 0x00, 0x00, 0x00, 0x60, 0x44, 
0x03, 0x00, 0x00, 0x00, 0x00, 0x00, 0x60, 0x44, 
0x03, 0x00, 0x00, 0x00, 0x00, 0x00, 0x60, 0x11, 
0x03, 0x00, 0x00, 0x00, 0x00, 0x00, 0x60, 0x11, 
0x03, 0x00, 0x00, 0x00, 0x00, 0x00, 0x60, 0x44, 
0x03, 0x00, 0x00, 0x00, 0x00, 0x00, 0x60, 0x44, 
0x03, 0x00, 0x00, 0x00, 0x00, 0x00, 0x60, 0x11, 
0x03, 0x00, 0x00, 0x00, 0x00, 0x00, 0x60, 0x11, 
0x03, 0x00, 0x00, 0x00, 0x00, 0x00, 0x60, 0x44, 
0x03, 0x00, 0x00, 0x00, 0x00, 0x00, 0x60, 0x44, 
0x03, 0x00, 0x00, 0x00, 0x00, 0x00, 0x60, 0x11, 
0x03, 0x04, 0x00, 0x00, 0x00, 0xe0, 0x61, 0x11, 
0x03, 0x0a, 0x00, 0x00, 0x00, 0x10, 0x62, 0x44, 
0x03, 0x11, 0x00, 0x00, 0x00, 0x10, 0x62, 0x44, 
0x83, 0x20, 0x00, 0x00, 0x00, 0x10, 0x62, 0x11, 
0x43, 0x40, 0x00, 0x00, 0x00, 0x10, 0x62, 0x11, 
0x23, 0x80, 0x00, 0x00, 0x00, 0x10, 0x62, 0x44, 
0x43, 0x40, 0x00, 0x00, 0x00, 0xf0, 0x63, 0x44, 
0x83, 0x20, 0x00, 0x00, 0x00, 0x10, 0x62, 0x11, 
0x03, 0x11, 0x00, 0x00, 0x00, 0x10, 0x62, 0x11, 
0x03, 0x0a, 0x00, 0x00, 0x00, 0x10, 0x62, 0x44, 
0x03, 0x04, 0x00, 0x00, 0x00, 0x38, 0x67, 0x44, 
0x03, 0x00, 0x00, 0x00, 0x00, 0x00, 0x60, 0x11, 
0x03, 0x00, 0x00, 0x00, 0x00, 0x00, 0x60, 0x11, 
0xfe, 0xff, 0xff, 0xff, 0xff, 0xff, 0x7f, 0x44, 
0xfc, 0xff, 0xff, 0xff, 0xff, 0xff, 0x5f, 0x44, 
}; 
