#define x_width 64
#define x_height 64
static char x_bits[] = {
0x11, 0x11, 0x11, 0x11, 0x11, 0x11, 0x11, 0x11, 
0x11, 0xff, 0xff, 0xff, 0xff, 0xff, 0xff, 0x11, 
0x44, 0x06, 0x00, 0x00, 0x00, 0x00, 0x80, 0x45, 
0x44, 0xfa, 0xff, 0xff, 0xff, 0xff, 0x7f, 0x45, 
0x11, 0x0b, 0x00, 0x00, 0x00, 0x00, 0x40, 0x11, 
0x11, 0x0b, 0x00, 0x00, 0x00, 0x00, 0x40, 0x11, 
0x44, 0x0a, 0x00, 0x00, 0x00, 0x00, 0x40, 0x45, 
0x44, 0x0a, 0x00, 0x00, 0x00, 0x00, 0x40, 0x45, 
0x11, 0x0b, 0x00, 0x00, 0x00, 0x00, 0x40, 0x11, 
0x11, 0x0b, 0x00, 0x00, 0x00, 0x00, 0x40, 0x11, 
0x44, 0x0a, 0x00, 0x00, 0x00, 0x00, 0x40, 0x45, 
0x44, 0x0a, 0x00, 0x00, 0x00, 0x00, 0x40, 0x45, 
0x11, 0x0b, 0x00, 0x00, 0x20, 0x00, 0x40, 0x11, 
0x11, 0x0b, 0x00, 0x00, 0x00, 0x70, 0x40, 0x11, 
0x44, 0x0a, 0x00, 0x00, 0x08, 0x8c, 0x41, 0x45, 
0x44, 0x0a, 0x00, 0x00, 0x00, 0x02, 0x43, 0x45, 
0x11, 0x0b, 0x00, 0x00, 0x00, 0x06, 0x42, 0x11, 
0x11, 0x0b, 0x00, 0x00, 0x08, 0x1c, 0x43, 0x11, 
0x44, 0x0a, 0x00, 0x00, 0x08, 0x90, 0x41, 0x45, 
0x44, 0x0a, 0x00, 0x00, 0x04, 0xe0, 0x40, 0x45, 
0x11, 0x0b, 0x00, 0x00, 0x04, 0x00, 0x40, 0x11, 
0x11, 0x0b, 0x00, 0x00, 0x04, 0x00, 0x40, 0x11, 
0x44, 0x0a, 0x00, 0x00, 0x06, 0x00, 0x40, 0x45, 
0x44, 0x0a, 0x00, 0x00, 0x02, 0x00, 0x40, 0x45, 
0x11, 0x0b, 0x00, 0x00, 0x02, 0x00, 0x40, 0x11, 
0x11, 0x0b, 0x00, 0x00, 0x02, 0x00, 0x40, 0x11, 
0x44, 0x0a, 0x00, 0x00, 0x02, 0x00, 0x40, 0x45, 
0x44, 0x0a, 0x00, 0x00, 0x02, 0x00, 0x40, 0x45, 
0x11, 0x0b, 0x00, 0x00, 0x03, 0x00, 0x40, 0x11, 
0x11, 0x0b, 0x00, 0x00, 0x01, 0x00, 0x40, 0x11, 
0x44, 0x0a, 0x00, 0x00, 0x01, 0x00, 0x40, 0x45, 
0x44, 0x0a, 0x00, 0x80, 0x00, 0x00, 0x40, 0x45, 
0x11, 0x0b, 0x00, 0x60, 0x00, 0x00, 0x40, 0x11, 
0x11, 0x0b, 0x00, 0x20, 0x00, 0x00, 0x40, 0x11, 
0x44, 0x0a, 0x00, 0x40, 0x00, 0x00, 0x40, 0x45, 
0x44, 0x0a, 0x00, 0x00, 0x01, 0x00, 0x40, 0x45, 
0x11, 0x0b, 0x00, 0x00, 0xb8, 0x07, 0x40, 0x11, 
0x11, 0x0b, 0x00, 0x00, 0x00, 0x00, 0x40, 0x11, 
0x44, 0x0a, 0x00, 0x00, 0x00, 0x00, 0x40, 0x45, 
0x44, 0x0a, 0x00, 0x00, 0x00, 0x00, 0x40, 0x45, 
0x11, 0x0b, 0x00, 0x00, 0x3c, 0x00, 0x40, 0x11, 
0x11, 0x0b, 0x00, 0xe0, 0x65, 0x00, 0x40, 0x11, 
0x44, 0x0a, 0x00, 0x3e, 0xc3, 0x01, 0x40, 0x45, 
0x44, 0x0a, 0x00, 0x18, 0x00, 0x0e, 0x40, 0x45, 
0x11, 0x0b, 0x00, 0x20, 0x80, 0x07, 0x40, 0x11, 
0x11, 0x0b, 0x00, 0xc0, 0x40, 0x00, 0x40, 0x11, 
0x44, 0x0a, 0x00, 0x00, 0x3f, 0x00, 0x40, 0x45, 
0x44, 0x0a, 0x00, 0x00, 0x00, 0x00, 0x40, 0x45, 
0x11, 0x0b, 0x00, 0x00, 0x00, 0x00, 0x40, 0x11, 
0x11, 0x0b, 0x03, 0x00, 0x00, 0x00, 0x40, 0x11, 
0x44, 0x8a, 0x00, 0x00, 0x00, 0x00, 0x40, 0x45, 
0x44, 0x4a, 0x00, 0x00, 0x00, 0x00, 0x40, 0x45, 
0x11, 0x4b, 0x00, 0x28, 0x84, 0x86, 0x40, 0x11, 
0x11, 0x4b, 0xe0, 0x54, 0x4a, 0x91, 0x41, 0x11, 
0x44, 0x4a, 0x20, 0x55, 0x52, 0x51, 0x42, 0x45, 
0x44, 0x8a, 0x10, 0x43, 0x31, 0x6a, 0x42, 0x45, 
0x11, 0x0b, 0xed, 0x81, 0x00, 0x84, 0x4f, 0x11, 
0x11, 0x0b, 0x00, 0x00, 0x00, 0x00, 0x40, 0x11, 
0x44, 0x0a, 0x00, 0x00, 0x00, 0x00, 0x40, 0x45, 
0x44, 0xfa, 0xff, 0xff, 0xff, 0xff, 0x7f, 0x45, 
0x11, 0x07, 0x00, 0x00, 0x00, 0x00, 0x80, 0x11, 
0x11, 0xff, 0xff, 0xff, 0xff, 0xff, 0xff, 0x11, 
0x44, 0x44, 0x44, 0x44, 0x44, 0x44, 0x44, 0x44, 
0x44, 0x44, 0x44, 0x44, 0x44, 0x44, 0x44, 0x44, 
}; 
