#define x_width 64
#define x_height 64
static char x_bits[] = {
0xfc, 0xff, 0xff, 0xff, 0xff, 0xff, 0x1f, 0x00, 
0xfe, 0xff, 0xff, 0xff, 0xff, 0xff, 0x3f, 0x00, 
0x03, 0x00, 0x00, 0x00, 0x00, 0x00, 0x60, 0x00, 
0x03, 0x00, 0x00, 0x00, 0x00, 0x00, 0x60, 0x00, 
0x03, 0x00, 0x00, 0x00, 0x00, 0x00, 0x60, 0x00, 
0x03, 0x00, 0x00, 0x00, 0x00, 0x00, 0x60, 0x00, 
0x03, 0x00, 0x00, 0x00, 0x00, 0x00, 0x60, 0x00, 
0x03, 0x00, 0x00, 0x00, 0x00, 0x00, 0x60, 0x00, 
0x03, 0x00, 0x00, 0x00, 0x00, 0x00, 0x60, 0x00, 
0x03, 0x00, 0x00, 0x00, 0x00, 0x00, 0x60, 0x00, 
0x03, 0x00, 0x00, 0x00, 0x00, 0x00, 0x60, 0x00, 
0x03, 0x00, 0x00, 0x00, 0x00, 0x00, 0x60, 0x00, 
0x03, 0x00, 0x00, 0x00, 0x00, 0x00, 0x60, 0x00, 
0x03, 0x00, 0x00, 0x00, 0x00, 0x00, 0x60, 0x00, 
0x03, 0x00, 0x00, 0x1c, 0x00, 0x00, 0x60, 0x00, 
0x03, 0x00, 0x00, 0x3e, 0x00, 0x00, 0x60, 0x00, 
0x03, 0x00, 0x00, 0x7f, 0x00, 0x00, 0x60, 0x00, 
0x03, 0x00, 0x00, 0xf7, 0x00, 0x00, 0x60, 0x00, 
0x03, 0x00, 0x40, 0xe7, 0x01, 0x00, 0x60, 0x00, 
0x03, 0x00, 0xe0, 0xce, 0x03, 0x00, 0x60, 0x00, 
0x03, 0x00, 0xe0, 0x9d, 0x07, 0x00, 0x60, 0x00, 
0x03, 0x00, 0xc8, 0x3b, 0x0f, 0x00, 0x60, 0x00, 
0x03, 0x00, 0x9c, 0x77, 0x1e, 0x00, 0x60, 0x00, 
0x03, 0x00, 0x3a, 0xef, 0x2c, 0x00, 0x60, 0x00, 
0x03, 0x00, 0x77, 0xde, 0x71, 0x00, 0x60, 0x00, 
0x03, 0x80, 0xe3, 0xbc, 0x3b, 0x00, 0x60, 0x00, 
0x03, 0xc0, 0xd9, 0x79, 0x9d, 0x01, 0x60, 0x00, 
0x03, 0xe0, 0xbc, 0x73, 0xce, 0x03, 0x60, 0x00, 
0x03, 0x70, 0x1e, 0x7f, 0xe7, 0x01, 0x60, 0x00, 
0x03, 0x38, 0xef, 0xbe, 0xf3, 0x0e, 0x60, 0x00, 
0x03, 0x9c, 0xf7, 0xdd, 0x79, 0x1f, 0x60, 0x00, 
0x03, 0xce, 0xfb, 0xe3, 0xbc, 0x3f, 0x60, 0x00, 
0x03, 0xee, 0x9d, 0xe3, 0xde, 0x39, 0x60, 0x00, 
0x03, 0xfe, 0xce, 0xe3, 0xef, 0x3c, 0x60, 0x00, 
0x03, 0x7c, 0xe7, 0xdd, 0x77, 0x1e, 0x60, 0x00, 
0x03, 0xb8, 0xf3, 0xbe, 0x3b, 0x0f, 0x60, 0x00, 
0x03, 0xc0, 0x79, 0x7f, 0x9c, 0x07, 0x60, 0x00, 
0x03, 0xe0, 0x3c, 0xf7, 0xce, 0x03, 0x60, 0x00, 
0x03, 0x40, 0x5e, 0xe7, 0xe5, 0x01, 0x60, 0x00, 
0x03, 0x00, 0xef, 0xce, 0xf3, 0x00, 0x60, 0x00, 
0x03, 0x00, 0xc7, 0x9d, 0x77, 0x00, 0x60, 0x00, 
0x03, 0x00, 0x8a, 0x3b, 0x2f, 0x00, 0x60, 0x00, 
0x03, 0x00, 0x1c, 0x77, 0x1e, 0x00, 0x60, 0x00, 
0x03, 0x00, 0x38, 0xee, 0x0c, 0x00, 0x60, 0x00, 
0x03, 0x00, 0x70, 0xdc, 0x01, 0x00, 0x60, 0x00, 
0x03, 0x00, 0xe0, 0xb8, 0x03, 0x00, 0x60, 0x00, 
0x03, 0x00, 0xc0, 0x79, 0x01, 0x00, 0x60, 0x00, 
0x03, 0x00, 0x80, 0x73, 0x00, 0x00, 0x60, 0x00, 
0x03, 0x00, 0x00, 0x7f, 0x00, 0x00, 0x60, 0x00, 
0x03, 0x00, 0x00, 0x3e, 0x00, 0x00, 0x60, 0x00, 
0x03, 0x00, 0x00, 0x1c, 0x00, 0x00, 0x60, 0x00, 
0x03, 0x00, 0x00, 0x00, 0x00, 0x00, 0x60, 0x00, 
0x03, 0x00, 0x00, 0x00, 0x00, 0x00, 0x60, 0x00, 
0x03, 0x00, 0x00, 0x00, 0x00, 0x00, 0x60, 0x00, 
0x03, 0x00, 0x00, 0x00, 0x00, 0x00, 0x60, 0x00, 
0x03, 0x00, 0x00, 0x00, 0x00, 0x00, 0x60, 0x00, 
0x03, 0x00, 0x00, 0x00, 0x00, 0x00, 0x60, 0x00, 
0x03, 0x00, 0x00, 0x00, 0x00, 0x00, 0x60, 0x00, 
0x03, 0x00, 0x00, 0x00, 0x00, 0x00, 0x60, 0x00, 
0x03, 0x00, 0x00, 0x00, 0x00, 0x00, 0x60, 0x00, 
0x03, 0x00, 0x00, 0x00, 0x00, 0x00, 0x60, 0x00, 
0x03, 0x00, 0x00, 0x00, 0x00, 0x00, 0x60, 0x00, 
0xfe, 0xff, 0xff, 0xff, 0xff, 0xff, 0x3f, 0x00, 
0xfc, 0xff, 0xff, 0xff, 0xff, 0xff, 0x1f, 0x00, 
}; 
