#define x_width 64
#define x_height 64
static char x_bits[] = {
0x00, 0x00, 0x00, 0x00, 0x00, 0x00, 0x00, 0x00, 
0xc0, 0xff, 0xff, 0xff, 0xff, 0xff, 0xff, 0x1f, 
0xe0, 0xff, 0xff, 0xff, 0xff, 0xff, 0xff, 0x1f, 
0x70, 0x00, 0x00, 0x00, 0x00, 0x00, 0x00, 0x18, 
0x38, 0x00, 0x00, 0x00, 0x00, 0x00, 0x00, 0x18, 
0x1c, 0x00, 0x00, 0x00, 0x00, 0x00, 0x00, 0x58, 
0x0e, 0x00, 0x00, 0x00, 0x00, 0x00, 0x00, 0x38, 
0x06, 0x00, 0x00, 0x00, 0x00, 0x00, 0x00, 0x98, 
0x06, 0x01, 0x01, 0x10, 0x10, 0x00, 0x11, 0x18, 
0x06, 0x01, 0x01, 0x10, 0x10, 0x00, 0x11, 0x58, 
0x06, 0x00, 0x00, 0x00, 0x00, 0x00, 0x00, 0x38, 
0x06, 0x00, 0x00, 0x00, 0x00, 0x00, 0x00, 0x98, 
0x06, 0x10, 0x10, 0x00, 0x01, 0x10, 0x00, 0x18, 
0x06, 0x10, 0x10, 0x00, 0x01, 0x10, 0x00, 0x58, 
0x06, 0x00, 0x00, 0x00, 0x00, 0x00, 0x00, 0x38, 
0x06, 0x00, 0x00, 0x00, 0x00, 0x00, 0x00, 0x98, 
0x06, 0x11, 0x00, 0x01, 0x10, 0x10, 0x01, 0x18, 
0x06, 0x11, 0x00, 0x01, 0x10, 0x10, 0x01, 0x58, 
0x06, 0x00, 0x00, 0x00, 0x00, 0x00, 0x00, 0x38, 
0x06, 0x00, 0x00, 0x00, 0x00, 0x00, 0x00, 0x98, 
0x06, 0x01, 0x00, 0x01, 0x11, 0x01, 0x10, 0x18, 
0x06, 0x01, 0x00, 0x01, 0x11, 0x01, 0x10, 0x58, 
0x06, 0x00, 0x00, 0x00, 0x00, 0x00, 0x00, 0x38, 
0x06, 0x00, 0x00, 0x00, 0x00, 0x00, 0x00, 0x98, 
0x06, 0x00, 0x01, 0x00, 0x00, 0x11, 0x00, 0x18, 
0x06, 0x00, 0x01, 0x00, 0x00, 0x11, 0x00, 0x58, 
0x06, 0x00, 0x00, 0x00, 0x00, 0x00, 0x00, 0x38, 
0x06, 0x00, 0x00, 0x00, 0x00, 0x00, 0x00, 0x98, 
0x06, 0x00, 0x00, 0x00, 0x00, 0x00, 0x00, 0x18, 
0x06, 0x00, 0x00, 0x00, 0x00, 0x00, 0x00, 0x58, 
0x06, 0x00, 0x00, 0x00, 0x00, 0x00, 0x00, 0x38, 
0xfe, 0xff, 0xff, 0xff, 0xff, 0xff, 0xff, 0x9f, 
0xfe, 0xff, 0xff, 0xff, 0xff, 0xff, 0xff, 0x1f, 
0x40, 0x44, 0x44, 0x44, 0x44, 0x44, 0x44, 0x44, 
0x20, 0x22, 0x22, 0x22, 0x22, 0x22, 0x22, 0x22, 
0x80, 0x88, 0x88, 0x88, 0x88, 0x88, 0x88, 0x88, 
0x00, 0x00, 0x00, 0x00, 0x00, 0x00, 0x00, 0x00, 
0x00, 0x00, 0x00, 0x00, 0x00, 0x00, 0x00, 0x00, 
0x00, 0x00, 0x00, 0x00, 0x00, 0x00, 0x00, 0x00, 
0x00, 0x00, 0x00, 0x00, 0x00, 0x00, 0x00, 0x00, 
0x00, 0x00, 0x00, 0x00, 0x00, 0x00, 0x00, 0x00, 
0x00, 0x00, 0x00, 0x00, 0x00, 0x00, 0x00, 0x00, 
0x00, 0x00, 0x00, 0x00, 0x00, 0x00, 0x00, 0x00, 
0x00, 0x00, 0x00, 0x00, 0x00, 0x00, 0x00, 0x00, 
0x00, 0x00, 0x00, 0x00, 0x00, 0x00, 0x00, 0x00, 
0x00, 0x00, 0x00, 0x00, 0x00, 0x00, 0x00, 0x00, 
0x00, 0x00, 0x00, 0x00, 0x00, 0x00, 0x00, 0x00, 
0x00, 0x00, 0x00, 0x00, 0x00, 0x00, 0x00, 0x00, 
0x00, 0x00, 0x00, 0x00, 0x00, 0x00, 0x00, 0x00, 
0x00, 0x00, 0x00, 0x00, 0x00, 0x00, 0x00, 0x00, 
0x00, 0x00, 0x00, 0x00, 0x00, 0x00, 0x00, 0x00, 
0x00, 0x00, 0x00, 0x00, 0x00, 0x00, 0x00, 0x00, 
0x00, 0x00, 0x00, 0x00, 0x00, 0x00, 0x00, 0x00, 
0x00, 0x00, 0x00, 0x00, 0x00, 0x00, 0x00, 0x00, 
0x00, 0x00, 0x00, 0x00, 0x00, 0x00, 0x00, 0x00, 
0x00, 0x00, 0x00, 0x00, 0x00, 0x00, 0x00, 0x00, 
0x00, 0x00, 0x00, 0x00, 0x00, 0x00, 0x00, 0x00, 
0x00, 0x00, 0x00, 0x00, 0x00, 0x00, 0x00, 0x00, 
0x00, 0x00, 0x00, 0x00, 0x00, 0x00, 0x00, 0x00, 
0x00, 0x00, 0x00, 0x00, 0x00, 0x00, 0x00, 0x00, 
0x00, 0x00, 0x00, 0x00, 0x00, 0x00, 0x00, 0x00, 
0x00, 0x00, 0x00, 0x00, 0x00, 0x00, 0x00, 0x00, 
0x00, 0x00, 0x00, 0x00, 0x00, 0x00, 0x00, 0x00, 
0x00, 0x00, 0x00, 0x00, 0x00, 0x00, 0x00, 0x00, 
}; 
