#define x_width 64
#define x_height 64
static char x_bits[] = {
0xff, 0xff, 0xff, 0xff, 0xff, 0xff, 0xff, 0xff, 
0xff, 0xff, 0xff, 0xff, 0xff, 0xff, 0xff, 0xff, 
0x03, 0x00, 0x00, 0x00, 0x00, 0x00, 0x00, 0xc0, 
0x03, 0x00, 0x00, 0x00, 0x00, 0x00, 0x00, 0xc0, 
0x03, 0x00, 0x00, 0x00, 0x00, 0x00, 0x00, 0xc0, 
0x03, 0x00, 0x00, 0x00, 0x00, 0x00, 0x00, 0xc0, 
0x03, 0x00, 0x00, 0x00, 0x00, 0x00, 0x00, 0xc0, 
0x03, 0x00, 0x00, 0x03, 0x00, 0x00, 0x00, 0xc0, 
0x03, 0x00, 0x00, 0x03, 0x00, 0x00, 0x00, 0xc0, 
0x03, 0x00, 0x00, 0x03, 0x00, 0x00, 0x00, 0xc0, 
0x03, 0x00, 0x00, 0x03, 0x00, 0x00, 0x00, 0xc0, 
0x03, 0x00, 0xf0, 0x3f, 0x00, 0x00, 0x00, 0xc0, 
0x03, 0x00, 0xf0, 0x3f, 0x00, 0x00, 0x00, 0xc0, 
0x03, 0x00, 0x00, 0x03, 0x00, 0x00, 0x00, 0xc0, 
0x03, 0x00, 0x00, 0x03, 0x00, 0x00, 0x00, 0xc0, 
0x03, 0x80, 0x03, 0x03, 0x07, 0x00, 0x00, 0xc0, 
0x03, 0xe0, 0x1f, 0xe3, 0x1f, 0x00, 0x00, 0xc0, 
0x03, 0xf8, 0x7f, 0xfb, 0x7f, 0x00, 0x00, 0xc0, 
0x03, 0xfc, 0xff, 0xff, 0xff, 0x00, 0x00, 0xc0, 
0x03, 0xfe, 0xff, 0xff, 0xff, 0x01, 0x00, 0xc0, 
0x03, 0xff, 0xff, 0xfc, 0xff, 0x03, 0x00, 0xc0, 
0x03, 0xff, 0xff, 0xfc, 0xff, 0x03, 0x00, 0xc0, 
0x83, 0xff, 0xff, 0xfc, 0xff, 0x07, 0x00, 0xc0, 
0xc3, 0xff, 0xff, 0xfc, 0xff, 0x0f, 0x00, 0xc0, 
0xc3, 0xff, 0xff, 0xfc, 0xff, 0x0f, 0x00, 0xc0, 
0xc3, 0xff, 0xff, 0xfc, 0xff, 0x0f, 0x00, 0xc0, 
0xc3, 0x7f, 0xf8, 0x7f, 0xf8, 0x0f, 0x00, 0xc0, 
0xc3, 0x7f, 0xf0, 0x3f, 0xf8, 0x0f, 0x00, 0xc0, 
0xc3, 0x3f, 0xf0, 0x3f, 0xf0, 0x1f, 0x00, 0xc0, 
0x83, 0x1f, 0xe0, 0x1f, 0xe0, 0x70, 0x00, 0xc0, 
0x83, 0x1f, 0xe0, 0x1f, 0x30, 0xc0, 0x00, 0xc0, 
0x83, 0x1f, 0xe0, 0x1f, 0x10, 0x80, 0x00, 0xc0, 
0x03, 0x1f, 0xc0, 0x0f, 0x18, 0x80, 0x01, 0xc0, 
0x03, 0x3f, 0xc0, 0x0f, 0x08, 0x00, 0x01, 0xc0, 
0x03, 0x3f, 0xc0, 0x0f, 0x0c, 0x00, 0x03, 0xc0, 
0x03, 0x7e, 0xc0, 0x0f, 0x0c, 0x00, 0x03, 0xc0, 
0x03, 0xfe, 0xff, 0xff, 0x0f, 0x00, 0x01, 0xc0, 
0x03, 0xfc, 0xff, 0xff, 0x1f, 0x80, 0x01, 0xc0, 
0x03, 0x0c, 0x00, 0x00, 0x10, 0x80, 0x00, 0xc0, 
0x03, 0x0c, 0x00, 0x00, 0x30, 0xc0, 0x00, 0xc0, 
0x03, 0x0c, 0x03, 0x03, 0xe3, 0x70, 0x00, 0xc0, 
0x03, 0x0c, 0x03, 0x03, 0xc3, 0x3f, 0x00, 0xc0, 
0x03, 0x0c, 0x00, 0x00, 0x40, 0x20, 0x00, 0xc0, 
0x03, 0x0c, 0x00, 0x00, 0x40, 0x20, 0x00, 0xc0, 
0x03, 0xfc, 0xff, 0xff, 0x7f, 0x60, 0x00, 0xc0, 
0x03, 0xfc, 0xff, 0xff, 0x7f, 0x60, 0x00, 0xc0, 
0x03, 0x00, 0x00, 0x00, 0x20, 0x40, 0x00, 0xc0, 
0x03, 0x00, 0x00, 0x00, 0x20, 0x40, 0x00, 0xc0, 
0x03, 0x00, 0x00, 0x00, 0x30, 0xc0, 0x00, 0xc0, 
0x03, 0x00, 0x00, 0x00, 0x10, 0x80, 0x00, 0xc0, 
0x03, 0x00, 0x00, 0x00, 0x10, 0x80, 0x00, 0xc0, 
0x03, 0x00, 0x00, 0x00, 0x10, 0x80, 0x00, 0xc0, 
0x03, 0x00, 0x00, 0x00, 0x1c, 0x80, 0x03, 0xc0, 
0x03, 0x00, 0x00, 0x00, 0x07, 0x00, 0x0e, 0xc0, 
0x03, 0x00, 0x00, 0xc0, 0x01, 0x00, 0x38, 0xc0, 
0x03, 0x00, 0x00, 0x70, 0x00, 0x00, 0xe0, 0xc0, 
0x03, 0x00, 0x00, 0x18, 0x00, 0x00, 0x80, 0xc1, 
0x03, 0x00, 0x00, 0x18, 0x00, 0x00, 0x80, 0xc1, 
0x03, 0x00, 0x00, 0xf8, 0xff, 0xff, 0xff, 0xc1, 
0x03, 0x00, 0x00, 0xf8, 0xff, 0xff, 0xff, 0xc1, 
0x03, 0x00, 0x00, 0x00, 0x00, 0x00, 0x00, 0xc0, 
0x03, 0x00, 0x00, 0x00, 0x00, 0x00, 0x00, 0xc0, 
0xff, 0xff, 0xff, 0xff, 0xff, 0xff, 0xff, 0xff, 
0xff, 0xff, 0xff, 0xff, 0xff, 0xff, 0xff, 0xff, 
}; 
