#define x_width 64
#define x_height 64
static char x_bits[] = {
0x00, 0x00, 0x00, 0xfc, 0x3f, 0x00, 0x00, 0x00, 
0x00, 0x00, 0xc0, 0xff, 0xff, 0x03, 0x00, 0x00, 
0x00, 0x00, 0xf0, 0x07, 0xe0, 0x0f, 0x00, 0x00, 
0x00, 0x00, 0x7e, 0x80, 0x01, 0x7e, 0x00, 0x00, 
0x00, 0x00, 0x0f, 0x80, 0x01, 0xf0, 0x00, 0x00, 
0x00, 0xc0, 0x03, 0x00, 0x00, 0xc0, 0x03, 0x00, 
0x00, 0xe0, 0x00, 0x00, 0x00, 0x00, 0x07, 0x00, 
0x00, 0x78, 0x06, 0x00, 0x00, 0x60, 0x1e, 0x00, 
0x00, 0x1c, 0x06, 0x00, 0x00, 0x60, 0x38, 0x00, 
0x00, 0x0e, 0x00, 0x00, 0x00, 0x00, 0x70, 0x00, 
0x00, 0x07, 0x00, 0x00, 0x00, 0x00, 0xe0, 0x00, 
0x80, 0x03, 0x00, 0x00, 0x00, 0x00, 0xc0, 0x01, 
0x80, 0x01, 0x00, 0x00, 0x00, 0x00, 0x80, 0x01, 
0xc0, 0x00, 0x00, 0x00, 0x00, 0x00, 0x00, 0x03, 
0xe0, 0x00, 0x00, 0x00, 0x00, 0x00, 0x00, 0x07, 
0x60, 0x00, 0x00, 0x00, 0x00, 0x00, 0x00, 0x06, 
0x30, 0x00, 0x00, 0x00, 0x00, 0x00, 0x00, 0x0c, 
0xb8, 0x01, 0x00, 0x00, 0x00, 0x00, 0x80, 0x1d, 
0x98, 0x01, 0x00, 0x00, 0x00, 0x00, 0x80, 0x19, 
0x18, 0x00, 0x00, 0x00, 0x00, 0x00, 0x00, 0x18, 
0x0c, 0x00, 0x00, 0x00, 0x00, 0x00, 0x00, 0x30, 
0x0c, 0x00, 0x00, 0x00, 0x00, 0x00, 0x00, 0x30, 
0x0e, 0x00, 0x00, 0x00, 0x00, 0x00, 0x00, 0x70, 
0x06, 0x00, 0x00, 0x00, 0x00, 0x00, 0x00, 0x60, 
0x06, 0x00, 0x00, 0x00, 0x00, 0x00, 0x00, 0x60, 
0x06, 0x00, 0x00, 0x00, 0x00, 0x00, 0x00, 0x60, 
0x07, 0x00, 0x00, 0x00, 0x00, 0x00, 0x00, 0xe0, 
0x03, 0x00, 0x00, 0x00, 0x00, 0x00, 0x00, 0xc0, 
0x03, 0x00, 0x00, 0x00, 0x00, 0x00, 0x00, 0xc0, 
0x03, 0x00, 0x00, 0x00, 0x00, 0x00, 0x00, 0xc0, 
0x03, 0x00, 0x00, 0x80, 0x01, 0x00, 0x00, 0xc0, 
0x1b, 0x00, 0x00, 0xc0, 0x03, 0x00, 0x00, 0xd8, 
0x1b, 0x00, 0x00, 0xc0, 0x03, 0x00, 0x00, 0xd8, 
0x03, 0x00, 0x00, 0x80, 0x01, 0x00, 0x00, 0xc0, 
0x03, 0x00, 0x00, 0x00, 0x00, 0x00, 0x00, 0xc0, 
0x03, 0x00, 0x00, 0x00, 0x00, 0x00, 0x00, 0xc0, 
0x03, 0x00, 0x00, 0x00, 0x00, 0x00, 0x00, 0xc0, 
0x07, 0x00, 0x00, 0x00, 0x00, 0x00, 0x00, 0xe0, 
0x06, 0x00, 0x00, 0x00, 0x00, 0x00, 0x00, 0x60, 
0x06, 0x00, 0x00, 0x00, 0x00, 0x00, 0x00, 0x60, 
0x06, 0x00, 0x00, 0x00, 0x00, 0x00, 0x00, 0x60, 
0x0e, 0x00, 0x00, 0x00, 0x00, 0x00, 0x00, 0x70, 
0x0c, 0x00, 0x00, 0x00, 0x00, 0x00, 0x00, 0x30, 
0x0c, 0x00, 0x00, 0x00, 0x00, 0x00, 0x00, 0x30, 
0x18, 0x00, 0x00, 0x00, 0x00, 0x00, 0x00, 0x18, 
0x98, 0x01, 0x00, 0x00, 0x00, 0x00, 0x80, 0x19, 
0x98, 0x01, 0x00, 0x00, 0x00, 0x00, 0x80, 0x1d, 
0x30, 0x00, 0x00, 0x00, 0x00, 0x00, 0x00, 0x0c, 
0x60, 0x00, 0x00, 0x00, 0x00, 0x00, 0x00, 0x06, 
0xe0, 0x00, 0x00, 0x00, 0x00, 0x00, 0x00, 0x07, 
0xc0, 0x00, 0x00, 0x00, 0x00, 0x00, 0x00, 0x03, 
0x80, 0x01, 0x00, 0x00, 0x00, 0x00, 0x80, 0x01, 
0x80, 0x03, 0x00, 0x00, 0x00, 0x00, 0xc0, 0x01, 
0x00, 0x07, 0x00, 0x00, 0x00, 0x00, 0xe0, 0x00, 
0x00, 0x0e, 0x00, 0x00, 0x00, 0x00, 0x70, 0x00, 
0x00, 0x1c, 0x06, 0x00, 0x00, 0x60, 0x38, 0x00, 
0x00, 0x78, 0x06, 0x00, 0x00, 0x60, 0x1e, 0x00, 
0x00, 0xe0, 0x00, 0x00, 0x00, 0x00, 0x0f, 0x00, 
0x00, 0xc0, 0x03, 0x00, 0x00, 0xc0, 0x07, 0x00, 
0x00, 0x00, 0x0f, 0x80, 0x01, 0xf0, 0x01, 0x00, 
0x00, 0x00, 0x7e, 0x80, 0x01, 0xfe, 0x00, 0x00, 
0x00, 0x00, 0xf0, 0x07, 0xe0, 0x1f, 0x00, 0x00, 
0x00, 0x00, 0xc0, 0xff, 0xff, 0x07, 0x00, 0x00, 
0x00, 0x00, 0x00, 0xfc, 0x3f, 0x00, 0x00, 0x00, 
}; 
