#define x_width 64
#define x_height 64
static char x_bits[] = {
0x00, 0x00, 0x00, 0x00, 0x00, 0x00, 0x00, 0x00, 
0x00, 0xfc, 0xff, 0xff, 0xff, 0xff, 0x7f, 0x00, 
0x00, 0x04, 0x00, 0x00, 0x00, 0x00, 0x40, 0x00, 
0x00, 0xe4, 0xff, 0xff, 0xff, 0xff, 0x4f, 0x00, 
0x00, 0x34, 0x11, 0x11, 0x11, 0x11, 0x59, 0x00, 
0x00, 0x54, 0x44, 0x44, 0x44, 0x44, 0x54, 0x00, 
0x00, 0x34, 0x22, 0x22, 0x22, 0x22, 0x52, 0x00, 
0x00, 0x94, 0x88, 0x88, 0x88, 0x88, 0x58, 0x00, 
0x00, 0x14, 0xf1, 0xff, 0x7f, 0x11, 0x51, 0x00, 
0x00, 0x54, 0xf4, 0xff, 0x7f, 0x44, 0x54, 0x00, 
0x00, 0x34, 0x12, 0x00, 0x40, 0x22, 0x52, 0x00, 
0x00, 0x94, 0x18, 0x00, 0xc0, 0x9f, 0x58, 0x00, 
0x00, 0x14, 0x11, 0x00, 0xc0, 0x1f, 0x51, 0x00, 
0x00, 0x54, 0x14, 0x00, 0x40, 0x50, 0x54, 0x00, 
0x00, 0x34, 0x12, 0x00, 0x40, 0x30, 0x52, 0x00, 
0x00, 0x94, 0xff, 0xff, 0x4f, 0x90, 0x58, 0x00, 
0x00, 0x94, 0xff, 0xff, 0x4f, 0x10, 0x51, 0x00, 
0x00, 0xd4, 0x00, 0x00, 0x48, 0x50, 0x54, 0x00, 
0x00, 0xb4, 0x00, 0x00, 0x78, 0x30, 0x52, 0x00, 
0x00, 0x94, 0x00, 0x00, 0x08, 0x90, 0x58, 0x00, 
0x00, 0x94, 0x00, 0x00, 0x08, 0x10, 0x51, 0x00, 
0x00, 0xd4, 0x00, 0x00, 0x08, 0x50, 0x54, 0x00, 
0x00, 0xb4, 0x00, 0x00, 0x08, 0x30, 0x52, 0x00, 
0x00, 0x94, 0x00, 0x00, 0x08, 0x90, 0x58, 0x00, 
0x00, 0x94, 0x00, 0x00, 0xf8, 0x1f, 0x51, 0x00, 
0x00, 0xd4, 0x00, 0x00, 0x48, 0x44, 0x54, 0x00, 
0x00, 0xb4, 0x00, 0x00, 0x28, 0x22, 0x52, 0x00, 
0x00, 0x94, 0xff, 0xff, 0x8f, 0x88, 0x58, 0x00, 
0x00, 0x14, 0x11, 0x11, 0x11, 0x11, 0x51, 0x00, 
0x00, 0x54, 0x44, 0x44, 0x44, 0x44, 0x54, 0x00, 
0x00, 0xe4, 0xff, 0xff, 0xff, 0xff, 0x4f, 0x00, 
0x00, 0x04, 0x00, 0x00, 0x00, 0x00, 0x40, 0x00, 
0x00, 0xfc, 0xff, 0xff, 0xff, 0xff, 0x7f, 0x00, 
0x00, 0x00, 0x00, 0x04, 0x10, 0x00, 0x00, 0x00, 
0x80, 0xff, 0xff, 0xff, 0xff, 0xff, 0xff, 0x01, 
0x40, 0x00, 0x00, 0x00, 0x00, 0x00, 0x00, 0x02, 
0x40, 0x04, 0x00, 0x00, 0x00, 0x00, 0x00, 0x02, 
0x40, 0x3e, 0x00, 0x00, 0x00, 0x00, 0x00, 0x02, 
0x40, 0x04, 0x00, 0x00, 0x00, 0x00, 0x00, 0x02, 
0x40, 0x00, 0x00, 0x00, 0x00, 0x00, 0x00, 0x02, 
0x40, 0x00, 0x00, 0x00, 0x00, 0x00, 0x00, 0x02, 
0x80, 0xff, 0xff, 0xff, 0xff, 0xff, 0xff, 0x01, 
0x80, 0xaa, 0xff, 0xff, 0xff, 0xff, 0xff, 0x01, 
0x80, 0xff, 0xff, 0xff, 0xff, 0xff, 0xff, 0x01, 
0x00, 0x00, 0x00, 0x00, 0x00, 0x00, 0x00, 0x00, 
0x00, 0x00, 0x00, 0x00, 0x00, 0x00, 0x00, 0x00, 
0x00, 0x00, 0x00, 0x00, 0x00, 0x00, 0x00, 0x00, 
0x00, 0x00, 0x00, 0x00, 0x00, 0x00, 0x00, 0x00, 
0x00, 0x00, 0x00, 0x00, 0x00, 0x00, 0x00, 0x00, 
0x00, 0x00, 0x00, 0x00, 0x00, 0x00, 0x00, 0x00, 
0x00, 0x00, 0x00, 0x00, 0x00, 0x00, 0x00, 0x00, 
0x00, 0x00, 0x00, 0x00, 0x00, 0x00, 0x00, 0x00, 
0x00, 0x00, 0x00, 0x00, 0x00, 0x00, 0x00, 0x00, 
0x00, 0x00, 0x00, 0x00, 0x00, 0x00, 0x00, 0x00, 
0x00, 0x00, 0x00, 0x00, 0x00, 0x00, 0x00, 0x00, 
0x00, 0x00, 0x00, 0x00, 0x00, 0x00, 0x00, 0x00, 
0x00, 0x00, 0x00, 0x00, 0x00, 0x00, 0x00, 0x00, 
0x00, 0x00, 0x00, 0x00, 0x00, 0x00, 0x00, 0x00, 
0x00, 0x00, 0x00, 0x00, 0x00, 0x00, 0x00, 0x00, 
0x00, 0x00, 0x00, 0x00, 0x00, 0x00, 0x00, 0x00, 
0x00, 0x00, 0x00, 0x00, 0x00, 0x00, 0x00, 0x00, 
0x00, 0x00, 0x00, 0x00, 0x00, 0x00, 0x00, 0x00, 
0x00, 0x00, 0x00, 0x00, 0x00, 0x00, 0x00, 0x00, 
0x00, 0x00, 0x00, 0x00, 0x00, 0x00, 0x00, 0x00, 
}; 
