#define x_width 64
#define x_height 64
static char x_bits[] = {
0x11, 0x11, 0x11, 0xfd, 0x3f, 0x11, 0x11, 0x11, 
0x11, 0x11, 0xd1, 0xff, 0xff, 0x13, 0x11, 0x11, 
0x44, 0x44, 0xf4, 0x07, 0xe0, 0x4f, 0x44, 0x44, 
0x44, 0x44, 0x7e, 0x80, 0x01, 0x7e, 0x44, 0x44, 
0x11, 0x11, 0x0f, 0x80, 0x01, 0xf0, 0x11, 0x11, 
0x11, 0xd1, 0x03, 0x00, 0x00, 0xc0, 0x13, 0x11, 
0x44, 0xe4, 0x00, 0x00, 0x00, 0x00, 0x47, 0x44, 
0x44, 0x7c, 0x06, 0x00, 0x00, 0x60, 0x5e, 0x44, 
0x11, 0x1d, 0x06, 0x00, 0x00, 0x60, 0x38, 0x11, 
0x11, 0x0f, 0x00, 0x00, 0x00, 0x00, 0x70, 0x11, 
0x44, 0x07, 0x00, 0x00, 0x00, 0x00, 0xe0, 0x44, 
0xc4, 0x03, 0x00, 0x00, 0x00, 0x00, 0xc0, 0x45, 
0x91, 0x01, 0x00, 0x00, 0x00, 0x00, 0x80, 0x11, 
0xd1, 0x00, 0x00, 0x00, 0x00, 0x00, 0x00, 0x13, 
0xe4, 0x00, 0x00, 0x00, 0x00, 0x00, 0x00, 0x47, 
0x64, 0x00, 0x00, 0x00, 0x00, 0x00, 0x00, 0x46, 
0x31, 0x00, 0x00, 0x00, 0x00, 0x00, 0x00, 0x1c, 
0xb9, 0x01, 0x00, 0x00, 0x00, 0x00, 0x80, 0x1d, 
0x9c, 0x01, 0x00, 0x00, 0x00, 0x00, 0x80, 0x59, 
0x1c, 0x00, 0x00, 0x00, 0x00, 0x00, 0x00, 0x58, 
0x0d, 0x00, 0x00, 0x00, 0x00, 0x00, 0x00, 0x30, 
0x0d, 0x00, 0x00, 0x00, 0x00, 0x00, 0x00, 0x30, 
0x0e, 0x00, 0x00, 0x00, 0x00, 0x00, 0x00, 0x70, 
0x06, 0x00, 0x00, 0x00, 0x00, 0x00, 0x00, 0x60, 
0x07, 0x00, 0x00, 0x00, 0x00, 0x00, 0x00, 0x60, 
0x07, 0x00, 0x00, 0x00, 0x00, 0x00, 0x00, 0x60, 
0x07, 0x00, 0x00, 0x00, 0x00, 0x00, 0x00, 0xe0, 
0x03, 0x00, 0x00, 0x00, 0x00, 0x00, 0x00, 0xc0, 
0x03, 0x00, 0x00, 0x00, 0x00, 0x00, 0x00, 0xc0, 
0x03, 0x00, 0x00, 0x00, 0x00, 0x00, 0x00, 0xc0, 
0x03, 0x00, 0x00, 0x80, 0x01, 0x00, 0x00, 0xc0, 
0x1b, 0x00, 0x00, 0xc0, 0x03, 0x00, 0x00, 0xd8, 
0x1b, 0x00, 0x00, 0xc0, 0x03, 0x00, 0x00, 0xd8, 
0x03, 0x00, 0x00, 0x80, 0x01, 0x00, 0x00, 0xc0, 
0x03, 0x00, 0x00, 0x00, 0x00, 0x00, 0x00, 0xc0, 
0x03, 0x00, 0x00, 0x00, 0x00, 0x00, 0x00, 0xc0, 
0x03, 0x00, 0x00, 0x00, 0x00, 0x00, 0x00, 0xc0, 
0x07, 0x00, 0x00, 0x00, 0x00, 0x00, 0x00, 0xe0, 
0x06, 0x00, 0x00, 0x00, 0x00, 0x00, 0x00, 0x60, 
0x06, 0x00, 0x00, 0x00, 0x00, 0x00, 0x00, 0x60, 
0x07, 0x00, 0x00, 0x00, 0x00, 0x00, 0x00, 0x60, 
0x0f, 0x00, 0x00, 0x00, 0x00, 0x00, 0x00, 0x70, 
0x0c, 0x00, 0x00, 0x00, 0x00, 0x00, 0x00, 0x70, 
0x0c, 0x00, 0x00, 0x00, 0x00, 0x00, 0x00, 0x70, 
0x19, 0x00, 0x00, 0x00, 0x00, 0x00, 0x00, 0x18, 
0x99, 0x01, 0x00, 0x00, 0x00, 0x00, 0x80, 0x19, 
0x9c, 0x01, 0x00, 0x00, 0x00, 0x00, 0x80, 0x5d, 
0x34, 0x00, 0x00, 0x00, 0x00, 0x00, 0x00, 0x4c, 
0x71, 0x00, 0x00, 0x00, 0x00, 0x00, 0x00, 0x16, 
0xf1, 0x00, 0x00, 0x00, 0x00, 0x00, 0x00, 0x17, 
0xc4, 0x00, 0x00, 0x00, 0x00, 0x00, 0x00, 0x47, 
0xc4, 0x01, 0x00, 0x00, 0x00, 0x00, 0x80, 0x45, 
0x91, 0x03, 0x00, 0x00, 0x00, 0x00, 0xc0, 0x11, 
0x11, 0x07, 0x00, 0x00, 0x00, 0x00, 0xe0, 0x11, 
0x44, 0x0e, 0x00, 0x00, 0x00, 0x00, 0x70, 0x44, 
0x44, 0x1c, 0x06, 0x00, 0x00, 0x60, 0x78, 0x44, 
0x11, 0x79, 0x06, 0x00, 0x00, 0x60, 0x1e, 0x11, 
0x11, 0xf1, 0x00, 0x00, 0x00, 0x00, 0x17, 0x11, 
0x44, 0xc4, 0x03, 0x00, 0x00, 0xc0, 0x47, 0x44, 
0x44, 0x44, 0x0f, 0x80, 0x01, 0xf0, 0x44, 0x44, 
0x11, 0x11, 0x7f, 0x80, 0x01, 0x7e, 0x11, 0x11, 
0x11, 0x11, 0xf1, 0x07, 0xe0, 0x1f, 0x11, 0x11, 
0x44, 0x44, 0xc4, 0xff, 0xff, 0x47, 0x44, 0x44, 
0x44, 0x44, 0x44, 0xfc, 0x7f, 0x44, 0x44, 0x44, 
}; 
