#define x_width 64
#define x_height 64
static char x_bits[] = {
0xff, 0xff, 0xff, 0xff, 0xff, 0xff, 0xff, 0xff, 
0xff, 0xff, 0xff, 0xff, 0xff, 0xff, 0xff, 0xff, 
0x03, 0x00, 0x00, 0x00, 0x00, 0x00, 0x00, 0xc0, 
0x03, 0x40, 0x0a, 0x90, 0x0a, 0x80, 0x00, 0xc0, 
0x03, 0x80, 0x09, 0x60, 0x0a, 0x80, 0x00, 0xc0, 
0x03, 0x80, 0x09, 0x60, 0x0a, 0x80, 0x00, 0xc0, 
0x03, 0x80, 0x09, 0x60, 0x0a, 0x80, 0x00, 0xc0, 
0x03, 0x40, 0x0a, 0x90, 0x0a, 0x80, 0x00, 0xc0, 
0x03, 0x00, 0x00, 0x00, 0x00, 0x00, 0x00, 0xc0, 
0x03, 0x00, 0x00, 0x00, 0x00, 0x00, 0x00, 0xc0, 
0x03, 0x00, 0x00, 0x00, 0x00, 0x00, 0x00, 0xc0, 
0x03, 0x00, 0x00, 0x00, 0x00, 0x00, 0x00, 0xc0, 
0x03, 0x00, 0x00, 0x00, 0x00, 0x00, 0x00, 0xc0, 
0x03, 0x00, 0x00, 0x00, 0x00, 0x00, 0x00, 0xc0, 
0x03, 0x00, 0x00, 0x00, 0x00, 0x00, 0x00, 0xc0, 
0x23, 0x01, 0x00, 0x00, 0x00, 0x00, 0x00, 0xc5, 
0xc3, 0x00, 0x00, 0x00, 0x00, 0x00, 0x00, 0xc5, 
0xc3, 0x00, 0x00, 0x00, 0x00, 0x00, 0x00, 0xc5, 
0xc3, 0x00, 0x00, 0x00, 0x00, 0x00, 0x00, 0xc5, 
0x23, 0x01, 0x00, 0x00, 0x00, 0x00, 0x00, 0xc5, 
0x03, 0x00, 0x00, 0x00, 0x00, 0x00, 0x00, 0xc0, 
0x03, 0x00, 0x00, 0x00, 0x00, 0x00, 0x00, 0xc0, 
0x03, 0x00, 0x00, 0x00, 0x00, 0x00, 0x00, 0xc0, 
0x03, 0x00, 0x00, 0x00, 0x00, 0x00, 0x00, 0xc0, 
0x03, 0x00, 0x00, 0x00, 0x00, 0x00, 0x00, 0xc0, 
0x03, 0x00, 0x00, 0x00, 0x00, 0x00, 0x00, 0xc0, 
0x03, 0x00, 0x00, 0x00, 0x00, 0x00, 0x00, 0xc0, 
0x03, 0x00, 0x00, 0x00, 0x00, 0x00, 0x00, 0xc0, 
0x03, 0x00, 0x00, 0x00, 0x00, 0x00, 0x00, 0xc0, 
0x53, 0x02, 0x00, 0x00, 0x00, 0x00, 0x80, 0xca, 
0x93, 0x01, 0x00, 0xc0, 0x03, 0x00, 0x80, 0xca, 
0x93, 0x01, 0x00, 0xc0, 0x03, 0x00, 0x80, 0xca, 
0x93, 0x01, 0x00, 0xc0, 0x03, 0x00, 0x80, 0xca, 
0x53, 0x02, 0x00, 0xc0, 0x03, 0x00, 0x80, 0xca, 
0x03, 0x00, 0x00, 0x00, 0x00, 0x00, 0x00, 0xc0, 
0x03, 0x00, 0x00, 0x00, 0x00, 0x00, 0x00, 0xc0, 
0x03, 0x00, 0x00, 0x00, 0x00, 0x00, 0x00, 0xc0, 
0x03, 0x00, 0x00, 0x00, 0x00, 0x00, 0x00, 0xc0, 
0x03, 0x00, 0x00, 0x00, 0x00, 0x00, 0x00, 0xc0, 
0x03, 0x00, 0x00, 0x00, 0x00, 0x00, 0x00, 0xc0, 
0x03, 0x00, 0x00, 0x00, 0x00, 0x00, 0x00, 0xc0, 
0x03, 0x00, 0x00, 0x00, 0x00, 0x00, 0x00, 0xc0, 
0x03, 0x00, 0x00, 0x00, 0x00, 0x00, 0x00, 0xc0, 
0x03, 0x00, 0x00, 0x00, 0x00, 0x00, 0x00, 0xc0, 
0x8b, 0x2a, 0x00, 0x00, 0x00, 0x00, 0x40, 0xd5, 
0x8b, 0x2a, 0x00, 0x00, 0x00, 0x00, 0x40, 0xd5, 
0x53, 0x2a, 0x00, 0x00, 0x00, 0x00, 0x40, 0xd5, 
0x53, 0x2a, 0x00, 0x00, 0x00, 0x00, 0x40, 0xd5, 
0x23, 0x2a, 0x00, 0x00, 0x00, 0x00, 0x40, 0xd5, 
0x03, 0x00, 0x00, 0x00, 0x00, 0x00, 0x00, 0xc0, 
0x03, 0x00, 0x00, 0x00, 0x00, 0x00, 0x00, 0xc0, 
0x03, 0x00, 0x00, 0x00, 0x00, 0x00, 0x00, 0xc0, 
0x03, 0x00, 0x00, 0x00, 0x00, 0x00, 0x00, 0xc0, 
0x03, 0x00, 0x00, 0x00, 0x00, 0x00, 0x00, 0xc0, 
0x03, 0x00, 0x00, 0x00, 0x00, 0x00, 0x00, 0xc0, 
0x03, 0x00, 0x00, 0x00, 0x00, 0x00, 0x00, 0xc0, 
0x03, 0x10, 0x15, 0x20, 0x0a, 0x20, 0x02, 0xc0, 
0x03, 0x10, 0x15, 0x20, 0x0a, 0x20, 0x02, 0xc0, 
0x03, 0xa0, 0x14, 0x40, 0x09, 0x40, 0x01, 0xc0, 
0x03, 0xa0, 0x14, 0x40, 0x09, 0x40, 0x01, 0xc0, 
0x03, 0x40, 0x14, 0x80, 0x08, 0x80, 0x00, 0xc0, 
0x03, 0x00, 0x00, 0x00, 0x00, 0x00, 0x00, 0xc0, 
0xff, 0xff, 0xff, 0xff, 0xff, 0xff, 0xff, 0xff, 
0xff, 0xff, 0xff, 0xff, 0xff, 0xff, 0xff, 0xff, 
}; 
