#define x_width 64
#define x_height 64
static char x_bits[] = {
0xff, 0xff, 0xff, 0xff, 0xff, 0xff, 0xff, 0xff, 
0x01, 0x04, 0x00, 0x00, 0x00, 0x00, 0x00, 0x80, 
0x21, 0x04, 0x00, 0x00, 0x00, 0xfe, 0x07, 0x80, 
0x71, 0x04, 0x00, 0x00, 0xc0, 0x47, 0x0e, 0x80, 
0xf9, 0x04, 0x00, 0x00, 0x70, 0x84, 0x30, 0x80, 
0x01, 0x04, 0x00, 0x00, 0xb0, 0x48, 0xe8, 0x80, 
0x55, 0x05, 0x00, 0x00, 0x1c, 0x49, 0xc8, 0x81, 
0xa9, 0xf4, 0x01, 0x00, 0x0c, 0x41, 0x84, 0x83, 
0x55, 0xfd, 0x1f, 0x00, 0x22, 0x09, 0x24, 0x83, 
0xa9, 0x6c, 0x3f, 0x00, 0x23, 0x41, 0x00, 0x87, 
0x55, 0xfd, 0x7d, 0x00, 0x09, 0x20, 0x80, 0x8c, 
0xa9, 0xc4, 0xf7, 0xc1, 0x51, 0x04, 0x5a, 0x9c, 
0x55, 0x05, 0xdf, 0xc7, 0x01, 0x00, 0x01, 0x9c, 
0xa9, 0x04, 0x7c, 0x7f, 0x8d, 0x91, 0x80, 0x99, 
0x55, 0x05, 0xf0, 0xfd, 0x60, 0x65, 0x00, 0xb8, 
0xa9, 0x04, 0xc0, 0xf7, 0x11, 0x18, 0xd8, 0xb0, 
0x55, 0x25, 0x00, 0xff, 0x07, 0xec, 0x05, 0xb1, 
0xa9, 0x84, 0x00, 0xfc, 0x3f, 0x08, 0x00, 0xb6, 
0x55, 0x05, 0x00, 0x00, 0x30, 0x28, 0x00, 0xf0, 
0xa9, 0x04, 0x00, 0x00, 0x7f, 0x4d, 0x00, 0xe0, 
0x55, 0x6d, 0x80, 0xff, 0x80, 0x43, 0x10, 0xf0, 
0xa9, 0x84, 0x2f, 0x00, 0x0b, 0x00, 0x40, 0xf0, 
0x55, 0x05, 0x00, 0xa0, 0x40, 0x88, 0x40, 0xe0, 
0xa9, 0x04, 0x00, 0x10, 0x60, 0x88, 0x80, 0xf0, 
0x55, 0x05, 0x00, 0x0c, 0x02, 0x08, 0x01, 0xf3, 
0xa9, 0x04, 0x00, 0x07, 0x11, 0x08, 0x00, 0xe4, 
0x55, 0x05, 0xdb, 0x80, 0x10, 0x00, 0x0c, 0xf0, 
0xa9, 0x64, 0x00, 0x40, 0x08, 0x00, 0x10, 0xf0, 
0x55, 0x15, 0x00, 0x20, 0x08, 0x08, 0x10, 0xe0, 
0xa9, 0x14, 0x00, 0x21, 0x08, 0x10, 0x20, 0xb0, 
0x55, 0x0d, 0x80, 0x00, 0x08, 0x00, 0x20, 0xb0, 
0xa9, 0x0c, 0x08, 0x10, 0x00, 0x10, 0x40, 0xb0, 
0x55, 0x05, 0x04, 0x08, 0x08, 0x10, 0x81, 0xb8, 
0xa9, 0x04, 0x03, 0x00, 0x00, 0x01, 0x02, 0x99, 
0x55, 0x85, 0x00, 0x82, 0x08, 0x10, 0x02, 0x8c, 
0xa9, 0x04, 0x80, 0x01, 0x08, 0x11, 0x02, 0x84, 
0x55, 0x45, 0x40, 0x00, 0x08, 0x10, 0x00, 0x86, 
0xa9, 0x4c, 0x00, 0x20, 0x08, 0x00, 0x04, 0x83, 
0x55, 0x1d, 0x20, 0x10, 0x00, 0x10, 0x18, 0x83, 
0xa9, 0x34, 0x20, 0x10, 0x04, 0x11, 0xc0, 0x81, 
0x55, 0xf5, 0x20, 0x08, 0x00, 0x61, 0xc0, 0x80, 
0xa9, 0xc4, 0x21, 0x08, 0x04, 0x81, 0x70, 0x80, 
0x55, 0x05, 0x27, 0x10, 0x08, 0x02, 0x38, 0x80, 
0x01, 0x04, 0x0e, 0x10, 0x10, 0x04, 0x0e, 0x80, 
0xf9, 0x04, 0x1c, 0x20, 0x10, 0x88, 0x03, 0x80, 
0x71, 0x04, 0x30, 0x20, 0x20, 0xc0, 0x01, 0x80, 
0x21, 0x04, 0xe0, 0x01, 0x00, 0xfc, 0x00, 0x80, 
0x01, 0x04, 0xc0, 0xff, 0xff, 0x3f, 0x00, 0x80, 
0xff, 0x07, 0x00, 0xfe, 0xff, 0x07, 0x00, 0x80, 
0x01, 0x00, 0x00, 0x00, 0x00, 0x00, 0x00, 0x80, 
0x01, 0x00, 0x00, 0x00, 0x00, 0x00, 0x00, 0x80, 
0x01, 0x00, 0x00, 0x00, 0x00, 0x00, 0x00, 0x80, 
0x01, 0x00, 0x00, 0x00, 0x00, 0x00, 0x00, 0x80, 
0x01, 0x00, 0x00, 0x00, 0x00, 0x00, 0x00, 0x80, 
0x01, 0x00, 0x00, 0x00, 0x00, 0x00, 0x00, 0x80, 
0x01, 0x00, 0x00, 0x00, 0x00, 0x00, 0x00, 0x80, 
0x01, 0x00, 0x00, 0x00, 0x00, 0x00, 0x00, 0x80, 
0x01, 0x00, 0x00, 0x00, 0x00, 0x00, 0x00, 0x80, 
0x01, 0x00, 0x00, 0x00, 0x00, 0x00, 0x00, 0x80, 
0x01, 0x00, 0x00, 0x00, 0x00, 0x00, 0x00, 0x80, 
0x01, 0x00, 0x00, 0x00, 0x00, 0x00, 0x00, 0x80, 
0x01, 0x00, 0x00, 0x00, 0x00, 0x00, 0x00, 0x80, 
0x01, 0x00, 0x00, 0x00, 0x00, 0x00, 0x00, 0x80, 
0xff, 0xff, 0xff, 0xff, 0xff, 0xff, 0xff, 0xff, 
}; 
