#define x_width 64
#define x_height 64
static char x_bits[] = {
0x11, 0x11, 0x11, 0x11, 0x11, 0x11, 0x11, 0x11, 
0x11, 0x11, 0x11, 0x11, 0x11, 0x11, 0x11, 0x11, 
0x44, 0x44, 0x44, 0x44, 0x44, 0x44, 0x44, 0x44, 
0x44, 0x44, 0x44, 0x44, 0x44, 0x44, 0x44, 0x44, 
0x11, 0x11, 0x11, 0x11, 0x11, 0x11, 0x11, 0x11, 
0x11, 0x11, 0x11, 0x11, 0x11, 0x11, 0x11, 0x11, 
0x44, 0x44, 0x44, 0x44, 0x44, 0x44, 0x44, 0x44, 
0x44, 0x44, 0x44, 0x44, 0x44, 0x44, 0x44, 0x44, 
0x11, 0x11, 0x11, 0x11, 0x11, 0x11, 0x11, 0x11, 
0x11, 0x11, 0x11, 0x11, 0x11, 0x11, 0x11, 0x11, 
0x44, 0x44, 0x44, 0x44, 0x44, 0x44, 0x44, 0x44, 
0x44, 0x44, 0x44, 0x44, 0x44, 0x44, 0x44, 0x44, 
0x11, 0x11, 0x11, 0x11, 0x11, 0x11, 0x11, 0x11, 
0x11, 0x11, 0x11, 0x11, 0x11, 0x11, 0x11, 0x11, 
0x44, 0x44, 0x44, 0x44, 0x44, 0x44, 0x44, 0x44, 
0x44, 0x44, 0x44, 0x44, 0x44, 0x44, 0x44, 0x44, 
0x11, 0x11, 0x11, 0x11, 0x11, 0x11, 0x11, 0x39, 
0x11, 0x11, 0x11, 0x11, 0x11, 0x11, 0x11, 0x45, 
0x44, 0x44, 0x44, 0x44, 0x44, 0x44, 0x44, 0x86, 
0x44, 0x44, 0x44, 0x44, 0x44, 0x44, 0x44, 0x89, 
0x11, 0x11, 0x11, 0x11, 0x11, 0x11, 0x91, 0x91, 
0x11, 0x11, 0x11, 0x11, 0x11, 0x11, 0x51, 0x62, 
0x44, 0x44, 0x44, 0x44, 0x44, 0x44, 0x64, 0x44, 
0x44, 0x44, 0x44, 0x44, 0x44, 0x44, 0xd4, 0x58, 
0x11, 0x11, 0x11, 0x11, 0x11, 0x11, 0x29, 0x09, 
0x11, 0x11, 0x11, 0x11, 0x11, 0x11, 0x95, 0x16, 
0x44, 0x44, 0x44, 0x44, 0x44, 0x44, 0x4a, 0x46, 
0x44, 0x44, 0x44, 0x44, 0x44, 0x44, 0x25, 0x45, 
0x11, 0x11, 0x11, 0x11, 0x11, 0x91, 0x92, 0x11, 
0x11, 0x11, 0x11, 0x11, 0x11, 0x51, 0x49, 0x11, 
0xc4, 0xff, 0xff, 0xff, 0xff, 0xbf, 0xe4, 0xff, 
0xc4, 0xff, 0xff, 0xff, 0xff, 0x5f, 0xf2, 0xff, 
0x91, 0x01, 0x00, 0x00, 0x00, 0x28, 0x09, 0xc0, 
0x91, 0x3d, 0x3b, 0x00, 0x00, 0x94, 0xc4, 0xdf, 
0xc4, 0x7d, 0x7f, 0x00, 0x00, 0x4a, 0x42, 0xd0, 
0xc4, 0x01, 0x00, 0x00, 0x00, 0x25, 0x41, 0xd0, 
0x91, 0xdd, 0xcd, 0x00, 0x80, 0x92, 0x40, 0xd0, 
0x91, 0xdd, 0xdf, 0x00, 0x40, 0x49, 0x40, 0xd0, 
0xc4, 0x01, 0x00, 0x00, 0xa0, 0x24, 0x40, 0xd0, 
0xc4, 0xbd, 0x69, 0x00, 0x50, 0x12, 0x40, 0xd0, 
0x91, 0xfd, 0xfb, 0x00, 0x28, 0x09, 0xc0, 0xdf, 
0x91, 0x01, 0x00, 0x00, 0x94, 0x04, 0x00, 0xc0, 
0xc4, 0x01, 0x00, 0x00, 0x4a, 0x02, 0x00, 0xc0, 
0xc4, 0x01, 0x00, 0x00, 0x27, 0x01, 0x00, 0xc0, 
0x91, 0x01, 0x00, 0x80, 0x94, 0x00, 0x00, 0xc0, 
0x91, 0x01, 0x00, 0x80, 0x48, 0x00, 0x00, 0xc0, 
0xc4, 0x01, 0x00, 0x40, 0x30, 0x00, 0x00, 0xc0, 
0xc4, 0x01, 0x00, 0x40, 0x18, 0x00, 0x00, 0xc0, 
0x91, 0x01, 0x00, 0x70, 0xe6, 0x3e, 0x00, 0xc0, 
0x91, 0x01, 0x00, 0xf0, 0xe7, 0x3f, 0x00, 0xc0, 
0xc4, 0x01, 0x00, 0x70, 0x00, 0x00, 0x00, 0xc0, 
0xc4, 0x01, 0x00, 0x30, 0x00, 0x00, 0x00, 0xc0, 
0x91, 0x01, 0x00, 0xf0, 0xb9, 0x0d, 0x00, 0xc0, 
0x91, 0x01, 0x00, 0xf0, 0xf9, 0x0f, 0x00, 0xc0, 
0xc4, 0x01, 0x00, 0x00, 0x00, 0x00, 0x00, 0xc0, 
0xc4, 0x01, 0x00, 0x00, 0x00, 0x00, 0x00, 0xc0, 
0x91, 0x01, 0x00, 0x70, 0x76, 0x73, 0x00, 0xc0, 
0x91, 0x01, 0x00, 0x70, 0xfe, 0x73, 0x00, 0xc0, 
0xc4, 0x01, 0x00, 0x00, 0x00, 0x00, 0x00, 0xc0, 
0xc4, 0x01, 0x00, 0x00, 0x00, 0x00, 0x00, 0xc0, 
0x91, 0x01, 0x00, 0x00, 0x00, 0x00, 0x00, 0xc0, 
0x91, 0x01, 0x00, 0x00, 0x00, 0x00, 0x00, 0xc0, 
0xc4, 0xff, 0xff, 0xff, 0xff, 0xff, 0xff, 0xff, 
0xc4, 0xff, 0xff, 0xff, 0xff, 0xff, 0xff, 0xff, 
}; 
