#define x_width 64
#define x_height 64
static char x_bits[] = {
0x00, 0x00, 0x00, 0x00, 0x00, 0x00, 0x00, 0x00, 
0x00, 0x00, 0x00, 0x00, 0x00, 0x00, 0x00, 0x00, 
0x00, 0x00, 0x00, 0x00, 0x00, 0x00, 0x00, 0x00, 
0xc0, 0xff, 0x0f, 0xff, 0xff, 0xff, 0xff, 0x03, 
0xc0, 0xff, 0x0f, 0xff, 0xff, 0xff, 0xff, 0x03, 
0xf0, 0x00, 0xfc, 0x03, 0x00, 0x00, 0x00, 0x0f, 
0xf0, 0xee, 0xfc, 0xbb, 0xbb, 0xbb, 0x3b, 0x0f, 
0x30, 0xee, 0x00, 0xb8, 0xbb, 0xbb, 0x3b, 0x0c, 
0x30, 0x00, 0x60, 0x00, 0x00, 0x00, 0x00, 0x0c, 
0x30, 0xdb, 0x66, 0xaa, 0xaa, 0xaa, 0xaa, 0x0c, 
0x30, 0xdb, 0x66, 0xaa, 0xaa, 0xaa, 0xaa, 0x0c, 
0x30, 0xdb, 0x06, 0x00, 0x00, 0x00, 0x00, 0x0c, 
0x30, 0x00, 0x60, 0xaa, 0xaa, 0xaa, 0xaa, 0x0c, 
0x30, 0xdb, 0x66, 0xaa, 0xaa, 0xaa, 0xaa, 0x0c, 
0x30, 0xdb, 0x66, 0x00, 0x00, 0x00, 0x00, 0x0c, 
0x30, 0xdb, 0x06, 0xaa, 0xaa, 0xaa, 0xaa, 0x0c, 
0x30, 0x00, 0x60, 0xaa, 0xaa, 0xaa, 0xaa, 0x0c, 
0x30, 0xdb, 0x66, 0x00, 0x00, 0x00, 0x00, 0x0c, 
0x30, 0xdb, 0x66, 0xaa, 0xaa, 0xaa, 0xaa, 0x0c, 
0x30, 0xdb, 0x06, 0xaa, 0xaa, 0xaa, 0xaa, 0x0c, 
0x30, 0x00, 0x60, 0x00, 0x00, 0x00, 0x00, 0x0c, 
0x30, 0x55, 0x65, 0xaa, 0xaa, 0xaa, 0xaa, 0x0c, 
0x30, 0x55, 0x65, 0xaa, 0xaa, 0xaa, 0xaa, 0x0c, 
0x30, 0x00, 0x00, 0x00, 0x00, 0x00, 0x00, 0x0c, 
0x30, 0x55, 0x65, 0xaa, 0xaa, 0xaa, 0xaa, 0x0c, 
0x30, 0x55, 0x65, 0xaa, 0xaa, 0xaa, 0xaa, 0x0c, 
0x30, 0x00, 0x60, 0x00, 0x00, 0x00, 0x00, 0x0c, 
0x30, 0x55, 0x05, 0xaa, 0xaa, 0xaa, 0xaa, 0x0c, 
0x30, 0x55, 0x65, 0xaa, 0xaa, 0xaa, 0xaa, 0x0c, 
0x30, 0x00, 0x60, 0x00, 0x00, 0x00, 0x00, 0x0c, 
0x30, 0x55, 0x65, 0xaa, 0xaa, 0xaa, 0xaa, 0x0c, 
0x30, 0x55, 0x05, 0xaa, 0xaa, 0xaa, 0xaa, 0x0c, 
0x30, 0x00, 0x60, 0x00, 0x00, 0x00, 0x00, 0x0c, 
0x30, 0x55, 0x65, 0xaa, 0xaa, 0xaa, 0xaa, 0x0c, 
0x30, 0x55, 0x65, 0xaa, 0xaa, 0xaa, 0xaa, 0x0c, 
0x30, 0x00, 0x00, 0x00, 0x00, 0x00, 0x00, 0x0c, 
0xf0, 0xff, 0xff, 0xff, 0xff, 0xff, 0xff, 0x0f, 
0xf0, 0xff, 0xff, 0xff, 0xff, 0xff, 0xff, 0x0f, 
0x7c, 0x00, 0x00, 0x00, 0x00, 0x00, 0x00, 0x3f, 
0x80, 0x00, 0x00, 0x00, 0x00, 0x00, 0x80, 0x00, 
0x00, 0x00, 0x00, 0x00, 0x00, 0x00, 0x00, 0x00, 
0x00, 0x00, 0x00, 0x00, 0x00, 0x00, 0x00, 0x00, 
0x00, 0x00, 0x00, 0x00, 0x00, 0x00, 0x00, 0x00, 
0x00, 0x00, 0x00, 0x00, 0x00, 0x00, 0x00, 0x00, 
0x00, 0x00, 0x00, 0x00, 0x00, 0x00, 0x00, 0x00, 
0x00, 0x00, 0x00, 0x00, 0x00, 0x00, 0x00, 0x00, 
0x00, 0x00, 0x00, 0x00, 0x00, 0x00, 0x00, 0x00, 
0x00, 0x00, 0x00, 0x00, 0x00, 0x00, 0x00, 0x00, 
0x00, 0x00, 0x00, 0x00, 0x00, 0x00, 0x00, 0x00, 
0x00, 0xe0, 0x00, 0x00, 0x00, 0x00, 0x07, 0x00, 
0x00, 0x70, 0x00, 0x00, 0x00, 0x00, 0x0e, 0x00, 
0x00, 0x38, 0x00, 0x00, 0x00, 0x00, 0x1c, 0x00, 
0x00, 0x1c, 0x00, 0x00, 0x00, 0x00, 0x38, 0x00, 
0x00, 0x0e, 0x00, 0x00, 0x00, 0x00, 0x70, 0x00, 
0x00, 0x07, 0x00, 0x00, 0x00, 0x00, 0xe0, 0x00, 
0x80, 0x03, 0x00, 0x00, 0x00, 0x00, 0xc0, 0x01, 
0xc0, 0x01, 0x00, 0x00, 0x00, 0x00, 0x80, 0x03, 
0xe0, 0x00, 0x00, 0x00, 0x00, 0x00, 0x00, 0x07, 
0x70, 0x00, 0x00, 0x00, 0x00, 0x00, 0x00, 0x0e, 
0x38, 0x00, 0x00, 0x00, 0x00, 0x00, 0x00, 0x1c, 
0x1c, 0x00, 0x00, 0x00, 0x00, 0x00, 0x00, 0x38, 
0x0e, 0x00, 0x00, 0x00, 0x00, 0x00, 0x00, 0x70, 
0x07, 0x00, 0x00, 0x00, 0x00, 0x00, 0x00, 0xe0, 
0x03, 0x00, 0x00, 0x00, 0x00, 0x00, 0x00, 0xc0, 
}; 
