#define x_width 64
#define x_height 64
static char x_bits[] = {
0xff, 0xff, 0xff, 0xff, 0xff, 0xff, 0xff, 0xff, 
0xff, 0xff, 0xff, 0xff, 0xff, 0xff, 0xff, 0xff, 
0x03, 0x00, 0x00, 0x00, 0x00, 0x00, 0x00, 0xc0, 
0x03, 0x00, 0x00, 0x00, 0x00, 0x00, 0x00, 0xc0, 
0x03, 0x00, 0x00, 0x00, 0x00, 0x00, 0x00, 0xc0, 
0x03, 0x00, 0x00, 0x00, 0x00, 0x00, 0x00, 0xc0, 
0x03, 0x00, 0x00, 0x00, 0x00, 0x00, 0x00, 0xc0, 
0x03, 0x00, 0x00, 0x00, 0x00, 0x00, 0x00, 0xc0, 
0x03, 0x00, 0x00, 0x00, 0x00, 0x00, 0x00, 0xc0, 
0x03, 0x00, 0x00, 0x00, 0x00, 0x00, 0x00, 0xc0, 
0x03, 0x00, 0x00, 0x00, 0x00, 0x00, 0x00, 0xc0, 
0x03, 0x00, 0x00, 0x00, 0x00, 0x00, 0x00, 0xc0, 
0x03, 0x00, 0x00, 0x00, 0x00, 0x00, 0x00, 0xc0, 
0x03, 0x00, 0x00, 0x00, 0x00, 0x00, 0x00, 0xc0, 
0x03, 0x00, 0x00, 0x00, 0x00, 0x00, 0x00, 0xc0, 
0x03, 0x00, 0x00, 0x00, 0x00, 0x00, 0x00, 0xc0, 
0x03, 0x00, 0x00, 0x00, 0x00, 0x00, 0x00, 0xc0, 
0x03, 0x00, 0x00, 0x00, 0x00, 0x00, 0x00, 0xc0, 
0x03, 0x00, 0x00, 0x00, 0x00, 0x80, 0x03, 0xc0, 
0x03, 0x00, 0x00, 0x00, 0x00, 0x80, 0x03, 0xc0, 
0x03, 0x00, 0x00, 0x00, 0x00, 0xa0, 0x03, 0xc0, 
0x03, 0x00, 0x00, 0x00, 0x00, 0x00, 0x08, 0xc0, 
0x03, 0x00, 0x00, 0x00, 0x00, 0x04, 0x01, 0xc0, 
0x03, 0x00, 0x00, 0x00, 0x00, 0x00, 0x20, 0xc0, 
0x03, 0x00, 0x00, 0x00, 0x40, 0x00, 0x00, 0xc0, 
0x03, 0x00, 0x00, 0x00, 0x00, 0x00, 0x00, 0xc1, 
0x03, 0x00, 0x00, 0x00, 0x08, 0x00, 0x01, 0xc0, 
0x03, 0x00, 0x00, 0x00, 0x02, 0x00, 0x00, 0xc0, 
0x03, 0x00, 0x00, 0xc0, 0x01, 0x00, 0x00, 0xce, 
0x03, 0x80, 0x00, 0xc0, 0x01, 0x00, 0x00, 0xcf, 
0x03, 0x40, 0x00, 0xc0, 0x05, 0x00, 0x21, 0xce, 
0x03, 0x20, 0x00, 0x00, 0x00, 0x00, 0x02, 0xc0, 
0x03, 0x30, 0x00, 0x80, 0x20, 0x40, 0x00, 0xc0, 
0x03, 0x48, 0x00, 0x00, 0xe0, 0x04, 0x00, 0xc0, 
0x03, 0xc4, 0x00, 0x00, 0xe0, 0x00, 0x01, 0xc4, 
0x03, 0xe2, 0x01, 0x80, 0xe0, 0x00, 0x00, 0xc0, 
0x03, 0x61, 0xd9, 0x06, 0x00, 0x00, 0x00, 0xc0, 
0x03, 0xe2, 0x01, 0x00, 0x40, 0x00, 0x00, 0xc0, 
0x03, 0xc4, 0x00, 0x80, 0x00, 0x00, 0x00, 0xc4, 
0x03, 0x48, 0x00, 0x00, 0x40, 0x00, 0x01, 0xc0, 
0x03, 0x30, 0x00, 0xc0, 0x01, 0x00, 0x00, 0xc0, 
0x03, 0x20, 0x00, 0xc0, 0x05, 0x00, 0x00, 0xc0, 
0x03, 0x40, 0x00, 0xc0, 0x41, 0x00, 0x00, 0xc4, 
0x03, 0x80, 0x00, 0x00, 0x04, 0x82, 0x03, 0xc0, 
0x03, 0x00, 0x00, 0x00, 0x40, 0xa0, 0x03, 0xc0, 
0x03, 0x00, 0x00, 0x00, 0x10, 0x80, 0x03, 0xc4, 
0x03, 0x00, 0x00, 0x00, 0xe0, 0x00, 0x00, 0xc0, 
0x03, 0x00, 0x00, 0x00, 0xe0, 0x00, 0x04, 0xc0, 
0x03, 0x00, 0x00, 0x00, 0xe0, 0x02, 0x00, 0xc0, 
0x03, 0x00, 0x00, 0x00, 0x00, 0x00, 0x10, 0xc4, 
0x03, 0x00, 0x00, 0x00, 0x00, 0x20, 0x00, 0xc0, 
0x03, 0x00, 0x00, 0x00, 0x00, 0x00, 0x40, 0xc0, 
0x03, 0x00, 0x00, 0x00, 0x00, 0x00, 0x02, 0xc0, 
0x03, 0x00, 0x00, 0x00, 0x00, 0x00, 0x00, 0xc5, 
0x03, 0x00, 0x00, 0x00, 0x00, 0x00, 0x40, 0xce, 
0x03, 0x00, 0x00, 0x00, 0x00, 0x00, 0x00, 0xce, 
0x03, 0x00, 0x00, 0x00, 0x00, 0x00, 0x00, 0xce, 
0x03, 0x00, 0x00, 0x00, 0x00, 0x00, 0x00, 0xc0, 
0x03, 0x00, 0x00, 0x00, 0x00, 0x00, 0x00, 0xc0, 
0x03, 0x00, 0x00, 0x00, 0x00, 0x00, 0x00, 0xc0, 
0x03, 0x00, 0x00, 0x00, 0x00, 0x00, 0x00, 0xc0, 
0x03, 0x00, 0x00, 0x00, 0x00, 0x00, 0x00, 0xc0, 
0xff, 0xff, 0xff, 0xff, 0xff, 0xff, 0xff, 0xff, 
0xff, 0xff, 0xff, 0xff, 0xff, 0xff, 0xff, 0xff, 
}; 
