#define x_width 64
#define x_height 64
static char x_bits[] = {
0x11, 0x11, 0x11, 0x11, 0x11, 0x11, 0x11, 0x11, 
0x11, 0x11, 0x11, 0xfd, 0x3f, 0x11, 0x11, 0x11, 
0x44, 0x44, 0xc4, 0xff, 0xff, 0x43, 0x44, 0x44, 
0x44, 0x44, 0xf4, 0xff, 0xff, 0x4f, 0x44, 0x44, 
0x11, 0x11, 0xfd, 0xff, 0xff, 0x3f, 0x11, 0x11, 
0x11, 0x11, 0xff, 0xff, 0xff, 0xff, 0x11, 0x11, 
0x44, 0xc4, 0xff, 0x07, 0xe0, 0xff, 0x47, 0x44, 
0x44, 0xe4, 0x7f, 0x00, 0x00, 0xfe, 0x47, 0x44, 
0x11, 0xf1, 0x1f, 0x00, 0x00, 0xf8, 0x1f, 0x11, 
0x11, 0xf9, 0x07, 0x00, 0x18, 0xe0, 0x1f, 0x11, 
0x44, 0xfc, 0x01, 0x00, 0x38, 0x80, 0x7f, 0x44, 
0x44, 0xfe, 0x30, 0x00, 0x60, 0x00, 0x7f, 0x44, 
0x11, 0x7f, 0x60, 0x00, 0xc0, 0x00, 0xfe, 0x11, 
0x91, 0xff, 0xe0, 0x00, 0xc0, 0x00, 0xfc, 0x11, 
0xc4, 0xff, 0xc1, 0x01, 0xc0, 0x00, 0xf8, 0x47, 
0xc4, 0xef, 0x83, 0x01, 0xc0, 0x00, 0xf4, 0x47, 
0xf1, 0xc7, 0x87, 0xfd, 0xff, 0x03, 0xe6, 0x17, 
0xf1, 0x83, 0x8f, 0x03, 0x00, 0x0c, 0xc3, 0x17, 
0xf4, 0x03, 0x7f, 0x00, 0x00, 0x30, 0xc3, 0x4f, 
0xf4, 0x01, 0x3e, 0x00, 0x00, 0xc0, 0x81, 0x4f, 
0xf9, 0x01, 0x7c, 0x80, 0x03, 0x80, 0x80, 0x1f, 
0xf9, 0x00, 0xfe, 0x80, 0x02, 0x00, 0x01, 0x1f, 
0xfc, 0x00, 0xf2, 0x81, 0x03, 0x38, 0x02, 0x7f, 
0x7c, 0x00, 0xe1, 0x03, 0x00, 0x28, 0x02, 0x7e, 
0x7d, 0x00, 0xc1, 0x07, 0x1c, 0x38, 0x04, 0x3e, 
0x7d, 0xc0, 0xf1, 0x0f, 0x14, 0x00, 0x04, 0x3e, 
0x7e, 0xe0, 0x51, 0x1f, 0x1c, 0x00, 0x08, 0x7e, 
0x3e, 0xf1, 0x71, 0x3e, 0x00, 0x00, 0x08, 0x7c, 
0x3f, 0xfa, 0x01, 0x7c, 0x00, 0x00, 0x10, 0x7c, 
0x3f, 0xcc, 0x01, 0xf8, 0x00, 0x00, 0x10, 0x7c, 
0x3e, 0xfc, 0x01, 0xf0, 0x01, 0x00, 0x10, 0x7c, 
0x3e, 0xfc, 0xff, 0xff, 0xff, 0xff, 0x1f, 0x7c, 
0x3f, 0xfc, 0x01, 0xc0, 0x07, 0x0e, 0x10, 0x7c, 
0x3f, 0xcc, 0x01, 0x80, 0x0f, 0x0a, 0x10, 0x7c, 
0x3e, 0xfa, 0x71, 0x00, 0x1f, 0x0e, 0x10, 0x7c, 
0x3e, 0xf1, 0x51, 0x00, 0x3e, 0x00, 0x08, 0x7c, 
0x3f, 0xe0, 0x71, 0x00, 0x7c, 0xc0, 0x09, 0x7c, 
0x7f, 0xc0, 0x01, 0x00, 0xf8, 0x40, 0x05, 0x7e, 
0x7c, 0x80, 0x01, 0x00, 0xfe, 0xc1, 0x05, 0x7e, 
0x7c, 0x00, 0x01, 0x00, 0xea, 0x03, 0x02, 0x7e, 
0x7d, 0x00, 0x01, 0x1c, 0xce, 0x07, 0x02, 0x3e, 
0xfd, 0x00, 0x02, 0x14, 0x80, 0x0f, 0x03, 0x3f, 
0xfc, 0x00, 0x06, 0x1c, 0x00, 0x9f, 0x06, 0x5f, 
0xfc, 0x01, 0x18, 0x00, 0x00, 0x7e, 0x8c, 0x5f, 
0xf1, 0x01, 0xe0, 0x00, 0x00, 0x7c, 0x8c, 0x1f, 
0xf1, 0x03, 0x00, 0x07, 0x00, 0xfc, 0xd8, 0x1f, 
0xe4, 0x03, 0x00, 0xfb, 0xff, 0xf3, 0xd9, 0x47, 
0xe4, 0x07, 0x00, 0x03, 0xc0, 0xe0, 0xe7, 0x47, 
0xd1, 0x0f, 0x80, 0x03, 0xc0, 0xc0, 0xf7, 0x13, 
0xd1, 0x1f, 0xe0, 0x01, 0xc0, 0x80, 0xff, 0x13, 
0xc4, 0x3f, 0xe0, 0x00, 0xc0, 0x00, 0xff, 0x45, 
0x44, 0x7f, 0x00, 0x00, 0xc0, 0x00, 0xfe, 0x44, 
0x11, 0xff, 0x00, 0x00, 0x60, 0x00, 0x7f, 0x11, 
0x11, 0xfd, 0x01, 0x00, 0x60, 0x80, 0x3f, 0x11, 
0x44, 0xfc, 0x07, 0x00, 0x00, 0xe0, 0x5f, 0x44, 
0x44, 0xf4, 0x1f, 0x00, 0x00, 0xf8, 0x4f, 0x44, 
0x11, 0xf1, 0x7f, 0x00, 0x00, 0xfe, 0x17, 0x11, 
0x11, 0xd1, 0xff, 0x07, 0xe0, 0xff, 0x13, 0x11, 
0x44, 0x44, 0xff, 0xff, 0xff, 0xff, 0x44, 0x44, 
0x44, 0x44, 0xfc, 0xff, 0xff, 0x3f, 0x44, 0x44, 
0x11, 0x11, 0xf1, 0xff, 0xff, 0x1f, 0x11, 0x11, 
0x11, 0x11, 0xc1, 0xff, 0xff, 0x13, 0x11, 0x11, 
0x44, 0x44, 0x44, 0xfc, 0x7f, 0x44, 0x44, 0x44, 
0x44, 0x44, 0x44, 0x44, 0x44, 0x44, 0x44, 0x44, 
}; 
