#define x_width 64
#define x_height 64
static char x_bits[] = {
0xff, 0xff, 0xff, 0xff, 0xff, 0xff, 0xff, 0xff, 
0xff, 0xff, 0xff, 0xff, 0xff, 0xff, 0xff, 0xff, 
0x03, 0x00, 0x00, 0x00, 0x00, 0x00, 0x00, 0xc0, 
0x03, 0x00, 0x00, 0x00, 0x00, 0x00, 0x00, 0xc0, 
0x03, 0xff, 0xff, 0x03, 0x00, 0x00, 0x00, 0xc0, 
0x03, 0x01, 0x00, 0x1c, 0x00, 0x00, 0x00, 0xc0, 
0x03, 0x01, 0x00, 0xe0, 0x00, 0x00, 0x00, 0xc0, 
0x03, 0x01, 0x00, 0x00, 0x03, 0x00, 0x00, 0xc0, 
0x03, 0x01, 0x00, 0x00, 0x04, 0x00, 0x00, 0xc0, 
0x03, 0x01, 0x00, 0x00, 0x18, 0x00, 0x00, 0xc0, 
0x03, 0x01, 0x00, 0x00, 0x20, 0x00, 0x00, 0xc0, 
0x03, 0x01, 0x00, 0x00, 0x40, 0x00, 0x00, 0xc0, 
0x03, 0x01, 0xff, 0x03, 0x80, 0x00, 0x00, 0xc0, 
0x03, 0x01, 0x01, 0x1c, 0x00, 0x01, 0x00, 0xc0, 
0x03, 0x01, 0x01, 0x60, 0x00, 0x02, 0x00, 0xc0, 
0x03, 0x01, 0x01, 0x80, 0x00, 0x04, 0x00, 0xc0, 
0x03, 0x01, 0x01, 0x00, 0x01, 0x04, 0x00, 0xc0, 
0x03, 0xff, 0x01, 0x00, 0xfe, 0x0f, 0x00, 0xc0, 
0x03, 0x00, 0x00, 0x00, 0x00, 0x00, 0x00, 0xc0, 
0x03, 0x00, 0x00, 0x00, 0x00, 0x00, 0x00, 0xc0, 
0x03, 0x00, 0x00, 0x00, 0x00, 0x00, 0x00, 0xc0, 
0x03, 0x00, 0x00, 0x00, 0x00, 0x00, 0x00, 0xc0, 
0x03, 0xf0, 0x1f, 0x00, 0x00, 0xfe, 0x03, 0xc0, 
0x03, 0x10, 0x10, 0x00, 0x00, 0x02, 0x04, 0xc0, 
0x03, 0x10, 0x10, 0x00, 0x00, 0x04, 0x04, 0xc0, 
0x03, 0x10, 0x10, 0x00, 0x00, 0x04, 0x04, 0xc0, 
0x03, 0x10, 0x10, 0x00, 0x00, 0x04, 0x08, 0xc0, 
0x03, 0x10, 0x10, 0x00, 0x00, 0x08, 0x08, 0xc0, 
0x03, 0x10, 0x10, 0x00, 0x00, 0x08, 0x08, 0xc0, 
0x03, 0x10, 0x10, 0x00, 0x00, 0x08, 0x08, 0xc0, 
0x03, 0x10, 0x10, 0x00, 0x00, 0x08, 0x08, 0xc0, 
0x03, 0x10, 0x10, 0x00, 0x00, 0x08, 0x08, 0xc0, 
0x03, 0x10, 0x10, 0x00, 0x00, 0x08, 0x08, 0xc0, 
0x03, 0x10, 0x10, 0x00, 0x00, 0x08, 0x08, 0xc0, 
0x03, 0x00, 0x00, 0x00, 0x00, 0x00, 0x00, 0xc0, 
0x03, 0x7e, 0x08, 0x66, 0x06, 0x7e, 0x3c, 0xc0, 
0x03, 0x06, 0x1c, 0x66, 0x06, 0x18, 0x66, 0xc0, 
0x03, 0x06, 0x1c, 0x66, 0x06, 0x18, 0x06, 0xc0, 
0x03, 0x06, 0x36, 0x66, 0x06, 0x18, 0x0c, 0xc0, 
0x03, 0x3e, 0x36, 0x66, 0x06, 0x18, 0x30, 0xc0, 
0x03, 0x06, 0x63, 0x66, 0x06, 0x18, 0x60, 0xc0, 
0x03, 0x06, 0x7f, 0x66, 0x06, 0x18, 0x66, 0xc0, 
0x03, 0x06, 0x63, 0x66, 0x06, 0x18, 0x66, 0xc0, 
0x03, 0x06, 0x63, 0x3c, 0x7e, 0x18, 0x3c, 0xc0, 
0x03, 0x00, 0x00, 0x00, 0x00, 0x00, 0x00, 0xc0, 
0x03, 0x10, 0x10, 0x00, 0x20, 0x80, 0x00, 0xc0, 
0x03, 0x10, 0x10, 0x00, 0x18, 0x40, 0x00, 0xc0, 
0x03, 0x10, 0x10, 0x00, 0x04, 0x40, 0x00, 0xc0, 
0x03, 0x10, 0x10, 0x00, 0x03, 0x20, 0x00, 0xc0, 
0x03, 0x10, 0x10, 0xe0, 0x00, 0x10, 0x00, 0xc0, 
0x03, 0x10, 0xf0, 0x1f, 0x00, 0x08, 0x00, 0xc0, 
0x03, 0x10, 0x00, 0x00, 0x00, 0x04, 0x00, 0xc0, 
0x03, 0x10, 0x00, 0x00, 0x00, 0x02, 0x00, 0xc0, 
0x03, 0x10, 0x00, 0x00, 0x80, 0x01, 0x00, 0xc0, 
0x03, 0x10, 0x00, 0x00, 0x40, 0x00, 0x00, 0xc0, 
0x03, 0x10, 0x00, 0x00, 0x30, 0x00, 0x00, 0xc0, 
0x03, 0x10, 0x00, 0x00, 0x0e, 0x00, 0x00, 0xc0, 
0x03, 0x10, 0x00, 0xc0, 0x01, 0x00, 0x00, 0xc0, 
0x03, 0xf0, 0xff, 0x3f, 0x00, 0x00, 0x00, 0xc0, 
0x03, 0x00, 0x00, 0x00, 0x00, 0x00, 0x00, 0xc0, 
0x03, 0x00, 0x00, 0x00, 0x00, 0x00, 0x00, 0xc0, 
0x03, 0x00, 0x00, 0x00, 0x00, 0x00, 0x00, 0xc0, 
0xff, 0xff, 0xff, 0xff, 0xff, 0xff, 0xff, 0xff, 
0xff, 0xff, 0xff, 0xff, 0xff, 0xff, 0xff, 0xff, 
}; 
