#define x_width 64
#define x_height 64
static char x_bits[] = {
0x00, 0x00, 0x00, 0x00, 0x00, 0x00, 0x00, 0x00, 
0x00, 0x00, 0x00, 0x00, 0x00, 0x00, 0x00, 0x00, 
0x00, 0x00, 0x00, 0x00, 0x00, 0x00, 0x00, 0x00, 
0x00, 0x00, 0x00, 0x00, 0x00, 0x00, 0x00, 0x00, 
0x00, 0x00, 0x00, 0x00, 0x00, 0x00, 0x00, 0x00, 
0x00, 0x00, 0x00, 0xe0, 0x07, 0x00, 0x00, 0x00, 
0x00, 0x00, 0x00, 0x20, 0x04, 0x00, 0x00, 0x00, 
0x00, 0x00, 0xc0, 0xff, 0xff, 0x03, 0x00, 0x00, 
0x00, 0x00, 0x40, 0x00, 0x00, 0x02, 0x00, 0x00, 
0x00, 0x00, 0x00, 0xff, 0xff, 0x00, 0x00, 0x00, 
0x00, 0x00, 0x00, 0x01, 0x80, 0x00, 0x00, 0x00, 
0x00, 0x00, 0x00, 0x55, 0xd5, 0x00, 0x00, 0x00, 
0x00, 0x00, 0x00, 0x55, 0xd5, 0x00, 0x00, 0x00, 
0x00, 0x00, 0x00, 0x55, 0xd5, 0x00, 0x00, 0x00, 
0x00, 0x00, 0x00, 0x55, 0xd5, 0x00, 0x00, 0x00, 
0x00, 0x00, 0x00, 0x55, 0xd5, 0x00, 0x00, 0x00, 
0x00, 0x00, 0x00, 0x55, 0xd5, 0x00, 0x00, 0x00, 
0x00, 0x00, 0x00, 0x55, 0xd5, 0x00, 0x00, 0x00, 
0x00, 0x00, 0x00, 0x55, 0xd5, 0x00, 0x00, 0x00, 
0x00, 0x00, 0x00, 0x55, 0xd5, 0x00, 0x00, 0x00, 
0x00, 0x00, 0x00, 0x55, 0xd5, 0x00, 0x00, 0x00, 
0x00, 0x00, 0x00, 0x55, 0xd5, 0x00, 0x00, 0x00, 
0x00, 0x00, 0x00, 0x55, 0xd5, 0x00, 0x00, 0x00, 
0x00, 0x00, 0x00, 0x55, 0xd5, 0x00, 0x00, 0x00, 
0x00, 0x00, 0x00, 0x55, 0xd5, 0x00, 0x00, 0x00, 
0x00, 0x00, 0x00, 0x55, 0xd5, 0x00, 0x00, 0x00, 
0x00, 0x00, 0x00, 0x55, 0xd5, 0x00, 0x00, 0x00, 
0x00, 0x00, 0x00, 0x55, 0xd5, 0x00, 0x00, 0x00, 
0x00, 0x00, 0x00, 0x89, 0xc8, 0x00, 0x00, 0x00, 
0x00, 0x00, 0x00, 0x03, 0x40, 0x00, 0x00, 0x00, 
0x00, 0x00, 0x00, 0xfc, 0x3f, 0x00, 0x00, 0x00, 
0x00, 0x00, 0x00, 0x00, 0x00, 0x00, 0x00, 0x00, 
0x00, 0x00, 0x00, 0x00, 0x00, 0x00, 0x00, 0x00, 
0x00, 0x00, 0x00, 0x00, 0x00, 0x00, 0x00, 0x00, 
0x00, 0x00, 0x00, 0x00, 0x00, 0x00, 0x00, 0x00, 
0x00, 0x00, 0x00, 0x00, 0x00, 0x00, 0x00, 0x00, 
0x00, 0x00, 0x00, 0x00, 0x00, 0x00, 0x00, 0x00, 
0x00, 0x00, 0x00, 0x00, 0x00, 0x00, 0x00, 0x00, 
0x00, 0x00, 0x00, 0x00, 0x00, 0x00, 0x00, 0x00, 
0x00, 0x1e, 0x00, 0x1c, 0x00, 0x08, 0x00, 0x00, 
0x00, 0x22, 0x00, 0x10, 0x00, 0x08, 0x00, 0x00, 
0x00, 0x42, 0x00, 0x10, 0x00, 0x08, 0x00, 0x00, 
0x00, 0x42, 0x3c, 0x10, 0x3c, 0x3e, 0x3c, 0x00, 
0x00, 0x42, 0x42, 0x10, 0x42, 0x08, 0x42, 0x00, 
0x00, 0x42, 0x42, 0x10, 0x42, 0x08, 0x42, 0x00, 
0x00, 0x42, 0x7e, 0x10, 0x7e, 0x08, 0x7e, 0x00, 
0x00, 0x42, 0x02, 0x10, 0x02, 0x08, 0x02, 0x00, 
0x00, 0x22, 0x42, 0x10, 0x42, 0x48, 0x42, 0x00, 
0x00, 0x1e, 0x3c, 0x10, 0x3c, 0x30, 0x3c, 0x00, 
0x00, 0x00, 0x00, 0x00, 0x00, 0x00, 0x00, 0x00, 
0x00, 0x00, 0x00, 0x00, 0x00, 0x00, 0x00, 0x00, 
0x00, 0x00, 0x00, 0x00, 0x00, 0x00, 0x00, 0x00, 
0x00, 0x00, 0x00, 0x00, 0x00, 0x00, 0x00, 0x00, 
0x00, 0x00, 0x00, 0x00, 0x00, 0x00, 0x00, 0x00, 
0x00, 0x00, 0x00, 0x00, 0x00, 0x00, 0x00, 0x00, 
0x00, 0x00, 0x00, 0x00, 0x00, 0x00, 0x00, 0x00, 
0x00, 0x00, 0x00, 0x00, 0x00, 0x00, 0x00, 0x00, 
0x00, 0x00, 0x00, 0x00, 0x00, 0x00, 0x00, 0x00, 
0x00, 0x00, 0x00, 0x00, 0x00, 0x00, 0x00, 0x00, 
0x00, 0x00, 0x00, 0x00, 0x00, 0x00, 0x00, 0x00, 
0x00, 0x00, 0x00, 0x00, 0x00, 0x00, 0x00, 0x00, 
0x00, 0x00, 0x00, 0x00, 0x00, 0x00, 0x00, 0x00, 
0x00, 0x00, 0x00, 0x00, 0x00, 0x00, 0x00, 0x00, 
0x00, 0x00, 0x00, 0x00, 0x00, 0x00, 0x00, 0x00, 
}; 
