#define x_width 64
#define x_height 64
static char x_bits[] = {
0xff, 0xff, 0xff, 0xff, 0xff, 0xff, 0xff, 0xff, 
0x01, 0x00, 0x00, 0x00, 0x00, 0x00, 0x00, 0x80, 
0x01, 0x00, 0x00, 0x00, 0x00, 0x00, 0x00, 0x80, 
0x01, 0x00, 0x00, 0x00, 0x00, 0x00, 0x00, 0x80, 
0x01, 0x00, 0x00, 0x00, 0x00, 0x00, 0x00, 0x80, 
0x01, 0x00, 0x00, 0x00, 0x00, 0x00, 0x00, 0x80, 
0x01, 0x00, 0x00, 0x00, 0x00, 0x00, 0x00, 0x80, 
0x01, 0x00, 0x00, 0x00, 0x00, 0x00, 0x00, 0x80, 
0x01, 0x00, 0x00, 0x00, 0x00, 0x00, 0x00, 0x80, 
0x01, 0x00, 0x00, 0x00, 0x00, 0x00, 0x00, 0x80, 
0x01, 0x00, 0x00, 0x00, 0x00, 0x00, 0x00, 0x80, 
0xf1, 0xff, 0xff, 0x3f, 0xfe, 0xff, 0xff, 0x8f, 
0x11, 0x00, 0x00, 0x20, 0x02, 0x00, 0x00, 0x88, 
0x11, 0x00, 0x00, 0x20, 0x02, 0x00, 0x00, 0x88, 
0x11, 0x00, 0x00, 0x20, 0x02, 0x00, 0x00, 0x88, 
0x11, 0xe7, 0x27, 0x2f, 0x72, 0x7e, 0xf2, 0x88, 
0x11, 0x00, 0x00, 0x20, 0x02, 0x00, 0x00, 0x88, 
0x11, 0x00, 0x00, 0x20, 0x02, 0x00, 0x00, 0x88, 
0x11, 0x70, 0x9e, 0x27, 0x02, 0xe7, 0x79, 0x88, 
0x11, 0x00, 0x00, 0x20, 0x02, 0x00, 0x00, 0x88, 
0x11, 0x00, 0x00, 0x20, 0x02, 0x00, 0x00, 0x88, 
0x11, 0x90, 0x1b, 0x20, 0x02, 0xb9, 0x01, 0x88, 
0x11, 0x00, 0x00, 0x20, 0x02, 0x00, 0x00, 0x88, 
0x11, 0x00, 0x00, 0x20, 0x02, 0x00, 0x00, 0x88, 
0x11, 0xf0, 0xfd, 0x21, 0x02, 0x9f, 0x1f, 0x88, 
0x11, 0x00, 0x00, 0x20, 0x02, 0x00, 0x00, 0x88, 
0x11, 0x00, 0x00, 0x20, 0x02, 0x00, 0x00, 0x88, 
0x11, 0xff, 0x9c, 0x2f, 0xf2, 0xcf, 0xf9, 0x89, 
0x11, 0x00, 0x00, 0x20, 0x02, 0x00, 0x00, 0x88, 
0x11, 0x00, 0x00, 0x20, 0x02, 0x00, 0x00, 0x88, 
0x11, 0xf9, 0x03, 0x20, 0x92, 0x3f, 0x00, 0x88, 
0x11, 0x00, 0x00, 0x20, 0x02, 0x00, 0x00, 0x88, 
0x11, 0x00, 0x00, 0x20, 0x02, 0x00, 0x00, 0x88, 
0x11, 0x00, 0x00, 0x20, 0x02, 0x00, 0x00, 0x88, 
0x11, 0x33, 0x0f, 0x20, 0x32, 0xf3, 0x00, 0x88, 
0x11, 0x00, 0x00, 0x20, 0x02, 0x00, 0x00, 0x88, 
0x11, 0x00, 0x00, 0x20, 0x02, 0x00, 0x00, 0x88, 
0x11, 0x00, 0x00, 0x20, 0x02, 0x00, 0x00, 0x88, 
0x11, 0xf0, 0xf9, 0x21, 0x02, 0x9f, 0x1f, 0x88, 
0x11, 0x00, 0x00, 0x20, 0x02, 0x00, 0x00, 0x88, 
0x11, 0x00, 0x00, 0x20, 0x02, 0x00, 0x00, 0x88, 
0x11, 0x30, 0x1f, 0x20, 0x02, 0xf3, 0x01, 0x88, 
0x11, 0x00, 0x00, 0x20, 0x02, 0x00, 0x00, 0x88, 
0x11, 0x00, 0x00, 0x20, 0x02, 0x00, 0x00, 0x88, 
0x11, 0x30, 0xf3, 0x23, 0x02, 0x33, 0x3f, 0x88, 
0x11, 0x00, 0x00, 0x20, 0x02, 0x00, 0x00, 0x88, 
0x11, 0x00, 0x00, 0x20, 0x02, 0x00, 0x00, 0x88, 
0x11, 0x9f, 0xef, 0x27, 0xf2, 0xf9, 0x7e, 0x88, 
0x11, 0x00, 0x00, 0x20, 0x02, 0x00, 0x00, 0x88, 
0x11, 0x00, 0x00, 0x20, 0x02, 0x00, 0x00, 0x88, 
0x11, 0x00, 0x00, 0x20, 0x02, 0x00, 0x00, 0x88, 
0x11, 0x00, 0x00, 0x20, 0x02, 0x00, 0x00, 0x88, 
0xf1, 0xff, 0xff, 0x3f, 0xfe, 0xff, 0xff, 0x8f, 
0x01, 0x00, 0x00, 0x00, 0x00, 0x00, 0x00, 0x80, 
0x01, 0x00, 0x00, 0x00, 0x00, 0x00, 0x00, 0x80, 
0x01, 0x00, 0x00, 0x00, 0x00, 0x00, 0x00, 0x80, 
0x01, 0x00, 0x00, 0x00, 0x00, 0x00, 0x00, 0x80, 
0x01, 0x00, 0x00, 0x00, 0x00, 0x00, 0x00, 0x80, 
0x01, 0x00, 0x00, 0x00, 0x00, 0x00, 0x00, 0x80, 
0x01, 0x00, 0x00, 0x00, 0x00, 0x00, 0x00, 0x80, 
0x01, 0x00, 0x00, 0x00, 0x00, 0x00, 0x00, 0x80, 
0x01, 0x00, 0x00, 0x00, 0x00, 0x00, 0x00, 0x80, 
0x01, 0x00, 0x00, 0x00, 0x00, 0x00, 0x00, 0x80, 
0xff, 0xff, 0xff, 0xff, 0xff, 0xff, 0xff, 0xff, 
}; 
