#define x_width 64
#define x_height 64
static char x_bits[] = {
0x00, 0x00, 0x00, 0x00, 0x00, 0x00, 0x00, 0x00, 
0x00, 0x00, 0x80, 0xff, 0x3f, 0x00, 0x00, 0x00, 
0x00, 0x00, 0x7e, 0x00, 0xc0, 0x0f, 0x00, 0x00, 
0x00, 0xe0, 0x01, 0x00, 0x00, 0xf0, 0x00, 0x00, 
0x00, 0x1c, 0x00, 0x00, 0x00, 0x00, 0x07, 0x00, 
0x00, 0x03, 0x00, 0x00, 0x00, 0x00, 0x18, 0x00, 
0x80, 0x00, 0x00, 0x00, 0x00, 0x00, 0x20, 0x00, 
0x40, 0x00, 0x00, 0x00, 0x00, 0x00, 0x40, 0x00, 
0x40, 0x00, 0x00, 0x00, 0x00, 0x00, 0x40, 0x00, 
0x40, 0x00, 0x00, 0x00, 0x00, 0x00, 0x40, 0x00, 
0xc0, 0x00, 0x00, 0x00, 0x00, 0x00, 0x60, 0x00, 
0x40, 0x07, 0x00, 0x00, 0x00, 0x00, 0x58, 0x00, 
0x40, 0x38, 0x00, 0x00, 0x00, 0x00, 0x47, 0x00, 
0x40, 0xc0, 0x01, 0x00, 0x00, 0xf0, 0x40, 0x00, 
0x40, 0x00, 0x7e, 0x00, 0xc0, 0x0f, 0x40, 0x00, 
0x40, 0x00, 0x80, 0xff, 0x3f, 0x00, 0x40, 0x00, 
0x40, 0x00, 0x00, 0x00, 0x00, 0x00, 0x40, 0x00, 
0x40, 0x00, 0x00, 0x00, 0x00, 0x00, 0x40, 0x00, 
0x40, 0x00, 0x00, 0x00, 0x00, 0x00, 0x40, 0x00, 
0x40, 0x00, 0x00, 0x00, 0x00, 0x00, 0x40, 0x00, 
0x40, 0x00, 0x00, 0x00, 0x00, 0x00, 0x40, 0x00, 
0x40, 0x00, 0x00, 0x00, 0x00, 0x00, 0x40, 0x00, 
0x40, 0x00, 0x00, 0x00, 0x00, 0x00, 0x40, 0x00, 
0x40, 0x00, 0x00, 0x00, 0x00, 0x00, 0x40, 0x00, 
0x40, 0x00, 0x00, 0x00, 0x00, 0x00, 0x40, 0x00, 
0x40, 0x00, 0x00, 0x00, 0x00, 0x00, 0x40, 0x00, 
0x40, 0x00, 0x00, 0x00, 0x00, 0x00, 0x40, 0x00, 
0x40, 0x00, 0x00, 0x00, 0x00, 0x00, 0x40, 0x00, 
0x40, 0x00, 0x00, 0x00, 0x00, 0x00, 0x40, 0x00, 
0x40, 0x00, 0x00, 0x00, 0x00, 0x00, 0x40, 0x00, 
0x40, 0x00, 0x00, 0x00, 0x00, 0x00, 0x40, 0x00, 
0x40, 0x00, 0x00, 0x00, 0x00, 0x00, 0x40, 0x00, 
0x40, 0x00, 0x00, 0x00, 0x00, 0x00, 0x40, 0x00, 
0x40, 0x00, 0x00, 0x00, 0x00, 0x00, 0x40, 0x00, 
0x40, 0x00, 0x00, 0x00, 0x00, 0x00, 0x40, 0x00, 
0x40, 0x00, 0x00, 0x00, 0x00, 0x00, 0x40, 0x00, 
0x40, 0x00, 0x00, 0x00, 0x00, 0x00, 0x40, 0x00, 
0x40, 0x00, 0x00, 0x00, 0x00, 0x00, 0x40, 0x00, 
0x40, 0x00, 0x00, 0x00, 0x00, 0x00, 0x40, 0x00, 
0x40, 0x00, 0x00, 0x00, 0x00, 0x00, 0x40, 0x00, 
0x40, 0x00, 0x00, 0x00, 0x00, 0x00, 0x40, 0x00, 
0x40, 0x00, 0x00, 0x00, 0x00, 0x00, 0x40, 0x00, 
0x40, 0x00, 0x00, 0x00, 0x00, 0x00, 0x40, 0x00, 
0x40, 0x00, 0x00, 0x00, 0x00, 0x00, 0x40, 0x00, 
0x40, 0x00, 0x00, 0x00, 0x00, 0x00, 0x40, 0x00, 
0x40, 0x00, 0x00, 0x00, 0x00, 0x00, 0x40, 0x00, 
0x40, 0x00, 0x00, 0x00, 0x00, 0x00, 0x40, 0x00, 
0x40, 0x00, 0x00, 0x00, 0x00, 0x00, 0x40, 0x00, 
0x40, 0x00, 0x00, 0x00, 0x00, 0x00, 0x40, 0x00, 
0x40, 0x00, 0x00, 0x00, 0x00, 0x00, 0x40, 0x00, 
0x40, 0x00, 0x00, 0x00, 0x00, 0x00, 0x40, 0x00, 
0x40, 0x00, 0x00, 0x00, 0x00, 0x00, 0x40, 0x00, 
0x40, 0x00, 0x00, 0x00, 0x00, 0x00, 0x40, 0x00, 
0x40, 0x00, 0x00, 0x00, 0x00, 0x00, 0x40, 0x00, 
0x40, 0x00, 0x00, 0x00, 0x00, 0x00, 0x40, 0x00, 
0x40, 0x00, 0x00, 0x00, 0x00, 0x00, 0x40, 0x00, 
0x80, 0x00, 0x00, 0x00, 0x00, 0x00, 0x20, 0x00, 
0x00, 0x03, 0x00, 0x00, 0x00, 0x00, 0x18, 0x00, 
0x00, 0x1c, 0x00, 0x00, 0x00, 0x00, 0x07, 0x00, 
0x00, 0xe0, 0x01, 0x00, 0x00, 0xf0, 0x00, 0x00, 
0x00, 0x00, 0x7e, 0x00, 0xc0, 0x0f, 0x00, 0x00, 
0x00, 0x00, 0x80, 0xff, 0x3f, 0x00, 0x00, 0x00, 
0x00, 0x00, 0x00, 0x00, 0x00, 0x00, 0x00, 0x00, 
0x00, 0x00, 0x00, 0x00, 0x00, 0x00, 0x00, 0x00, 
}; 
