#define x_width 64
#define x_height 64
static char x_bits[] = {
0x00, 0x00, 0x00, 0x00, 0x00, 0x00, 0x00, 0x00, 
0x00, 0x00, 0x00, 0x00, 0x00, 0x00, 0x00, 0x00, 
0xc0, 0xff, 0xff, 0x03, 0x00, 0x00, 0x00, 0x00, 
0xc0, 0xff, 0xff, 0x03, 0x00, 0x00, 0x00, 0x00, 
0xc0, 0xff, 0xff, 0x03, 0x00, 0x00, 0x00, 0x00, 
0xc0, 0xff, 0xff, 0x23, 0x00, 0x00, 0x00, 0x00, 
0xc0, 0xff, 0xff, 0x63, 0x00, 0x00, 0x00, 0x00, 
0xc0, 0xff, 0xff, 0xe3, 0x00, 0x00, 0x00, 0x00, 
0xc0, 0xff, 0xff, 0x03, 0x00, 0x00, 0x00, 0x00, 
0xc0, 0xff, 0xff, 0x03, 0x00, 0x00, 0x00, 0x00, 
0xc0, 0xff, 0xff, 0x03, 0x00, 0x00, 0x00, 0x00, 
0xc0, 0xff, 0xff, 0xff, 0x07, 0x00, 0x00, 0x00, 
0xc0, 0xff, 0xff, 0xff, 0x07, 0x00, 0x00, 0x00, 
0xc0, 0xff, 0xff, 0xff, 0x07, 0x00, 0x00, 0x00, 
0xc0, 0xff, 0xff, 0xff, 0x07, 0x00, 0x00, 0x00, 
0xc0, 0xff, 0xff, 0xff, 0x07, 0x00, 0x00, 0x00, 
0xc0, 0xff, 0xff, 0xff, 0x07, 0x00, 0x00, 0x00, 
0xc0, 0xff, 0xff, 0xff, 0x07, 0x00, 0x00, 0x00, 
0xc0, 0xff, 0xff, 0xff, 0x07, 0x00, 0x00, 0x00, 
0xc0, 0xff, 0xff, 0xff, 0x07, 0x00, 0x00, 0x00, 
0xc0, 0xff, 0xff, 0xff, 0x07, 0x00, 0x00, 0x00, 
0xc0, 0xff, 0xff, 0xff, 0x07, 0x00, 0x00, 0x00, 
0xc0, 0xff, 0xff, 0xff, 0x07, 0x00, 0x00, 0x00, 
0xc0, 0xff, 0xff, 0xff, 0x07, 0x00, 0x00, 0x00, 
0xc0, 0xff, 0xff, 0xff, 0x07, 0x00, 0x00, 0x00, 
0xc0, 0xff, 0xff, 0xff, 0x07, 0x00, 0x00, 0x00, 
0xc0, 0xff, 0xff, 0xff, 0x07, 0x00, 0x00, 0x00, 
0xc0, 0xff, 0xff, 0xff, 0x07, 0x00, 0x00, 0x00, 
0xc0, 0xff, 0xff, 0xff, 0x07, 0x00, 0x00, 0x00, 
0xc0, 0xff, 0xff, 0xff, 0x07, 0x00, 0x00, 0x00, 
0xc0, 0xff, 0xff, 0xff, 0x07, 0x00, 0x00, 0x00, 
0xc0, 0xff, 0xff, 0xff, 0x07, 0x00, 0x00, 0x00, 
0xc0, 0xff, 0xff, 0xff, 0x07, 0x00, 0x00, 0x00, 
0xc0, 0xff, 0xff, 0xff, 0x07, 0x00, 0x00, 0x00, 
0xc0, 0xff, 0xff, 0xff, 0x07, 0x00, 0x00, 0x00, 
0xc0, 0xff, 0xff, 0xff, 0x07, 0x00, 0x00, 0x00, 
0xc0, 0xff, 0xff, 0xff, 0x07, 0x00, 0x00, 0x00, 
0xc0, 0xff, 0xff, 0xff, 0x07, 0x00, 0x00, 0x00, 
0x00, 0x00, 0x00, 0x00, 0x00, 0x00, 0x00, 0x00, 
0x00, 0x00, 0x00, 0x00, 0x00, 0x00, 0x00, 0x00, 
0x00, 0x00, 0x00, 0x00, 0x00, 0x00, 0x00, 0x00, 
0x00, 0x00, 0x00, 0x00, 0x00, 0x00, 0x00, 0x00, 
0x00, 0x00, 0x00, 0x00, 0x00, 0x00, 0x00, 0x00, 
0x00, 0x00, 0x00, 0x00, 0x00, 0x00, 0x00, 0x00, 
0x00, 0x00, 0x00, 0x00, 0x00, 0x00, 0x00, 0x00, 
0x00, 0x00, 0x00, 0x00, 0x00, 0x00, 0x00, 0x00, 
0x00, 0x00, 0x00, 0x00, 0x00, 0x00, 0x00, 0x00, 
0x00, 0x00, 0x00, 0x00, 0x00, 0x00, 0x00, 0x00, 
0x00, 0x00, 0x00, 0x00, 0x00, 0x00, 0x00, 0x00, 
0x00, 0x00, 0x00, 0x00, 0x00, 0x00, 0x00, 0x00, 
0x00, 0x00, 0x00, 0x00, 0x00, 0x00, 0x00, 0x00, 
0x00, 0x00, 0x00, 0x00, 0x00, 0x00, 0x00, 0x00, 
0x00, 0x00, 0x00, 0x00, 0x00, 0x00, 0x00, 0x00, 
0x00, 0x00, 0x00, 0x00, 0x00, 0x00, 0x00, 0x00, 
0x00, 0x00, 0x00, 0x00, 0x00, 0x00, 0x00, 0x00, 
0x00, 0x00, 0x00, 0x00, 0x00, 0x00, 0x00, 0x00, 
0x00, 0x00, 0x00, 0x00, 0x00, 0x00, 0x00, 0x00, 
0x00, 0x00, 0x00, 0x00, 0x00, 0x00, 0x00, 0x00, 
0x00, 0x00, 0x00, 0x00, 0x00, 0x00, 0x00, 0x00, 
0x00, 0x00, 0x00, 0x00, 0x00, 0x00, 0x00, 0x00, 
0x00, 0x00, 0x00, 0x00, 0x00, 0x00, 0x00, 0x00, 
0x00, 0x00, 0x00, 0x00, 0x00, 0x00, 0x00, 0x00, 
0x00, 0x00, 0x00, 0x00, 0x00, 0x00, 0x00, 0x00, 
0x00, 0x00, 0x00, 0x00, 0x00, 0x00, 0x00, 0x00, 
}; 
