#define x_width 64
#define x_height 64
static char x_bits[] = {
0xf0, 0xff, 0xff, 0x0f, 0x00, 0x00, 0x00, 0x00, 
0x10, 0x00, 0x00, 0x18, 0x00, 0x00, 0x00, 0x00, 
0x10, 0x00, 0x00, 0x28, 0x00, 0x00, 0x00, 0x00, 
0x10, 0x00, 0x00, 0x48, 0x00, 0x00, 0x00, 0x00, 
0x10, 0x00, 0x00, 0x88, 0x00, 0x00, 0x00, 0x00, 
0x10, 0x00, 0x00, 0x08, 0x01, 0x00, 0x00, 0x00, 
0x10, 0x00, 0x00, 0x08, 0x02, 0x00, 0x00, 0x00, 
0x10, 0x00, 0x00, 0x08, 0x04, 0x00, 0x00, 0x00, 
0x10, 0x00, 0x00, 0x08, 0x08, 0x00, 0x00, 0x00, 
0x10, 0x00, 0x00, 0xf8, 0x1f, 0x00, 0x00, 0x00, 
0x10, 0x00, 0x00, 0x00, 0x30, 0x00, 0x00, 0x00, 
0x10, 0x00, 0x00, 0x00, 0x30, 0x00, 0x00, 0x00, 
0x10, 0x00, 0x00, 0x00, 0x30, 0x00, 0x00, 0x00, 
0x10, 0x00, 0x00, 0x00, 0x30, 0x00, 0x00, 0x00, 
0x10, 0x00, 0x00, 0x00, 0x30, 0x00, 0x00, 0x00, 
0x10, 0x00, 0x00, 0x00, 0x30, 0x00, 0x00, 0x00, 
0x10, 0x00, 0x00, 0x00, 0x30, 0x00, 0x00, 0x00, 
0x10, 0x00, 0x00, 0x00, 0x30, 0x00, 0x00, 0x00, 
0x10, 0x00, 0x00, 0x00, 0x30, 0x00, 0x00, 0x00, 
0x10, 0x00, 0x00, 0x00, 0x30, 0x00, 0x00, 0x00, 
0x10, 0x00, 0x00, 0x00, 0x30, 0x00, 0x00, 0x00, 
0x10, 0x00, 0x00, 0x00, 0x30, 0x00, 0x00, 0x00, 
0x10, 0x00, 0x00, 0x00, 0x30, 0x00, 0x00, 0x00, 
0x10, 0x00, 0x00, 0x00, 0x30, 0x00, 0x00, 0x00, 
0x10, 0x00, 0x00, 0x00, 0x30, 0x00, 0x00, 0x00, 
0x10, 0x00, 0x00, 0x00, 0x30, 0x00, 0x00, 0x00, 
0x10, 0x00, 0x00, 0x00, 0x30, 0x00, 0x00, 0x00, 
0x10, 0x00, 0x00, 0x00, 0x30, 0x00, 0x00, 0x00, 
0x10, 0x00, 0x00, 0x00, 0x30, 0x00, 0x00, 0x00, 
0x10, 0x00, 0x00, 0x00, 0x30, 0x00, 0x00, 0x00, 
0x10, 0x00, 0x00, 0x00, 0x30, 0x00, 0x00, 0x00, 
0x10, 0x00, 0x00, 0x00, 0x30, 0x00, 0x00, 0x00, 
0x10, 0x00, 0x00, 0x00, 0x30, 0x00, 0x00, 0x00, 
0x10, 0x00, 0x00, 0x00, 0x30, 0x00, 0x00, 0x00, 
0x10, 0x00, 0x00, 0x00, 0x30, 0x00, 0x00, 0x00, 
0x10, 0x00, 0x00, 0x00, 0x30, 0x00, 0x00, 0x00, 
0x10, 0x00, 0x00, 0x00, 0x30, 0x00, 0x00, 0x00, 
0x10, 0x00, 0x00, 0x00, 0x30, 0x00, 0x00, 0x00, 
0x10, 0x00, 0x00, 0x00, 0x30, 0x00, 0x00, 0x00, 
0xf0, 0xff, 0xff, 0xff, 0x3f, 0x00, 0x00, 0x00, 
0xe0, 0xff, 0xff, 0xff, 0x3f, 0x00, 0x00, 0x00, 
0x00, 0x00, 0x00, 0x00, 0x00, 0x00, 0x00, 0x00, 
0x00, 0x00, 0x00, 0x00, 0x00, 0x00, 0x00, 0x00, 
0x00, 0x00, 0x00, 0x00, 0x00, 0x00, 0x00, 0x00, 
0x00, 0x00, 0x00, 0x00, 0x00, 0x00, 0x00, 0x00, 
0x00, 0x00, 0x00, 0x00, 0x00, 0x00, 0x00, 0x00, 
0x00, 0x00, 0x00, 0x00, 0x00, 0x00, 0x00, 0x00, 
0x00, 0x00, 0x00, 0x00, 0x00, 0x00, 0x00, 0x00, 
0x00, 0x00, 0x00, 0x00, 0x00, 0x00, 0x00, 0x00, 
0x00, 0x00, 0x00, 0x00, 0x00, 0x00, 0x00, 0x00, 
0x00, 0x00, 0x00, 0x00, 0x00, 0x00, 0x00, 0x00, 
0x00, 0x00, 0x00, 0x00, 0x00, 0x00, 0x00, 0x00, 
0x00, 0x00, 0x00, 0x00, 0x00, 0x00, 0x00, 0x00, 
0x00, 0x00, 0x00, 0x00, 0x00, 0x00, 0x00, 0x00, 
0x00, 0x00, 0x00, 0x00, 0x00, 0x00, 0x00, 0x00, 
0x00, 0x00, 0x00, 0x00, 0x00, 0x00, 0x00, 0x00, 
0x00, 0x00, 0x00, 0x00, 0x00, 0x00, 0x00, 0x00, 
0x00, 0x00, 0x00, 0x00, 0x00, 0x00, 0x00, 0x00, 
0x00, 0x00, 0x00, 0x00, 0x00, 0x00, 0x00, 0x00, 
0x00, 0x00, 0x00, 0x00, 0x00, 0x00, 0x00, 0x00, 
0x00, 0x00, 0x00, 0x00, 0x00, 0x00, 0x00, 0x00, 
0x00, 0x00, 0x00, 0x00, 0x00, 0x00, 0x00, 0x00, 
0x00, 0x00, 0x00, 0x00, 0x00, 0x00, 0x00, 0x00, 
0x00, 0x00, 0x00, 0x00, 0x00, 0x00, 0x00, 0x00, 
}; 
