#define x_width 64
#define x_height 64
static char x_bits[] = {
0xff, 0xff, 0xff, 0xff, 0xff, 0x57, 0x55, 0x55, 
0x01, 0x00, 0x00, 0x00, 0x00, 0xad, 0xaa, 0xaa, 
0x01, 0x00, 0x00, 0x00, 0x00, 0x59, 0x55, 0x55, 
0x01, 0x00, 0x00, 0x00, 0x00, 0xb1, 0xaa, 0xaa, 
0x01, 0x00, 0x00, 0x00, 0x00, 0x61, 0x55, 0x55, 
0x01, 0x00, 0x00, 0x00, 0x00, 0xc1, 0xaa, 0xaa, 
0x01, 0x00, 0x00, 0x00, 0x00, 0x81, 0x55, 0x55, 
0x01, 0x00, 0x00, 0x00, 0x00, 0x01, 0xab, 0xaa, 
0x01, 0x00, 0x00, 0x00, 0x00, 0x01, 0x56, 0x55, 
0x01, 0x00, 0x00, 0x00, 0x00, 0x01, 0xac, 0xaa, 
0x01, 0x00, 0x00, 0x00, 0x00, 0x01, 0x58, 0x55, 
0x01, 0x00, 0x00, 0x00, 0x00, 0x01, 0xb0, 0xaa, 
0x01, 0x00, 0x00, 0x00, 0x00, 0x01, 0x60, 0x55, 
0x01, 0x00, 0x00, 0x00, 0x00, 0x01, 0xc0, 0xaa, 
0x01, 0x00, 0x00, 0x00, 0x00, 0xff, 0xff, 0x55, 
0x01, 0x00, 0x00, 0x00, 0x00, 0x00, 0xc0, 0xaa, 
0x01, 0x00, 0x00, 0x00, 0x00, 0x00, 0xc0, 0x55, 
0x01, 0x00, 0x00, 0x00, 0x00, 0x00, 0xc0, 0xaa, 
0x01, 0x00, 0x00, 0x00, 0x00, 0x00, 0xc0, 0x55, 
0x01, 0x00, 0x00, 0x00, 0x00, 0x00, 0xc0, 0xaa, 
0x01, 0x00, 0x00, 0x00, 0x00, 0x00, 0xc0, 0x55, 
0x01, 0x00, 0x00, 0x00, 0x00, 0x00, 0xc0, 0xaa, 
0x01, 0x00, 0x00, 0x00, 0x00, 0x00, 0xc0, 0x55, 
0x01, 0x00, 0x00, 0x00, 0x00, 0x00, 0xc0, 0xaa, 
0x01, 0x00, 0x00, 0x00, 0x00, 0x00, 0xc0, 0x55, 
0x01, 0x00, 0x00, 0x00, 0x00, 0x00, 0xc0, 0xaa, 
0x01, 0x00, 0x00, 0x00, 0x00, 0x00, 0xc0, 0x55, 
0x01, 0x00, 0x00, 0x00, 0x00, 0x00, 0xc0, 0xaa, 
0x01, 0x00, 0x00, 0x00, 0x00, 0x00, 0xc0, 0x55, 
0x01, 0x00, 0x00, 0x00, 0x00, 0x00, 0xc0, 0xaa, 
0x01, 0x00, 0x00, 0x00, 0x00, 0x00, 0xc0, 0x55, 
0x01, 0x00, 0x00, 0x00, 0x00, 0x00, 0xc0, 0xaa, 
0x01, 0x00, 0x00, 0x00, 0x00, 0x00, 0xc0, 0x55, 
0x01, 0x00, 0x00, 0x00, 0x00, 0x00, 0xc0, 0xaa, 
0x01, 0x00, 0x00, 0x00, 0x00, 0x00, 0xc0, 0x55, 
0x01, 0x00, 0x00, 0x00, 0x00, 0x00, 0xc0, 0xaa, 
0x01, 0x00, 0x00, 0x00, 0x00, 0x00, 0xc0, 0x55, 
0x01, 0x00, 0x00, 0x00, 0x00, 0x00, 0xc0, 0xaa, 
0x01, 0x00, 0x00, 0x00, 0x00, 0x00, 0xc0, 0x55, 
0x01, 0x00, 0x00, 0x00, 0x00, 0x00, 0xc0, 0xaa, 
0x01, 0x00, 0x00, 0x00, 0x00, 0x00, 0xc0, 0x55, 
0x01, 0x00, 0x00, 0x00, 0x00, 0x00, 0xc0, 0xaa, 
0x01, 0x00, 0x00, 0x00, 0x00, 0x00, 0xc0, 0x55, 
0x01, 0x00, 0x00, 0x00, 0x00, 0x00, 0xc0, 0xaa, 
0x01, 0x00, 0x00, 0x00, 0x00, 0x00, 0xc0, 0x55, 
0x01, 0x00, 0x00, 0x00, 0x00, 0x00, 0xc0, 0xaa, 
0x01, 0x00, 0x00, 0x00, 0x00, 0x00, 0xc0, 0x55, 
0x01, 0x00, 0x00, 0x00, 0x00, 0x00, 0xc0, 0xaa, 
0x01, 0x00, 0x00, 0x00, 0x00, 0x00, 0xc0, 0x55, 
0x01, 0x00, 0x00, 0x00, 0x00, 0x00, 0xc0, 0xaa, 
0x01, 0x00, 0x00, 0x00, 0x00, 0x00, 0xc0, 0x55, 
0x01, 0x00, 0x00, 0x00, 0x00, 0x00, 0xc0, 0xaa, 
0x01, 0x00, 0x00, 0x00, 0x00, 0x00, 0xc0, 0x55, 
0x01, 0x00, 0x00, 0x00, 0x00, 0x00, 0xc0, 0xaa, 
0x01, 0x00, 0x00, 0x00, 0x00, 0x00, 0xc0, 0x55, 
0x01, 0x00, 0x00, 0x00, 0x00, 0x00, 0xc0, 0xaa, 
0x01, 0x00, 0x00, 0x00, 0x00, 0x00, 0xc0, 0x55, 
0x01, 0x00, 0x00, 0x00, 0x00, 0x00, 0xc0, 0xaa, 
0x01, 0x00, 0x00, 0x00, 0x00, 0x00, 0xc0, 0x55, 
0x01, 0x00, 0x00, 0x00, 0x00, 0x00, 0xc0, 0xaa, 
0x01, 0x00, 0x00, 0x00, 0x00, 0x00, 0xc0, 0x55, 
0x01, 0x00, 0x00, 0x00, 0x00, 0x00, 0xc0, 0xaa, 
0xff, 0xff, 0xff, 0xff, 0xff, 0xff, 0xff, 0x55, 
0xfe, 0xff, 0xff, 0xff, 0xff, 0xff, 0xff, 0xaa, 
}; 
