#define x_width 32
#define x_height 31
static char x_bits[] = {
0x00, 0x00, 0x00, 0x00, 
0x00, 0xff, 0xff, 0x7f, 
0x80, 0x00, 0x00, 0x60, 
0x40, 0x00, 0x00, 0x50, 
0x20, 0x00, 0x00, 0x48, 
0x10, 0x00, 0x00, 0x44, 
0x08, 0x00, 0x00, 0x42, 
0x04, 0x00, 0x00, 0x41, 
0xfe, 0xff, 0xff, 0x40, 
0x02, 0x00, 0x80, 0x40, 
0xfa, 0xff, 0xbf, 0x40, 
0x0a, 0x00, 0xa0, 0x40, 
0x0a, 0x00, 0xa0, 0x40, 
0x0a, 0x00, 0xa0, 0x40, 
0x0a, 0xfe, 0xa0, 0x40, 
0x0a, 0x82, 0xa0, 0x40, 
0x0a, 0x82, 0xa0, 0x40, 
0x0a, 0xfe, 0xa0, 0x40, 
0x0a, 0x00, 0xa0, 0x40, 
0x0a, 0x00, 0xa0, 0x40, 
0x0a, 0x00, 0xa0, 0x40, 
0x0a, 0x00, 0xa0, 0x40, 
0x0a, 0x00, 0xa0, 0x40, 
0x0a, 0xfe, 0xa0, 0x40, 
0x0a, 0x00, 0xa0, 0x20, 
0x0a, 0x00, 0xa0, 0x10, 
0x0a, 0x00, 0xa0, 0x08, 
0x0a, 0x00, 0xa0, 0x04, 
0xfa, 0xff, 0xbf, 0x02, 
0x02, 0x00, 0x80, 0x01, 
0xfe, 0xff, 0xff, 0x00, 
}; 
