#define x_width 64
#define x_height 64
static char x_bits[] = {
0x00, 0x00, 0x00, 0x00, 0x00, 0xf0, 0xff, 0xff, 
0x00, 0x00, 0x00, 0x00, 0x00, 0x10, 0x00, 0x80, 
0x1c, 0x00, 0x00, 0x00, 0x00, 0x10, 0xff, 0x8f, 
0x3c, 0x00, 0x00, 0x00, 0x00, 0x90, 0x00, 0xbc, 
0x78, 0x00, 0x00, 0x0c, 0x00, 0x50, 0x00, 0xbe, 
0xf0, 0x00, 0x80, 0x0b, 0x00, 0x50, 0x08, 0xaf, 
0xe0, 0x01, 0x70, 0x10, 0x00, 0x50, 0x88, 0xa7, 
0xc0, 0x03, 0x0e, 0x10, 0x00, 0x50, 0xc8, 0xa3, 
0x80, 0x87, 0x01, 0x13, 0x00, 0x50, 0xe8, 0xa3, 
0x00, 0x7f, 0xe0, 0x22, 0x00, 0x50, 0xf8, 0xa2, 
0x00, 0x1e, 0x1c, 0x24, 0x00, 0x50, 0x78, 0xa2, 
0xc0, 0x3d, 0x03, 0x24, 0x00, 0x50, 0x3c, 0xa6, 
0x30, 0xf8, 0x00, 0x44, 0x00, 0x50, 0x3e, 0xae, 
0x10, 0xfc, 0x00, 0x48, 0x00, 0xd0, 0x7f, 0xbd, 
0x20, 0xe3, 0x41, 0x4a, 0x00, 0xd0, 0x87, 0xa0, 
0x20, 0xc1, 0xd3, 0x8a, 0x00, 0xd0, 0x83, 0xa0, 
0x20, 0xe2, 0x57, 0x93, 0x00, 0xf0, 0x01, 0xa0, 
0x40, 0x12, 0x5f, 0x12, 0x01, 0xf0, 0x00, 0x90, 
0x40, 0xf2, 0x5e, 0x22, 0x01, 0x78, 0xff, 0x8f, 
0x40, 0x82, 0x3c, 0x20, 0x01, 0x3c, 0x00, 0x80, 
0x40, 0x64, 0x78, 0x2c, 0x02, 0x1e, 0xc6, 0x98, 
0x80, 0x04, 0xf0, 0x42, 0x3e, 0x1f, 0xc6, 0x98, 
0x80, 0x04, 0xe4, 0x5b, 0xc2, 0x17, 0xc6, 0x80, 
0x80, 0x08, 0xe4, 0x53, 0xc4, 0xf3, 0xff, 0xff, 
0x00, 0xc9, 0xf4, 0x9f, 0xe4, 0x01, 0x82, 0x00, 
0x00, 0x49, 0x15, 0xcf, 0xf4, 0x02, 0x82, 0x00, 
0x00, 0x51, 0x05, 0x3e, 0x78, 0xfc, 0x81, 0x00, 
0x00, 0x52, 0x01, 0x3f, 0x3c, 0x00, 0x40, 0x00, 
0x00, 0xd2, 0xe0, 0xf8, 0xff, 0x01, 0x40, 0x00, 
0x00, 0x12, 0x1c, 0xf0, 0x2f, 0x02, 0x20, 0x00, 
0x00, 0xa2, 0x03, 0xee, 0x4f, 0x0c, 0x30, 0x00, 
0x00, 0x64, 0xc0, 0xc1, 0x83, 0x30, 0x0c, 0x00, 
0x00, 0x04, 0x38, 0xe0, 0x87, 0xc1, 0x03, 0x00, 
0x18, 0x04, 0x07, 0xfc, 0x7f, 0x00, 0x00, 0x00, 
0x18, 0xe8, 0x80, 0x79, 0x1e, 0x00, 0x00, 0x00, 
0x18, 0x18, 0x60, 0xfc, 0x3d, 0x00, 0x00, 0x00, 
0x18, 0x08, 0x0c, 0x3e, 0x78, 0x00, 0x00, 0x00, 
0x18, 0x08, 0x03, 0x0f, 0xf0, 0x00, 0x00, 0x00, 
0x18, 0x68, 0xc0, 0x0f, 0xe0, 0x01, 0x00, 0x00, 
0x18, 0x08, 0xf8, 0x1f, 0xc0, 0x03, 0x00, 0x00, 
0x18, 0x08, 0xe7, 0x19, 0xa0, 0x07, 0x00, 0x00, 
0x18, 0xe8, 0xf0, 0x38, 0x7c, 0x0f, 0x00, 0x00, 
0x18, 0x18, 0x78, 0x78, 0x86, 0x1e, 0x00, 0x00, 
0x18, 0x00, 0x3c, 0xfc, 0x01, 0x3c, 0x00, 0x00, 
0x18, 0x00, 0x1e, 0x76, 0x00, 0x78, 0x00, 0x00, 
0x18, 0x00, 0x8f, 0xf1, 0x00, 0xf0, 0x00, 0x00, 
0x18, 0x80, 0xff, 0xe0, 0x00, 0xe0, 0x01, 0x00, 
0x18, 0xc0, 0x03, 0xe0, 0x01, 0xc0, 0x03, 0x00, 
0x18, 0xe0, 0x01, 0xf0, 0x00, 0x80, 0x07, 0x00, 
0x18, 0xf0, 0x00, 0x8f, 0x00, 0x00, 0x0f, 0x00, 
0x18, 0x78, 0xc0, 0x01, 0x31, 0x00, 0x1e, 0x00, 
0x18, 0x3c, 0x40, 0x00, 0x4d, 0x00, 0x3c, 0x00, 
0x18, 0x1e, 0x40, 0x00, 0x42, 0x00, 0x78, 0x00, 
0x18, 0x0f, 0x40, 0x00, 0x00, 0x00, 0xf0, 0x00, 
0x98, 0x07, 0x78, 0x00, 0x00, 0x00, 0xe0, 0x01, 
0xd8, 0x1f, 0x00, 0x00, 0x00, 0x1f, 0xc0, 0x03, 
0xf8, 0xe1, 0xff, 0xff, 0xff, 0x39, 0x80, 0x07, 
0xf8, 0x03, 0x00, 0x00, 0x00, 0x3c, 0x00, 0x0f, 
0xf8, 0x01, 0x00, 0x00, 0x00, 0x38, 0x00, 0x1e, 
0xbc, 0xff, 0xff, 0xff, 0xff, 0x1f, 0x00, 0x3c, 
0xfc, 0xff, 0xff, 0xff, 0xff, 0xff, 0x00, 0x38, 
0x1c, 0x00, 0x00, 0x00, 0x00, 0xc0, 0x01, 0x30, 
0x3e, 0x00, 0x00, 0x00, 0x00, 0xe0, 0x03, 0x00, 
0x3e, 0x00, 0x00, 0x00, 0x00, 0xe0, 0x03, 0x00, 
}; 
