#define x_width 64
#define x_height 64
static char x_bits[] = {
0x11, 0x11, 0x11, 0x91, 0x11, 0x11, 0x11, 0x11, 
0x11, 0x11, 0x11, 0xd1, 0x13, 0x11, 0x11, 0x11, 
0x44, 0x44, 0x44, 0x64, 0x46, 0x44, 0x44, 0x44, 
0x44, 0x44, 0x44, 0x34, 0x4c, 0x44, 0x44, 0x44, 
0x11, 0x11, 0x11, 0x19, 0x18, 0x11, 0x11, 0x11, 
0x11, 0x11, 0x11, 0x0d, 0x30, 0x11, 0x11, 0x11, 
0x44, 0x44, 0x44, 0x06, 0x60, 0x44, 0x44, 0x44, 
0x44, 0x44, 0x44, 0x03, 0xc0, 0x44, 0x44, 0x44, 
0x11, 0x11, 0x91, 0x81, 0x81, 0x11, 0x11, 0x11, 
0x11, 0x11, 0xd1, 0xc0, 0x03, 0x13, 0x11, 0x11, 
0x44, 0x44, 0x64, 0xe0, 0x07, 0x46, 0x44, 0x44, 
0x44, 0x44, 0x34, 0xf0, 0x0f, 0x4c, 0x44, 0x44, 
0x11, 0x11, 0x19, 0xf8, 0x1f, 0x18, 0x11, 0x11, 
0x11, 0x11, 0x0d, 0xfc, 0x3f, 0x30, 0x11, 0x11, 
0x44, 0x44, 0x06, 0xfe, 0x7f, 0x60, 0x44, 0x44, 
0x44, 0x44, 0x03, 0xff, 0xff, 0xc0, 0x44, 0x44, 
0x11, 0x91, 0x81, 0xff, 0xff, 0x81, 0x11, 0x11, 
0x11, 0xd1, 0xc0, 0xff, 0xff, 0x03, 0x13, 0x11, 
0x44, 0x64, 0xe0, 0xff, 0xff, 0x07, 0x46, 0x44, 
0x44, 0x34, 0xf0, 0xff, 0xff, 0x0f, 0x4c, 0x44, 
0x11, 0x19, 0xf8, 0xff, 0xff, 0x1f, 0x18, 0x11, 
0x11, 0x0d, 0xfc, 0xff, 0xff, 0x3f, 0x30, 0x11, 
0x44, 0x06, 0xfe, 0xff, 0xff, 0x7f, 0x60, 0x44, 
0x44, 0x03, 0xfe, 0xff, 0xff, 0x7f, 0xc0, 0x44, 
0x91, 0x01, 0x00, 0xfc, 0x3f, 0x00, 0x80, 0x11, 
0xd1, 0x00, 0x00, 0xfc, 0x3f, 0x00, 0x00, 0x13, 
0x64, 0x00, 0x00, 0xfc, 0x3f, 0x00, 0x00, 0x46, 
0x34, 0x00, 0x00, 0xfc, 0x3f, 0x00, 0x00, 0x4c, 
0x19, 0x00, 0x00, 0xfc, 0x7f, 0x00, 0x00, 0x18, 
0x0d, 0x00, 0x00, 0xfc, 0xff, 0x00, 0x00, 0x30, 
0x06, 0x00, 0x00, 0xfc, 0xff, 0x01, 0x00, 0x60, 
0x03, 0x00, 0x00, 0xfc, 0xff, 0x03, 0x00, 0xc0, 
0x03, 0x00, 0x00, 0xfc, 0xff, 0x07, 0x00, 0xc0, 
0x06, 0x00, 0x00, 0xfc, 0xff, 0x0f, 0x00, 0x60, 
0x0c, 0x00, 0x00, 0xfc, 0xff, 0x1f, 0x00, 0x70, 
0x1c, 0x00, 0x00, 0xfc, 0xff, 0x3f, 0x00, 0x58, 
0x31, 0x00, 0x00, 0xfc, 0xff, 0x7f, 0x00, 0x1c, 
0x71, 0x00, 0x00, 0xfc, 0xff, 0xff, 0x00, 0x16, 
0xc4, 0x00, 0x00, 0xfc, 0xff, 0xff, 0x01, 0x47, 
0xc4, 0x01, 0x00, 0xfc, 0xff, 0xff, 0x83, 0x45, 
0x11, 0x03, 0x00, 0xfc, 0xff, 0xff, 0xc1, 0x11, 
0x11, 0x07, 0x00, 0xfc, 0xff, 0xff, 0x60, 0x11, 
0x44, 0x0c, 0x00, 0xfc, 0xbf, 0x7f, 0x70, 0x44, 
0x44, 0x1c, 0x00, 0xfc, 0x3f, 0x3f, 0x58, 0x44, 
0x11, 0x31, 0x00, 0xfc, 0x3f, 0x1e, 0x1c, 0x11, 
0x11, 0x71, 0x00, 0xfc, 0x3f, 0x0c, 0x16, 0x11, 
0x44, 0xc4, 0x00, 0xfc, 0x3f, 0x00, 0x47, 0x44, 
0x44, 0xc4, 0x01, 0xfc, 0x3f, 0x80, 0x45, 0x44, 
0x11, 0x11, 0x03, 0xfc, 0x3f, 0xc0, 0x11, 0x11, 
0x11, 0x11, 0x07, 0xfc, 0x3f, 0x60, 0x11, 0x11, 
0x44, 0x44, 0x0c, 0xfc, 0x3f, 0x70, 0x44, 0x44, 
0x44, 0x44, 0x1c, 0xfc, 0x3f, 0x58, 0x44, 0x44, 
0x11, 0x11, 0x31, 0xfc, 0x3f, 0x1c, 0x11, 0x11, 
0x11, 0x11, 0x71, 0xfc, 0x3f, 0x16, 0x11, 0x11, 
0x44, 0x44, 0xc4, 0xfc, 0x3f, 0x47, 0x44, 0x44, 
0x44, 0x44, 0xc4, 0x01, 0x80, 0x45, 0x44, 0x44, 
0x11, 0x11, 0x11, 0x03, 0xc0, 0x11, 0x11, 0x11, 
0x11, 0x11, 0x11, 0x07, 0x60, 0x11, 0x11, 0x11, 
0x44, 0x44, 0x44, 0x0c, 0x70, 0x44, 0x44, 0x44, 
0x44, 0x44, 0x44, 0x1c, 0x58, 0x44, 0x44, 0x44, 
0x11, 0x11, 0x11, 0x31, 0x1c, 0x11, 0x11, 0x11, 
0x11, 0x11, 0x11, 0x71, 0x16, 0x11, 0x11, 0x11, 
0x44, 0x44, 0x44, 0xc4, 0x47, 0x44, 0x44, 0x44, 
0x44, 0x44, 0x44, 0xc4, 0x45, 0x44, 0x44, 0x44, 
}; 
