#define x_width 64
#define x_height 64
static char x_bits[] = {
0x55, 0x55, 0x55, 0x55, 0xd5, 0xff, 0x7f, 0x55, 
0xaa, 0xaa, 0xaa, 0xaa, 0x6a, 0x00, 0xc0, 0xaa, 
0x55, 0x55, 0x55, 0x55, 0x35, 0x00, 0x80, 0x55, 
0xaa, 0xaa, 0xaa, 0xaa, 0x1a, 0x00, 0x00, 0xab, 
0x55, 0x55, 0x55, 0x55, 0x0d, 0x00, 0x00, 0x56, 
0xfe, 0xff, 0xff, 0xff, 0x07, 0x00, 0x00, 0xfc, 
0x03, 0x00, 0x00, 0x00, 0x00, 0x00, 0x00, 0xc0, 
0x01, 0x00, 0x00, 0x00, 0x00, 0x00, 0x00, 0xc0, 
0x01, 0x00, 0x00, 0x00, 0x00, 0x00, 0x00, 0xc0, 
0x01, 0x00, 0x00, 0x00, 0x00, 0x00, 0x00, 0xc0, 
0x01, 0x00, 0x00, 0x00, 0x00, 0x00, 0x00, 0xc0, 
0x01, 0x00, 0x00, 0x00, 0x00, 0x00, 0x00, 0xc0, 
0x01, 0x00, 0x00, 0x00, 0x00, 0x00, 0x00, 0xc0, 
0x01, 0x00, 0x00, 0x00, 0x00, 0x00, 0x00, 0xc0, 
0x01, 0x00, 0x00, 0x00, 0x00, 0x00, 0x00, 0xc0, 
0x01, 0x00, 0x00, 0x00, 0x00, 0x00, 0x00, 0xc0, 
0x01, 0x00, 0x00, 0x00, 0x00, 0x00, 0x00, 0xc0, 
0x01, 0x00, 0x00, 0x00, 0x00, 0x00, 0x00, 0xc0, 
0x01, 0x00, 0x00, 0x00, 0x00, 0x00, 0x00, 0xc0, 
0x01, 0x00, 0x00, 0x00, 0x00, 0x00, 0x00, 0xc0, 
0x01, 0x00, 0x00, 0x00, 0x00, 0x00, 0x00, 0xc0, 
0x01, 0x00, 0x00, 0x00, 0x00, 0x00, 0x00, 0xc0, 
0x01, 0x00, 0x00, 0x00, 0x00, 0x00, 0x00, 0xc0, 
0x01, 0x00, 0x00, 0x00, 0x00, 0x00, 0x00, 0xc0, 
0x01, 0x00, 0x00, 0x00, 0x00, 0x00, 0x00, 0xc0, 
0x01, 0x00, 0x00, 0x00, 0x00, 0x00, 0x00, 0xc0, 
0x01, 0x00, 0x00, 0x00, 0x00, 0x00, 0x00, 0xc0, 
0x01, 0x00, 0x00, 0x00, 0x00, 0x00, 0x00, 0xc0, 
0x01, 0x00, 0x00, 0x00, 0x00, 0x00, 0x00, 0xc0, 
0x01, 0x00, 0x00, 0x00, 0x00, 0x00, 0x00, 0xc0, 
0x01, 0x00, 0x00, 0x00, 0x00, 0x00, 0x00, 0xc0, 
0x01, 0x00, 0x00, 0x00, 0x00, 0x00, 0x00, 0xc0, 
0x01, 0x00, 0x00, 0x00, 0x00, 0x00, 0x00, 0xc0, 
0x01, 0x00, 0x00, 0x00, 0x00, 0x00, 0x00, 0xc0, 
0x01, 0x00, 0x00, 0x00, 0x00, 0x00, 0x00, 0xc0, 
0x01, 0x00, 0x00, 0x00, 0x00, 0x00, 0x00, 0xc0, 
0x01, 0x00, 0x00, 0x00, 0x00, 0x00, 0x00, 0xc0, 
0x01, 0x00, 0x00, 0x00, 0x00, 0x00, 0x00, 0xc0, 
0x01, 0x00, 0x00, 0x00, 0x00, 0x00, 0x00, 0xc0, 
0x01, 0x00, 0x00, 0x00, 0x00, 0x00, 0x00, 0xc0, 
0x01, 0x00, 0x00, 0x00, 0x00, 0x00, 0x00, 0xc0, 
0x01, 0x00, 0x00, 0x00, 0x00, 0x00, 0x00, 0xc0, 
0x01, 0x00, 0x00, 0x00, 0x00, 0x00, 0x00, 0xc0, 
0x01, 0x00, 0x00, 0x00, 0x00, 0x00, 0x00, 0xc0, 
0x01, 0x00, 0x00, 0x00, 0x00, 0x00, 0x00, 0xc0, 
0x03, 0x00, 0x00, 0x00, 0x00, 0x00, 0x00, 0xe0, 
0xff, 0xff, 0xff, 0xff, 0xff, 0xff, 0xff, 0x7f, 
0xfe, 0xff, 0xff, 0xff, 0xff, 0xff, 0xff, 0xbf, 
0x00, 0x00, 0x00, 0x00, 0x00, 0x00, 0x00, 0x00, 
0x00, 0x00, 0x00, 0x00, 0x00, 0x00, 0x00, 0x00, 
0x00, 0x00, 0x00, 0x00, 0x00, 0x00, 0x00, 0x00, 
0x00, 0x00, 0x00, 0x00, 0x00, 0x00, 0x00, 0x00, 
0x00, 0x00, 0x00, 0x00, 0x00, 0x00, 0x00, 0x00, 
0x00, 0x00, 0x00, 0x00, 0x00, 0x00, 0x00, 0x00, 
0x00, 0x00, 0x00, 0x00, 0x00, 0x00, 0x00, 0x00, 
0x00, 0x00, 0x00, 0x00, 0x00, 0x00, 0x00, 0x00, 
0x00, 0x00, 0x00, 0x00, 0x00, 0x00, 0x00, 0x00, 
0x00, 0x00, 0x00, 0x00, 0x00, 0x00, 0x00, 0x00, 
0x00, 0x00, 0x00, 0x00, 0x00, 0x00, 0x00, 0x00, 
0x00, 0x00, 0x00, 0x00, 0x00, 0x00, 0x00, 0x00, 
0x00, 0x00, 0x00, 0x00, 0x00, 0x00, 0x00, 0x00, 
0x00, 0x00, 0x00, 0x00, 0x00, 0x00, 0x00, 0x00, 
0x00, 0x00, 0x00, 0x00, 0x00, 0x00, 0x00, 0x00, 
0x00, 0x00, 0x00, 0x00, 0x00, 0x00, 0x00, 0x00, 
}; 
