#define x_width 64
#define x_height 64
static char x_bits[] = {
0x00, 0x00, 0x00, 0x00, 0x00, 0x00, 0x00, 0x00, 
0x00, 0x00, 0x00, 0x00, 0x00, 0x00, 0x00, 0x00, 
0x00, 0x00, 0x00, 0x00, 0x00, 0x00, 0x00, 0x00, 
0x00, 0x00, 0x00, 0x00, 0x00, 0x00, 0x00, 0x00, 
0x00, 0x00, 0x00, 0x00, 0x00, 0x00, 0x00, 0x00, 
0x00, 0x00, 0x00, 0x00, 0x00, 0x00, 0x00, 0x00, 
0x80, 0xff, 0xff, 0xff, 0xff, 0xff, 0xff, 0x01, 
0xc0, 0xff, 0xff, 0xff, 0xff, 0xff, 0xff, 0x03, 
0xc0, 0xff, 0xff, 0xff, 0xff, 0xff, 0xff, 0x03, 
0xc0, 0x01, 0x00, 0x00, 0x00, 0x00, 0x80, 0x03, 
0xc0, 0x01, 0x00, 0x00, 0x00, 0x00, 0x80, 0x03, 
0xc0, 0x01, 0x00, 0x00, 0x00, 0x00, 0x80, 0x03, 
0xc0, 0x01, 0x00, 0x00, 0x00, 0x00, 0x80, 0x03, 
0xc0, 0x01, 0x00, 0x00, 0x00, 0x00, 0x80, 0x03, 
0xc0, 0x01, 0x00, 0x00, 0x00, 0x00, 0x80, 0x03, 
0xc0, 0x01, 0x00, 0x00, 0x00, 0x00, 0x80, 0x03, 
0xc0, 0x01, 0x00, 0x00, 0x00, 0x00, 0x80, 0x03, 
0xc0, 0x01, 0x00, 0x00, 0x00, 0x00, 0x80, 0x03, 
0xc0, 0x01, 0x00, 0x00, 0x00, 0x00, 0x80, 0x03, 
0xc0, 0x01, 0x00, 0x02, 0x00, 0x00, 0x80, 0x03, 
0xc0, 0x01, 0x00, 0x0e, 0x00, 0x00, 0x80, 0x03, 
0xc0, 0x01, 0x00, 0x32, 0x00, 0x00, 0x80, 0x03, 
0xc0, 0x01, 0x00, 0xc2, 0x00, 0x00, 0x80, 0x03, 
0xc0, 0x01, 0x00, 0x02, 0x03, 0x00, 0x80, 0x03, 
0xc0, 0x01, 0x00, 0x02, 0x04, 0x00, 0x80, 0x03, 
0xc0, 0x01, 0x00, 0x02, 0x18, 0x00, 0x80, 0x03, 
0xc0, 0x01, 0x00, 0x02, 0x60, 0x00, 0x80, 0x03, 
0xc0, 0x01, 0x00, 0x02, 0x80, 0x01, 0x80, 0x03, 
0xc0, 0x01, 0x00, 0x02, 0x00, 0x06, 0x80, 0x03, 
0xc0, 0x01, 0x00, 0x02, 0x00, 0x08, 0x80, 0x03, 
0xc0, 0x01, 0x00, 0x02, 0x00, 0x08, 0x80, 0x03, 
0xc0, 0x01, 0x00, 0x02, 0x00, 0x06, 0x80, 0x03, 
0xc0, 0x01, 0x00, 0x02, 0x80, 0x01, 0x80, 0x03, 
0xc0, 0x01, 0x00, 0x02, 0x40, 0x00, 0x80, 0x03, 
0xc0, 0x01, 0x00, 0x02, 0x30, 0x00, 0x80, 0x03, 
0xc0, 0x01, 0x00, 0x02, 0x0c, 0x00, 0x80, 0x03, 
0xc0, 0x01, 0x00, 0x02, 0x03, 0x00, 0x80, 0x03, 
0xc0, 0x01, 0x00, 0x82, 0x00, 0x00, 0x80, 0x03, 
0xc0, 0x01, 0x00, 0x62, 0x00, 0x00, 0x80, 0x03, 
0xc0, 0x01, 0x00, 0x1a, 0x00, 0x00, 0x80, 0x03, 
0xc0, 0x01, 0x00, 0x06, 0x00, 0x00, 0x80, 0x03, 
0xc0, 0x01, 0x00, 0x00, 0x00, 0x00, 0x80, 0x03, 
0xc0, 0x01, 0x00, 0x00, 0x00, 0x00, 0x80, 0x03, 
0xc0, 0x01, 0x80, 0x2f, 0xe8, 0x00, 0x80, 0x03, 
0xc0, 0x01, 0x80, 0x20, 0x28, 0x01, 0x80, 0x03, 
0xc0, 0x01, 0x80, 0x20, 0x28, 0x02, 0x80, 0x03, 
0xc0, 0x01, 0x80, 0x20, 0x29, 0x02, 0x80, 0x03, 
0xc0, 0x01, 0x80, 0x47, 0x25, 0x02, 0x80, 0x03, 
0xc0, 0x01, 0x80, 0x40, 0x25, 0x02, 0x80, 0x03, 
0xc0, 0x01, 0x80, 0x40, 0x25, 0x02, 0x80, 0x03, 
0xc0, 0x01, 0x80, 0x80, 0x22, 0x01, 0x80, 0x03, 
0xc0, 0x01, 0x80, 0x80, 0xe2, 0x00, 0x80, 0x03, 
0xc0, 0x01, 0x00, 0x00, 0x00, 0x00, 0x80, 0x03, 
0xc0, 0x01, 0x00, 0x00, 0x00, 0x00, 0x80, 0x03, 
0xc0, 0x01, 0x00, 0x00, 0x00, 0x00, 0x80, 0x03, 
0xc0, 0xff, 0xff, 0xff, 0xff, 0xff, 0xff, 0x03, 
0xc0, 0xff, 0xff, 0xff, 0xff, 0xff, 0xff, 0x03, 
0x80, 0xff, 0xff, 0xff, 0xff, 0xff, 0xff, 0x01, 
0x00, 0x00, 0x00, 0x00, 0x00, 0x00, 0x00, 0x00, 
0x00, 0x00, 0x00, 0x00, 0x00, 0x00, 0x00, 0x00, 
0x00, 0x00, 0x00, 0x00, 0x00, 0x00, 0x00, 0x00, 
0x00, 0x00, 0x00, 0x00, 0x00, 0x00, 0x00, 0x00, 
0x00, 0x00, 0x00, 0x00, 0x00, 0x00, 0x00, 0x00, 
0x00, 0x00, 0x00, 0x00, 0x00, 0x00, 0x00, 0x00, 
}; 
