#define x_width 64
#define x_height 64
static char x_bits[] = {
0xff, 0xff, 0xff, 0xff, 0xff, 0xff, 0xff, 0xff, 
0xff, 0xff, 0xff, 0xff, 0xff, 0xff, 0xff, 0xff, 
0x03, 0x00, 0x00, 0x00, 0x00, 0x00, 0x00, 0xc0, 
0x03, 0x00, 0x00, 0x00, 0x00, 0x00, 0x00, 0xc0, 
0xf3, 0xff, 0xff, 0xff, 0xff, 0xff, 0xff, 0xcf, 
0x13, 0x00, 0x00, 0x00, 0x00, 0x00, 0x00, 0xc8, 
0x13, 0x00, 0x00, 0x00, 0x00, 0x00, 0x00, 0xc8, 
0x13, 0x00, 0x00, 0x00, 0x00, 0x00, 0x00, 0xc8, 
0x13, 0x00, 0x00, 0x00, 0x00, 0x00, 0x00, 0xc8, 
0x13, 0x00, 0x00, 0x00, 0x00, 0x00, 0x00, 0xc8, 
0x13, 0x00, 0x00, 0x00, 0x00, 0x00, 0x00, 0xc8, 
0x13, 0x00, 0x00, 0x00, 0x00, 0x00, 0x00, 0xc8, 
0x13, 0x00, 0x00, 0x00, 0x00, 0x00, 0x00, 0xc8, 
0x13, 0x00, 0x00, 0x00, 0x00, 0x00, 0x00, 0xc8, 
0x13, 0x00, 0x00, 0x00, 0x00, 0x00, 0x00, 0xc8, 
0x13, 0x00, 0x00, 0x00, 0x00, 0x00, 0x00, 0xc8, 
0x13, 0x00, 0x00, 0x00, 0x00, 0x00, 0x00, 0xc8, 
0x13, 0x00, 0x00, 0x00, 0x00, 0x00, 0x00, 0xc8, 
0x13, 0x00, 0x00, 0x00, 0x00, 0x00, 0x00, 0xc8, 
0x13, 0x00, 0x00, 0xff, 0xff, 0x00, 0x00, 0xc8, 
0x13, 0x00, 0x80, 0x01, 0x80, 0x01, 0x00, 0xc8, 
0x13, 0x00, 0x80, 0x00, 0x00, 0x01, 0x00, 0xc8, 
0x13, 0x00, 0x80, 0x00, 0x00, 0x01, 0x00, 0xc8, 
0x13, 0x00, 0x80, 0x00, 0x00, 0x01, 0x00, 0xc8, 
0x13, 0x00, 0x80, 0x00, 0x00, 0x01, 0x00, 0xc8, 
0x13, 0x00, 0x80, 0x00, 0x00, 0x01, 0x00, 0xc8, 
0x13, 0x00, 0x80, 0x00, 0x00, 0x01, 0x00, 0xc8, 
0x13, 0x00, 0x80, 0x00, 0x00, 0x01, 0x00, 0xc8, 
0x13, 0x00, 0x80, 0x00, 0x00, 0x01, 0x00, 0xc8, 
0x13, 0x00, 0x80, 0x00, 0x00, 0x01, 0x00, 0xc8, 
0x13, 0x00, 0x80, 0x01, 0x80, 0x01, 0x00, 0xc8, 
0x13, 0x00, 0x00, 0xff, 0xff, 0x00, 0x00, 0xc8, 
0x13, 0x00, 0x00, 0x00, 0x00, 0x00, 0x00, 0xc8, 
0x13, 0x00, 0x00, 0x00, 0x00, 0x00, 0x00, 0xc8, 
0x13, 0x00, 0x00, 0x00, 0x00, 0x00, 0x00, 0xc8, 
0x13, 0x00, 0x00, 0x00, 0x00, 0x00, 0x00, 0xc8, 
0x13, 0x00, 0x00, 0x00, 0x00, 0x00, 0x00, 0xc8, 
0x13, 0x00, 0x00, 0x00, 0x00, 0x00, 0x00, 0xc8, 
0x13, 0x00, 0x00, 0x00, 0x00, 0x00, 0x00, 0xc8, 
0x13, 0x00, 0x00, 0x00, 0x00, 0x00, 0x00, 0xc8, 
0x13, 0x00, 0x00, 0x00, 0x00, 0x00, 0x00, 0xc8, 
0x13, 0x00, 0xf0, 0xff, 0xff, 0x0f, 0x00, 0xc8, 
0x13, 0x00, 0x10, 0x00, 0x00, 0x08, 0x00, 0xc8, 
0x13, 0x00, 0x10, 0x00, 0x00, 0x08, 0x00, 0xc8, 
0x13, 0x00, 0xf0, 0xff, 0xff, 0x0f, 0x00, 0xc8, 
0x13, 0x00, 0x00, 0x00, 0x00, 0x00, 0x00, 0xc8, 
0x13, 0x00, 0x00, 0x00, 0x00, 0x00, 0x00, 0xc8, 
0x13, 0x00, 0x00, 0x00, 0x00, 0x00, 0x00, 0xc8, 
0x13, 0x00, 0x00, 0x00, 0x00, 0x00, 0x00, 0xc8, 
0x13, 0x00, 0x00, 0x00, 0x00, 0x00, 0x00, 0xc8, 
0x13, 0x00, 0x00, 0x00, 0x00, 0x00, 0x00, 0xc8, 
0x13, 0x00, 0x00, 0x00, 0x00, 0x00, 0x00, 0xc8, 
0x13, 0x00, 0x00, 0x00, 0x00, 0x00, 0x00, 0xc8, 
0x13, 0x00, 0x00, 0x00, 0x00, 0x00, 0x00, 0xc8, 
0x13, 0x00, 0x00, 0x00, 0x00, 0x00, 0x00, 0xc8, 
0x13, 0x00, 0x00, 0x00, 0x00, 0x00, 0x00, 0xc8, 
0x13, 0x00, 0x00, 0x00, 0x00, 0x00, 0x00, 0xc8, 
0x13, 0x00, 0x00, 0x00, 0x00, 0x00, 0x00, 0xc8, 
0x13, 0x00, 0x00, 0x00, 0x00, 0x00, 0x00, 0xc8, 
0xf3, 0xff, 0xff, 0xff, 0xff, 0xff, 0xff, 0xcf, 
0x03, 0x00, 0x00, 0x00, 0x00, 0x00, 0x00, 0xc0, 
0x03, 0x00, 0x00, 0x00, 0x00, 0x00, 0x00, 0xc0, 
0xff, 0xff, 0xff, 0xff, 0xff, 0xff, 0xff, 0xff, 
0xff, 0xff, 0xff, 0xff, 0xff, 0xff, 0xff, 0xff, 
}; 
