#define x_width 64
#define x_height 64
static char x_bits[] = {
0xff, 0xff, 0xff, 0xff, 0xff, 0xff, 0xff, 0xff, 
0xff, 0xff, 0xff, 0xff, 0xff, 0xff, 0xff, 0xff, 
0xff, 0xff, 0xff, 0x03, 0x00, 0x80, 0xff, 0xff, 
0xff, 0xff, 0xff, 0xfd, 0xff, 0x9f, 0xff, 0xff, 
0xff, 0xff, 0xff, 0xfe, 0xff, 0xaf, 0xff, 0xff, 
0xff, 0xff, 0x7f, 0x00, 0x00, 0xb0, 0xff, 0xff, 
0xff, 0xff, 0x7f, 0xff, 0xff, 0xb7, 0xff, 0xff, 
0xff, 0xff, 0x7f, 0xff, 0xff, 0xb7, 0xff, 0xff, 
0xff, 0xff, 0x7f, 0xff, 0xff, 0xb7, 0xff, 0xff, 
0xff, 0xff, 0x7f, 0xff, 0xf7, 0xb7, 0xff, 0xff, 
0xff, 0xff, 0x7f, 0xff, 0xf3, 0xb7, 0xff, 0xff, 
0xff, 0xff, 0x7f, 0xff, 0xf5, 0xb7, 0xff, 0xff, 
0xff, 0xff, 0x7f, 0xff, 0xf6, 0xb7, 0xff, 0xff, 
0xff, 0xff, 0x7f, 0x7f, 0xf7, 0xb7, 0xff, 0xff, 
0xff, 0xff, 0x7f, 0xbf, 0xf7, 0xb7, 0xff, 0xff, 
0xff, 0xff, 0x7f, 0x1f, 0xc0, 0xb7, 0xff, 0xff, 
0xff, 0xff, 0x7f, 0xff, 0xf7, 0xb7, 0xff, 0xff, 
0xff, 0xff, 0x7f, 0xff, 0xf7, 0xb7, 0xff, 0xff, 
0xff, 0xff, 0x7f, 0xff, 0xf7, 0xb7, 0xff, 0xff, 
0xff, 0xff, 0x7f, 0xff, 0xf7, 0xb7, 0xff, 0xff, 
0xff, 0xff, 0x7f, 0xff, 0xf7, 0xb7, 0xff, 0xff, 
0xff, 0xff, 0x7f, 0xff, 0xff, 0xb7, 0xff, 0xff, 
0xff, 0xff, 0x7f, 0xff, 0xff, 0xd7, 0xff, 0xff, 
0xff, 0xff, 0x7f, 0xff, 0xff, 0xe7, 0xff, 0xff, 
0xff, 0xff, 0x7f, 0x00, 0x00, 0xf0, 0xff, 0xff, 
0xff, 0xff, 0xff, 0xff, 0xff, 0xff, 0xff, 0xff, 
0xff, 0xff, 0xff, 0xff, 0xff, 0xff, 0xff, 0xff, 
0xff, 0xff, 0xff, 0xff, 0xff, 0xff, 0xff, 0xff, 
0xff, 0xff, 0xf3, 0xff, 0xff, 0xff, 0xff, 0xff, 
0xff, 0xff, 0xed, 0xff, 0xff, 0xff, 0xff, 0xff, 
0xff, 0xff, 0xda, 0xff, 0xff, 0xef, 0xff, 0xff, 
0xff, 0x7f, 0xbb, 0xff, 0xff, 0xd7, 0xff, 0xff, 
0xff, 0xbf, 0x7d, 0xff, 0xff, 0xbb, 0xff, 0xff, 
0xff, 0xdf, 0xfd, 0xfe, 0xff, 0x7d, 0xff, 0xff, 
0xff, 0xef, 0xe6, 0xfd, 0xff, 0xfe, 0xfe, 0xff, 
0xff, 0xf7, 0xe6, 0xfb, 0x7f, 0xff, 0xfd, 0xff, 
0xff, 0x6b, 0xfd, 0xf7, 0xbf, 0xff, 0xfb, 0xff, 
0xff, 0xa5, 0xfb, 0xef, 0xdf, 0xff, 0xf7, 0xff, 
0xff, 0xd6, 0xf7, 0xdf, 0xef, 0xff, 0xef, 0xff, 
0xff, 0xee, 0xef, 0xb3, 0xf7, 0xff, 0xdf, 0xff, 
0x7f, 0xf7, 0xdf, 0xb3, 0x9b, 0xcf, 0xb3, 0xff, 
0x7f, 0xfb, 0xbc, 0xdf, 0x9d, 0xcf, 0x73, 0xff, 
0xbf, 0xfd, 0x7c, 0xdf, 0xf9, 0xff, 0x3f, 0xff, 
0xbf, 0xfe, 0xff, 0xee, 0xf6, 0xff, 0x5f, 0xff, 
0x5f, 0xff, 0xff, 0xed, 0xee, 0xff, 0xaf, 0xff, 
0x9f, 0xff, 0xff, 0x73, 0xdf, 0xff, 0xb7, 0xff, 
0xdf, 0xe7, 0xcf, 0x77, 0xbf, 0xff, 0xdb, 0xff, 
0xbf, 0xe7, 0xcf, 0xbb, 0x7f, 0xff, 0xd1, 0xff, 
0x7f, 0xff, 0xff, 0xbd, 0xff, 0xfe, 0xea, 0xff, 
0xff, 0xfe, 0xff, 0x7e, 0xcf, 0x7d, 0xef, 0xff, 
0xff, 0x7d, 0x7e, 0xff, 0xce, 0xbb, 0xf7, 0xff, 
0xff, 0x7b, 0xbe, 0xff, 0xfd, 0xd7, 0xfb, 0xff, 
0xff, 0xf7, 0xdf, 0xff, 0xfb, 0xef, 0xfd, 0xff, 
0xff, 0xef, 0xef, 0xff, 0xf7, 0xaf, 0xfe, 0xff, 
0xff, 0xdf, 0xf7, 0xff, 0xef, 0x17, 0xff, 0xff, 
0xff, 0xbf, 0xfb, 0xff, 0xdf, 0xb7, 0xff, 0xff, 
0xff, 0x7f, 0xfd, 0xff, 0xbf, 0xdb, 0xff, 0xff, 
0xff, 0xff, 0xfe, 0xff, 0x7f, 0xeb, 0xff, 0xff, 
0xff, 0xff, 0xff, 0xff, 0xff, 0xf6, 0xff, 0xff, 
0xff, 0xff, 0xff, 0xff, 0xff, 0xf9, 0xff, 0xff, 
0xff, 0xff, 0xff, 0xff, 0xff, 0xff, 0xff, 0xff, 
0xff, 0xff, 0xff, 0xff, 0xff, 0xff, 0xff, 0xff, 
0xff, 0xff, 0xff, 0xff, 0xff, 0xff, 0xff, 0xff, 
0xff, 0xff, 0xff, 0xff, 0xff, 0xff, 0xff, 0xff, 
}; 
