#define x_width 64
#define x_height 64
static char x_bits[] = {
0xff, 0xff, 0xff, 0xff, 0xff, 0xff, 0xff, 0xff, 
0x01, 0x00, 0x00, 0x00, 0x00, 0x00, 0x00, 0x80, 
0xfd, 0xff, 0xff, 0xff, 0xff, 0xff, 0xff, 0xbf, 
0x05, 0x00, 0x00, 0x00, 0x00, 0x00, 0x00, 0xa0, 
0x05, 0x00, 0x00, 0x00, 0x00, 0x00, 0x00, 0xa0, 
0x05, 0x00, 0x00, 0x00, 0x00, 0x00, 0x00, 0xa0, 
0x05, 0x00, 0x00, 0xf0, 0x1f, 0x00, 0x00, 0xa0, 
0x05, 0x00, 0x00, 0xbf, 0xfb, 0x01, 0x00, 0xa0, 
0x05, 0x00, 0xc0, 0x48, 0x25, 0x06, 0x00, 0xa0, 
0x05, 0x00, 0x30, 0x46, 0xc5, 0x18, 0x00, 0xa0, 
0x05, 0x00, 0x0c, 0x21, 0x09, 0x61, 0x00, 0xa0, 
0x05, 0x00, 0x82, 0x10, 0x11, 0x82, 0x00, 0xa0, 
0x05, 0x00, 0x41, 0x10, 0x11, 0x04, 0x01, 0xa0, 
0x05, 0x80, 0x20, 0x08, 0x21, 0x08, 0x02, 0xa0, 
0x05, 0x40, 0x10, 0x08, 0x21, 0x10, 0x04, 0xa0, 
0x05, 0xe0, 0xff, 0xff, 0xff, 0xff, 0x0f, 0xa0, 
0x05, 0x10, 0x08, 0x04, 0x41, 0x20, 0x10, 0xa0, 
0x05, 0x08, 0x04, 0x04, 0x41, 0x40, 0x20, 0xa0, 
0x05, 0x08, 0x02, 0x02, 0x81, 0x80, 0x20, 0xa0, 
0x05, 0x04, 0x02, 0x02, 0x81, 0x80, 0x40, 0xa0, 
0x05, 0x04, 0x01, 0x02, 0x81, 0x00, 0x41, 0xa0, 
0x05, 0x02, 0x01, 0x01, 0x01, 0x01, 0x81, 0xa0, 
0x05, 0x02, 0x01, 0x01, 0x01, 0x01, 0x81, 0xa0, 
0x05, 0xff, 0xff, 0xff, 0xff, 0xff, 0xff, 0xa1, 
0x05, 0x81, 0x00, 0x01, 0x01, 0x01, 0x02, 0xa1, 
0x05, 0x81, 0x80, 0x00, 0x01, 0x02, 0x02, 0xa1, 
0x05, 0x81, 0x80, 0x00, 0x01, 0x02, 0x02, 0xa1, 
0x85, 0x00, 0x80, 0x00, 0x00, 0x00, 0x04, 0xa2, 
0x85, 0x60, 0x86, 0xc0, 0xc3, 0x03, 0x04, 0xa2, 
0x85, 0x60, 0x06, 0x00, 0x03, 0x03, 0x00, 0xa2, 
0x85, 0x60, 0xc6, 0x03, 0x03, 0xc3, 0x03, 0xa2, 
0x85, 0x67, 0x66, 0x06, 0x03, 0x63, 0xe6, 0xa3, 
0x85, 0xe0, 0x67, 0x06, 0x03, 0x63, 0x06, 0xa2, 
0x85, 0x60, 0xe6, 0x07, 0x03, 0x63, 0x06, 0xa2, 
0x85, 0x60, 0x66, 0x00, 0x03, 0x63, 0x06, 0xa2, 
0x85, 0x60, 0x66, 0x06, 0x03, 0x63, 0x06, 0xa2, 
0x05, 0x61, 0xc6, 0x03, 0x03, 0xc3, 0x03, 0xa1, 
0x05, 0x01, 0x00, 0x00, 0x00, 0x00, 0x00, 0xa1, 
0x05, 0x81, 0x00, 0x01, 0x01, 0x01, 0x02, 0xa1, 
0x05, 0xff, 0xff, 0xff, 0xff, 0xff, 0xff, 0xa1, 
0x05, 0x02, 0x01, 0x01, 0x01, 0x01, 0x81, 0xa0, 
0x05, 0x02, 0x01, 0x01, 0x01, 0x01, 0x81, 0xa0, 
0x05, 0x04, 0x01, 0x02, 0x81, 0x00, 0x41, 0xa0, 
0x05, 0x04, 0x02, 0x02, 0x81, 0x80, 0x40, 0xa0, 
0x05, 0x08, 0x02, 0x02, 0x81, 0x80, 0x20, 0xa0, 
0x05, 0x08, 0x04, 0x04, 0x41, 0x40, 0x20, 0xa0, 
0x05, 0x10, 0x08, 0x04, 0x41, 0x20, 0x10, 0xa0, 
0x05, 0xe0, 0xff, 0xff, 0xff, 0xff, 0x0f, 0xa0, 
0x05, 0x40, 0x10, 0x08, 0x21, 0x10, 0x04, 0xa0, 
0x05, 0x80, 0x20, 0x08, 0x21, 0x08, 0x02, 0xa0, 
0x05, 0x00, 0x41, 0x10, 0x11, 0x04, 0x01, 0xa0, 
0x05, 0x00, 0x82, 0x10, 0x11, 0x82, 0x00, 0xa0, 
0x05, 0x00, 0x0c, 0x21, 0x09, 0x61, 0x00, 0xa0, 
0x05, 0x00, 0x30, 0x46, 0xc5, 0x18, 0x00, 0xa0, 
0x05, 0x00, 0xc0, 0x48, 0x25, 0x06, 0x00, 0xa0, 
0x05, 0x00, 0x00, 0xbf, 0xfb, 0x01, 0x00, 0xa0, 
0x05, 0x00, 0x00, 0xf0, 0x1f, 0x00, 0x00, 0xa0, 
0x05, 0x00, 0x00, 0x00, 0x00, 0x00, 0x00, 0xa0, 
0x05, 0x00, 0x00, 0x00, 0x00, 0x00, 0x00, 0xa0, 
0x05, 0x00, 0x00, 0x00, 0x00, 0x00, 0x00, 0xa0, 
0x05, 0x00, 0x00, 0x00, 0x00, 0x00, 0x00, 0xa0, 
0xfd, 0xff, 0xff, 0xff, 0xff, 0xff, 0xff, 0xbf, 
0x01, 0x00, 0x00, 0x00, 0x00, 0x00, 0x00, 0x80, 
0xff, 0xff, 0xff, 0xff, 0xff, 0xff, 0xff, 0xff, 
}; 
