#define x_width 64
#define x_height 64
static char x_bits[] = {
0x00, 0x00, 0x00, 0x00, 0x00, 0x00, 0x00, 0x00, 
0x00, 0x00, 0x00, 0xe0, 0x07, 0x00, 0x00, 0x00, 
0x00, 0x00, 0x00, 0x18, 0x18, 0x00, 0x00, 0x00, 
0x00, 0x00, 0x00, 0x06, 0xe0, 0x00, 0x00, 0x00, 
0x00, 0x00, 0x00, 0x03, 0x80, 0x01, 0x00, 0x00, 
0x00, 0x00, 0x80, 0x00, 0x00, 0x03, 0x00, 0x00, 
0x00, 0x00, 0x40, 0xf8, 0x0f, 0x04, 0x00, 0x00, 
0x00, 0x00, 0xb0, 0x07, 0xf0, 0x18, 0x00, 0x00, 
0x00, 0x00, 0x78, 0x00, 0x00, 0x33, 0x00, 0x00, 
0x00, 0x00, 0x1e, 0x00, 0x00, 0x6c, 0x00, 0x00, 
0x00, 0x80, 0x05, 0x00, 0x00, 0xb0, 0x00, 0x00, 
0x00, 0xc0, 0x03, 0x00, 0x00, 0xc0, 0x01, 0x00, 
0x00, 0xe0, 0x07, 0x00, 0x00, 0xe0, 0x03, 0x00, 
0x00, 0xf0, 0x0f, 0x20, 0x02, 0xf0, 0x07, 0x00, 
0x00, 0xf8, 0x1f, 0x84, 0x48, 0xf8, 0x0f, 0x00, 
0x00, 0xfc, 0x3f, 0x50, 0x95, 0xfc, 0x1f, 0x00, 
0x00, 0xfc, 0x7f, 0xaa, 0x2a, 0xfe, 0x3f, 0x00, 
0x00, 0xfe, 0xff, 0x55, 0x55, 0xff, 0x3f, 0x00, 
0x00, 0xf2, 0xff, 0xfb, 0xaf, 0xff, 0x7f, 0x00, 
0x00, 0xe3, 0xff, 0x0f, 0xf8, 0xff, 0x67, 0x00, 
0x00, 0xc3, 0xff, 0x03, 0xe0, 0xff, 0xa3, 0x00, 
0x00, 0x81, 0xff, 0x01, 0xc0, 0xff, 0xc1, 0x00, 
0x80, 0x01, 0xff, 0x00, 0x80, 0xff, 0x40, 0x03, 
0x80, 0x00, 0x7e, 0x00, 0x00, 0x7f, 0x80, 0x04, 
0xc0, 0x00, 0x3d, 0x00, 0x00, 0x3e, 0x80, 0x04, 
0xa0, 0x00, 0x1a, 0x00, 0x00, 0x5c, 0x80, 0x18, 
0xa0, 0x00, 0x0c, 0x00, 0x00, 0x28, 0x80, 0x10, 
0x50, 0x00, 0x0a, 0x00, 0x00, 0x58, 0x00, 0x11, 
0x48, 0x00, 0x04, 0x00, 0x00, 0x30, 0x00, 0x21, 
0x48, 0x00, 0x06, 0x00, 0x00, 0x50, 0x00, 0x21, 
0x4c, 0x00, 0x04, 0x00, 0x00, 0x30, 0x00, 0x21, 
0x44, 0x00, 0x04, 0x00, 0x00, 0x10, 0x00, 0x21, 
0x44, 0x00, 0x04, 0x00, 0x00, 0x10, 0x00, 0x21, 
0x44, 0x00, 0x04, 0x00, 0x00, 0x10, 0x00, 0x21, 
0x44, 0x00, 0x04, 0x00, 0x00, 0x10, 0x00, 0x21, 
0x44, 0x00, 0x08, 0x00, 0x00, 0x08, 0x00, 0x11, 
0x84, 0x00, 0x08, 0x00, 0x00, 0x08, 0x80, 0x10, 
0x88, 0x00, 0x18, 0x00, 0x00, 0x0c, 0x80, 0x10, 
0x88, 0x00, 0x38, 0x00, 0x00, 0x1e, 0x80, 0x08, 
0x88, 0x00, 0x7c, 0x00, 0x00, 0x3f, 0x80, 0x08, 
0x30, 0x01, 0xfe, 0x00, 0x80, 0x7f, 0x40, 0x04, 
0x20, 0x01, 0xff, 0x01, 0xc0, 0xff, 0x40, 0x03, 
0xc0, 0x82, 0xff, 0x03, 0xe0, 0xff, 0x21, 0x01, 
0x80, 0xc3, 0xff, 0x0f, 0xf8, 0xff, 0xd3, 0x00, 
0x00, 0xe7, 0xff, 0xfb, 0xc7, 0xff, 0x77, 0x00, 
0x00, 0xf6, 0xff, 0x01, 0x80, 0xff, 0x2f, 0x00, 
0x00, 0xfc, 0xff, 0x00, 0x00, 0xff, 0x1f, 0x00, 
0x00, 0xfc, 0x7f, 0x00, 0x00, 0xfe, 0x1f, 0x00, 
0x00, 0xf8, 0x3f, 0x00, 0x00, 0xfc, 0x0f, 0x00, 
0x00, 0xf0, 0x1f, 0x00, 0x00, 0xf8, 0x07, 0x00, 
0x00, 0xe0, 0x0f, 0x00, 0x00, 0xf0, 0x03, 0x00, 
0x00, 0xc0, 0x47, 0x00, 0x80, 0xf4, 0x01, 0x00, 
0x00, 0x80, 0x17, 0x12, 0x21, 0xda, 0x00, 0x00, 
0x00, 0x00, 0x5f, 0x45, 0x54, 0x7d, 0x00, 0x00, 
0x00, 0x00, 0xe8, 0xaa, 0xaa, 0x1b, 0x00, 0x00, 
0x00, 0x00, 0xb0, 0x57, 0xf5, 0x06, 0x00, 0x00, 
0x00, 0x00, 0x60, 0xf8, 0x0f, 0x01, 0x00, 0x00, 
0x00, 0x00, 0xc0, 0x00, 0x80, 0x00, 0x00, 0x00, 
0x00, 0x00, 0x00, 0x01, 0x40, 0x00, 0x00, 0x00, 
0x00, 0x00, 0x00, 0x06, 0x38, 0x00, 0x00, 0x00, 
0x00, 0x00, 0x00, 0x38, 0x06, 0x00, 0x00, 0x00, 
0x00, 0x00, 0x00, 0xc0, 0x01, 0x00, 0x00, 0x00, 
0x00, 0x00, 0x00, 0x00, 0x00, 0x00, 0x00, 0x00, 
0x00, 0x00, 0x00, 0x00, 0x00, 0x00, 0x00, 0x00, 
}; 
