#define x_width 64
#define x_height 64
static char x_bits[] = {
0xff, 0xff, 0xff, 0xff, 0xff, 0xff, 0xff, 0xff, 
0xff, 0xff, 0xff, 0xff, 0xff, 0xff, 0xff, 0xff, 
0x03, 0x00, 0x00, 0x00, 0x00, 0x00, 0x00, 0xc0, 
0x03, 0x00, 0x00, 0x00, 0x00, 0x00, 0x00, 0xc0, 
0x03, 0x06, 0x00, 0x38, 0x00, 0x00, 0x00, 0xc0, 
0x03, 0x06, 0x00, 0x30, 0x00, 0x00, 0x40, 0xc0, 
0x03, 0x00, 0x00, 0x30, 0x00, 0x00, 0x40, 0xc0, 
0x03, 0x87, 0x1f, 0x3c, 0x38, 0xfc, 0xf8, 0xc3, 
0x03, 0x06, 0x33, 0x32, 0x4c, 0x98, 0x61, 0xc0, 
0x03, 0x06, 0x33, 0x33, 0xc6, 0x98, 0x61, 0xc0, 
0x03, 0x06, 0x33, 0x33, 0xfe, 0x98, 0x61, 0xc0, 
0x03, 0x06, 0x33, 0x33, 0x06, 0x98, 0x61, 0xc2, 
0x03, 0x06, 0x33, 0x33, 0x06, 0x98, 0x61, 0xc2, 
0x03, 0x06, 0x33, 0x32, 0x8c, 0x98, 0x61, 0xc2, 
0x03, 0x8f, 0x7f, 0x7c, 0x78, 0xfc, 0xc3, 0xc1, 
0x03, 0x00, 0x00, 0x00, 0x00, 0x00, 0x00, 0xc0, 
0x03, 0x00, 0x00, 0x00, 0x00, 0x00, 0x00, 0xc0, 
0x03, 0x00, 0x00, 0x00, 0x00, 0x00, 0x00, 0xc0, 
0x03, 0x00, 0x00, 0x00, 0x00, 0x00, 0x00, 0xc0, 
0x03, 0x0c, 0x00, 0x00, 0x00, 0x00, 0x00, 0xc0, 
0x03, 0x00, 0x00, 0x00, 0x00, 0x80, 0xff, 0xcf, 
0x03, 0x00, 0x00, 0x00, 0x00, 0x00, 0x00, 0xc0, 
0x13, 0xc0, 0x00, 0x00, 0x00, 0x00, 0x00, 0xc0, 
0x03, 0xc0, 0x00, 0x00, 0x00, 0xf0, 0xff, 0xcf, 
0x03, 0x00, 0x00, 0x00, 0x00, 0x00, 0x00, 0xc0, 
0x03, 0x00, 0x00, 0x00, 0x00, 0x00, 0x00, 0xc0, 
0x03, 0x04, 0x00, 0x00, 0x00, 0xf0, 0xff, 0xcf, 
0x03, 0x24, 0x0c, 0x80, 0x01, 0x00, 0x00, 0xc0, 
0x03, 0x00, 0x00, 0x00, 0x03, 0x00, 0x00, 0xc0, 
0x03, 0x01, 0x00, 0x00, 0x06, 0xf0, 0xff, 0xcf, 
0x03, 0x01, 0x80, 0xff, 0x0d, 0x00, 0x00, 0xc0, 
0x03, 0x01, 0x80, 0xff, 0x19, 0x00, 0x00, 0xc0, 
0x03, 0x00, 0x00, 0x00, 0x30, 0x00, 0x00, 0xc0, 
0x03, 0x00, 0x80, 0xff, 0x19, 0x00, 0x00, 0xc0, 
0x03, 0x00, 0x80, 0xff, 0x0d, 0x80, 0xff, 0xcf, 
0x03, 0x20, 0x00, 0x00, 0x06, 0x00, 0x00, 0xc0, 
0x03, 0x20, 0x00, 0x00, 0x03, 0x00, 0x00, 0xc0, 
0x03, 0x20, 0x00, 0x80, 0x01, 0xf0, 0xff, 0xcf, 
0x03, 0x00, 0x00, 0x00, 0x00, 0x00, 0x00, 0xc0, 
0x03, 0x04, 0x00, 0x00, 0x00, 0x00, 0x00, 0xc0, 
0x03, 0x00, 0x00, 0x00, 0x00, 0xf0, 0xff, 0xcf, 
0x03, 0x00, 0x00, 0x00, 0x00, 0x00, 0x00, 0xc0, 
0x03, 0x04, 0x00, 0x00, 0x00, 0x00, 0x00, 0xc0, 
0x03, 0x00, 0x00, 0x00, 0x00, 0xf0, 0xff, 0xcf, 
0x83, 0x00, 0x00, 0x00, 0x00, 0x00, 0x00, 0xc0, 
0x03, 0x00, 0x00, 0x00, 0x00, 0x00, 0x00, 0xc0, 
0x03, 0x00, 0x00, 0x00, 0x00, 0x00, 0x00, 0xc0, 
0x03, 0x00, 0x00, 0x00, 0x00, 0x00, 0x00, 0xc0, 
0x03, 0x00, 0x08, 0x00, 0x00, 0xe0, 0x00, 0xc0, 
0x03, 0x00, 0x08, 0x00, 0x00, 0xc0, 0x00, 0xc0, 
0x03, 0x00, 0x7f, 0x30, 0x60, 0xc0, 0x00, 0xc0, 
0x03, 0x00, 0x0c, 0x48, 0x90, 0xc0, 0x00, 0xc0, 
0x03, 0x00, 0x0c, 0xcc, 0x98, 0xc1, 0x00, 0xc0, 
0x03, 0x00, 0x0c, 0xcc, 0x98, 0xc1, 0x00, 0xc0, 
0x03, 0x00, 0x4c, 0xcc, 0x98, 0xc1, 0x00, 0xc0, 
0x03, 0x00, 0x4c, 0xcc, 0x98, 0xc1, 0x00, 0xc0, 
0x03, 0x00, 0x4c, 0x48, 0x90, 0xc0, 0x00, 0xc0, 
0x03, 0x00, 0x38, 0x30, 0x60, 0xe0, 0x01, 0xc0, 
0x03, 0x00, 0x00, 0x00, 0x00, 0x00, 0x00, 0xc0, 
0x03, 0x00, 0x00, 0x00, 0x00, 0x00, 0x00, 0xc0, 
0x03, 0x00, 0x00, 0x00, 0x00, 0x00, 0x00, 0xc0, 
0x03, 0x00, 0x00, 0x00, 0x00, 0x00, 0x00, 0xc0, 
0xff, 0xff, 0xff, 0xff, 0xff, 0xff, 0xff, 0xff, 
0xff, 0xff, 0xff, 0xff, 0xff, 0xff, 0xff, 0xff, 
}; 
