#define x_width 64
#define x_height 64
static char x_bits[] = {
0x00, 0x00, 0x00, 0x00, 0x00, 0x00, 0x00, 0x00, 
0x00, 0x00, 0x00, 0x00, 0x00, 0x00, 0x00, 0x00, 
0x02, 0x1e, 0x3e, 0x00, 0x7f, 0x3c, 0x3c, 0x02, 
0x02, 0x22, 0x42, 0x00, 0x08, 0x42, 0x42, 0x02, 
0x02, 0x42, 0x42, 0x00, 0x08, 0x42, 0x42, 0x02, 
0x02, 0x42, 0x42, 0x00, 0x08, 0x42, 0x42, 0x02, 
0x02, 0x42, 0x42, 0x00, 0x08, 0x42, 0x42, 0x02, 
0x02, 0x42, 0x3e, 0x00, 0x08, 0x42, 0x42, 0x02, 
0x02, 0x42, 0x02, 0x00, 0x08, 0x42, 0x42, 0x02, 
0x02, 0x42, 0x02, 0x00, 0x08, 0x42, 0x42, 0x02, 
0x02, 0x22, 0x02, 0x00, 0x08, 0x42, 0x42, 0x02, 
0x7e, 0x1e, 0x02, 0x00, 0x08, 0x3c, 0x3c, 0x7e, 
0x00, 0x00, 0x00, 0x00, 0x00, 0x00, 0x00, 0x00, 
0x00, 0x00, 0x00, 0x00, 0x00, 0x00, 0x00, 0x00, 
0x00, 0x00, 0x00, 0x00, 0x00, 0x00, 0x00, 0x00, 
0x00, 0x00, 0x00, 0x00, 0x00, 0x00, 0x00, 0x00, 
0xff, 0xff, 0xff, 0xff, 0xff, 0xff, 0xff, 0xff, 
0xff, 0xff, 0xff, 0xff, 0xff, 0xff, 0xff, 0xff, 
0xff, 0xff, 0xff, 0xff, 0xff, 0xff, 0xff, 0xff, 
0xff, 0xff, 0xff, 0xff, 0xff, 0xff, 0xff, 0xff, 
0xff, 0xff, 0xff, 0xff, 0xff, 0xff, 0xff, 0xff, 
0xff, 0xff, 0xff, 0xff, 0xff, 0xff, 0xff, 0xff, 
0xff, 0xff, 0xff, 0xff, 0xff, 0xff, 0xff, 0xff, 
0xff, 0xff, 0xff, 0x47, 0xf4, 0xff, 0xff, 0xff, 
0xff, 0xff, 0xff, 0x11, 0x91, 0xff, 0xff, 0xff, 
0xff, 0xff, 0x3f, 0x11, 0x11, 0xff, 0xff, 0xff, 
0xff, 0xff, 0x5f, 0x44, 0x44, 0xfc, 0xff, 0xff, 
0xff, 0xff, 0x4f, 0x44, 0x44, 0xfc, 0xff, 0xff, 
0xff, 0xff, 0x17, 0x11, 0x11, 0xf1, 0xff, 0xff, 
0xff, 0xff, 0x13, 0x11, 0x11, 0xf1, 0xff, 0xff, 
0xff, 0xff, 0x45, 0x44, 0x44, 0xc4, 0xff, 0xff, 
0xff, 0xff, 0x44, 0x44, 0x44, 0xc4, 0xff, 0xff, 
0xff, 0x7f, 0x11, 0x11, 0x11, 0x11, 0xff, 0xff, 
0xff, 0x7f, 0x11, 0x11, 0x11, 0x11, 0xff, 0xff, 
0xff, 0x7f, 0x44, 0x44, 0x44, 0x44, 0xfe, 0xff, 
0xff, 0x7f, 0x44, 0x44, 0x44, 0x44, 0xfe, 0xff, 
0xff, 0x3f, 0x11, 0x11, 0x10, 0x11, 0xff, 0xff, 
0xff, 0x1f, 0x11, 0x01, 0x10, 0x11, 0xfd, 0xff, 
0xff, 0x5f, 0x44, 0x04, 0x40, 0x44, 0xfc, 0xff, 
0xff, 0x5f, 0x44, 0x00, 0x40, 0x44, 0xfc, 0xff, 
0xff, 0x1f, 0x11, 0x01, 0x00, 0x11, 0xfd, 0xff, 
0xff, 0x1f, 0x11, 0x01, 0x00, 0x11, 0xfd, 0xff, 
0xff, 0x5f, 0x44, 0x00, 0x40, 0x44, 0xfc, 0xff, 
0xff, 0x5f, 0x44, 0x00, 0x40, 0x44, 0xfc, 0xff, 
0xff, 0x1f, 0x11, 0x01, 0x10, 0x11, 0xfd, 0xff, 
0xff, 0x1f, 0x11, 0x01, 0x10, 0x11, 0xfd, 0xff, 
0xff, 0x7f, 0x44, 0x04, 0x44, 0x44, 0xfe, 0xff, 
0xff, 0x7f, 0x44, 0x44, 0x44, 0x44, 0xfe, 0xff, 
0xff, 0x3f, 0x11, 0x11, 0x11, 0x11, 0xff, 0xff, 
0xff, 0x7f, 0x11, 0x11, 0x11, 0x11, 0xff, 0xff, 
0xff, 0x7f, 0x44, 0x44, 0x44, 0x44, 0xff, 0xff, 
0xff, 0xff, 0x44, 0x44, 0x44, 0xc4, 0xff, 0xff, 
0xff, 0xff, 0x11, 0x11, 0x11, 0xd1, 0xff, 0xff, 
0xff, 0xff, 0x13, 0x11, 0x11, 0xf1, 0xff, 0xff, 
0xff, 0xff, 0x47, 0x44, 0x44, 0xf4, 0xff, 0xff, 
0xff, 0xff, 0x4f, 0x44, 0x44, 0xfc, 0xff, 0xff, 
0xff, 0xff, 0x1f, 0x11, 0x11, 0xfd, 0xff, 0xff, 
0xff, 0xff, 0x3f, 0x11, 0x11, 0xff, 0xff, 0xff, 
0xff, 0xff, 0xff, 0x44, 0xc4, 0xff, 0xff, 0xff, 
0xff, 0xff, 0xff, 0x47, 0xf4, 0xff, 0xff, 0xff, 
0xff, 0xff, 0xff, 0xff, 0xff, 0xff, 0xff, 0xff, 
0xff, 0xff, 0xff, 0xff, 0xff, 0xff, 0xff, 0xff, 
0xff, 0xff, 0xff, 0xff, 0xff, 0xff, 0xff, 0xff, 
0xff, 0xff, 0xff, 0xff, 0xff, 0xff, 0xff, 0xff, 
}; 
