#define x_width 48
#define x_height 27
static char x_bits[] = {
0x00, 0x00, 0x00, 0x00, 0x00, 0x00, 
0x00, 0x00, 0x00, 0x00, 0x00, 0x00, 
0xfe, 0xff, 0xff, 0xff, 0xff, 0x1f, 
0x02, 0x00, 0x00, 0x00, 0x50, 0x0d, 
0xfa, 0x03, 0x00, 0x00, 0x10, 0x19, 
0x02, 0x00, 0x00, 0x00, 0xd0, 0x0e, 
0xfa, 0x01, 0x00, 0x00, 0x10, 0x19, 
0x02, 0x00, 0x00, 0x00, 0xd0, 0x0d, 
0xfa, 0x07, 0x00, 0x00, 0x10, 0x18, 
0x02, 0x00, 0x00, 0x00, 0xf0, 0x0f, 
0x02, 0x00, 0x00, 0x00, 0x00, 0x18, 
0x02, 0x00, 0x00, 0x00, 0x00, 0x08, 
0x02, 0x00, 0x00, 0x00, 0x00, 0x18, 
0x02, 0x00, 0xf7, 0x7f, 0x00, 0x08, 
0x02, 0x00, 0x00, 0x00, 0x00, 0x18, 
0x02, 0x00, 0xe7, 0x0d, 0x00, 0x08, 
0x02, 0x00, 0x00, 0x00, 0x00, 0x18, 
0x02, 0x00, 0xdf, 0x1f, 0x00, 0x08, 
0x02, 0x00, 0x00, 0x00, 0x00, 0x18, 
0x02, 0x00, 0x00, 0x00, 0x00, 0x08, 
0x02, 0x00, 0x00, 0x00, 0x00, 0x18, 
0x02, 0x00, 0x00, 0x00, 0x00, 0x08, 
0x02, 0x00, 0x00, 0x00, 0x00, 0x18, 
0x02, 0x00, 0x00, 0x00, 0x00, 0x08, 
0x02, 0x00, 0x00, 0x00, 0x00, 0x18, 
0xfe, 0xff, 0xff, 0xff, 0xff, 0x0f, 
0x54, 0x55, 0x55, 0x55, 0x55, 0x15, 
}; 
