#define x_width 64
#define x_height 64
static char x_bits[] = {
0xff, 0xff, 0xff, 0xff, 0xff, 0xff, 0xff, 0xff, 
0x01, 0x00, 0x00, 0x00, 0x00, 0x00, 0x00, 0x80, 
0x01, 0x00, 0x00, 0x00, 0x00, 0x00, 0x00, 0x80, 
0x01, 0x00, 0x00, 0x00, 0x00, 0x00, 0x00, 0x80, 
0x01, 0x00, 0x00, 0x00, 0x00, 0x00, 0x00, 0x80, 
0x01, 0x00, 0x00, 0x00, 0x00, 0x00, 0x00, 0x80, 
0x01, 0x00, 0x00, 0x00, 0x00, 0x00, 0x00, 0x80, 
0x01, 0x00, 0x00, 0x00, 0x00, 0x00, 0x00, 0x80, 
0x01, 0x00, 0x00, 0x00, 0x00, 0x00, 0x00, 0x80, 
0x01, 0x00, 0x00, 0x00, 0x00, 0x00, 0x00, 0x80, 
0x01, 0x00, 0x00, 0xc0, 0x03, 0x00, 0x00, 0x80, 
0x01, 0x00, 0x00, 0xf0, 0x0f, 0x00, 0x00, 0x80, 
0x01, 0x00, 0x00, 0xf8, 0x1f, 0x00, 0x00, 0x80, 
0x01, 0x00, 0x00, 0xf8, 0x1f, 0x00, 0x00, 0x80, 
0x01, 0x00, 0x00, 0xfc, 0x3f, 0x00, 0x00, 0x80, 
0x01, 0x00, 0x00, 0xfc, 0x3f, 0x00, 0x00, 0x80, 
0x01, 0x00, 0x00, 0xfc, 0x3f, 0x00, 0x00, 0x80, 
0x01, 0x00, 0x00, 0xfc, 0x3f, 0x00, 0x00, 0x80, 
0x01, 0x00, 0x00, 0xf8, 0x1f, 0x00, 0x00, 0x80, 
0x01, 0x00, 0x00, 0xf8, 0x1f, 0x00, 0x00, 0x80, 
0x01, 0x00, 0x00, 0xf0, 0x0f, 0x00, 0x00, 0x80, 
0x01, 0x00, 0x00, 0xc0, 0x03, 0x00, 0x00, 0x80, 
0x01, 0x00, 0x00, 0x00, 0x00, 0x00, 0x00, 0x80, 
0x01, 0x00, 0x00, 0x00, 0x00, 0x00, 0x00, 0x80, 
0x01, 0x00, 0x00, 0x00, 0x00, 0x00, 0x00, 0x80, 
0x01, 0x00, 0x00, 0x00, 0x00, 0x00, 0x00, 0x80, 
0x01, 0x00, 0x00, 0x00, 0x00, 0xc0, 0x03, 0x80, 
0x01, 0x00, 0x00, 0x00, 0x00, 0xf0, 0x0f, 0x80, 
0x01, 0x00, 0x00, 0x00, 0x00, 0xf8, 0x1f, 0x80, 
0x01, 0x00, 0x00, 0x00, 0x00, 0xf8, 0x1f, 0x80, 
0x01, 0x00, 0x00, 0x00, 0x00, 0xfc, 0x3f, 0x80, 
0x01, 0x00, 0x00, 0x00, 0x00, 0xfc, 0x3f, 0x80, 
0x01, 0x00, 0x00, 0x00, 0x00, 0xfc, 0x3f, 0x80, 
0x01, 0x00, 0x00, 0x00, 0x00, 0xfc, 0x3f, 0x80, 
0x01, 0x00, 0x00, 0x00, 0x00, 0xf8, 0x1f, 0x80, 
0x01, 0x00, 0x00, 0x00, 0x00, 0xf8, 0x1f, 0x80, 
0x01, 0x00, 0x00, 0x00, 0x00, 0xf0, 0x0f, 0x80, 
0x01, 0x00, 0x00, 0x00, 0x00, 0xc0, 0x03, 0x80, 
0x01, 0x00, 0x00, 0x00, 0x00, 0x00, 0x00, 0x80, 
0x01, 0x00, 0x00, 0x00, 0x00, 0x00, 0x00, 0x80, 
0x01, 0x00, 0x00, 0x00, 0x00, 0x00, 0x00, 0x80, 
0x01, 0x00, 0x00, 0x00, 0x00, 0x00, 0x00, 0x80, 
0x01, 0xc0, 0x03, 0xc0, 0x03, 0xc0, 0x03, 0x80, 
0x01, 0xf0, 0x0f, 0xf0, 0x0f, 0xf0, 0x0f, 0x80, 
0x01, 0xf8, 0x1f, 0xf8, 0x1f, 0xf8, 0x1f, 0x80, 
0x01, 0xf8, 0x1f, 0xf8, 0x1f, 0xf8, 0x1f, 0x80, 
0x01, 0xfc, 0x3f, 0xfc, 0x3f, 0xfc, 0x3f, 0x80, 
0x01, 0xfc, 0x3f, 0xfc, 0x3f, 0xfc, 0x3f, 0x80, 
0x01, 0xfc, 0x3f, 0xfc, 0x3f, 0xfc, 0x3f, 0x80, 
0x01, 0xfc, 0x3f, 0xfc, 0x3f, 0xfc, 0x3f, 0x80, 
0x01, 0xf8, 0x1f, 0xf8, 0x1f, 0xf8, 0x1f, 0x80, 
0x01, 0xf8, 0x1f, 0xf8, 0x1f, 0xf8, 0x1f, 0x80, 
0x01, 0xf0, 0x0f, 0xf0, 0x0f, 0xf0, 0x0f, 0x80, 
0x01, 0xc0, 0x03, 0xc0, 0x03, 0xc0, 0x03, 0x80, 
0x01, 0x00, 0x00, 0x00, 0x00, 0x00, 0x00, 0x80, 
0x01, 0x00, 0x00, 0x00, 0x00, 0x00, 0x00, 0x80, 
0x01, 0x00, 0x00, 0x00, 0x00, 0x00, 0x00, 0x80, 
0x01, 0x00, 0x00, 0x00, 0x00, 0x00, 0x00, 0x80, 
0x01, 0x00, 0x00, 0x00, 0x00, 0x00, 0x00, 0x80, 
0x01, 0x00, 0x00, 0x00, 0x00, 0x00, 0x00, 0x80, 
0x01, 0x00, 0x00, 0x00, 0x00, 0x00, 0x00, 0x80, 
0x01, 0x00, 0x00, 0x00, 0x00, 0x00, 0x00, 0x80, 
0x01, 0x00, 0x00, 0x00, 0x00, 0x00, 0x00, 0x80, 
0xff, 0xff, 0xff, 0xff, 0xff, 0xff, 0xff, 0xff, 
}; 
