#define x_width 64
#define x_height 64
static char x_bits[] = {
0xff, 0xff, 0xff, 0xff, 0xff, 0xff, 0xff, 0xff, 
0x01, 0x00, 0x00, 0x00, 0x00, 0x00, 0x00, 0x80, 
0x01, 0x00, 0x00, 0x00, 0x00, 0x00, 0x00, 0x80, 
0x01, 0x00, 0x00, 0x00, 0x00, 0x00, 0x00, 0x80, 
0x01, 0x00, 0x00, 0x00, 0x00, 0x00, 0x00, 0x80, 
0x01, 0x00, 0x00, 0x00, 0x00, 0x00, 0x00, 0x80, 
0x01, 0x00, 0x00, 0x00, 0x00, 0x00, 0x00, 0x80, 
0x01, 0x00, 0x00, 0x00, 0x00, 0x00, 0x00, 0x80, 
0x01, 0x00, 0x00, 0x00, 0x00, 0x00, 0x00, 0x80, 
0x01, 0x00, 0x00, 0x00, 0x00, 0x00, 0x00, 0x80, 
0x01, 0x00, 0x00, 0x00, 0x00, 0x0c, 0x00, 0x80, 
0x01, 0x00, 0x00, 0x00, 0x00, 0x0c, 0x00, 0x80, 
0x01, 0x00, 0x00, 0x00, 0x00, 0x00, 0x00, 0x80, 
0x01, 0x00, 0x00, 0x00, 0x00, 0x00, 0x00, 0x80, 
0x01, 0x00, 0x00, 0x00, 0x00, 0x0c, 0x0c, 0x80, 
0x01, 0x00, 0x00, 0x00, 0x00, 0x0c, 0x0c, 0x80, 
0x01, 0x00, 0x00, 0x00, 0x00, 0x00, 0x00, 0x80, 
0x01, 0x00, 0x00, 0x00, 0x00, 0x00, 0x00, 0x80, 
0x01, 0x00, 0x00, 0x00, 0x00, 0xcc, 0x00, 0x80, 
0x01, 0x00, 0x00, 0x00, 0x00, 0xcc, 0x00, 0x80, 
0x01, 0x00, 0x00, 0x00, 0x00, 0x00, 0x00, 0x80, 
0x01, 0x00, 0x00, 0x00, 0x00, 0x00, 0x00, 0x80, 
0x01, 0x00, 0x00, 0x00, 0x00, 0x00, 0x00, 0x80, 
0x01, 0x00, 0x00, 0x00, 0x00, 0x00, 0x00, 0x80, 
0x01, 0x00, 0x00, 0x00, 0x00, 0x00, 0x00, 0x80, 
0x01, 0x00, 0x00, 0x00, 0x00, 0x00, 0x00, 0x80, 
0x01, 0x00, 0x00, 0x0c, 0x00, 0x00, 0x00, 0x80, 
0x01, 0x00, 0x00, 0x0c, 0x00, 0x00, 0x00, 0x80, 
0x01, 0x00, 0x00, 0x00, 0x00, 0x00, 0x00, 0x80, 
0x01, 0x00, 0x00, 0x00, 0x00, 0x00, 0x00, 0x80, 
0x01, 0x00, 0xc0, 0x00, 0x00, 0x00, 0x00, 0x80, 
0x01, 0x00, 0xc0, 0x00, 0x00, 0x00, 0x00, 0x80, 
0x01, 0x00, 0x00, 0x00, 0x00, 0x00, 0x00, 0x80, 
0x01, 0x00, 0x00, 0x00, 0x00, 0x00, 0x00, 0x80, 
0x01, 0x00, 0xc0, 0xcc, 0x00, 0x00, 0x00, 0x80, 
0x01, 0x00, 0xc0, 0xcc, 0x00, 0x00, 0x00, 0x80, 
0x01, 0x00, 0x00, 0x00, 0x00, 0x00, 0x00, 0x80, 
0x01, 0x00, 0x00, 0x00, 0x00, 0x00, 0x00, 0x80, 
0x01, 0x00, 0x00, 0x00, 0x00, 0x00, 0x00, 0x80, 
0x01, 0x00, 0x00, 0x00, 0x00, 0x00, 0x00, 0x80, 
0x01, 0x00, 0x00, 0x00, 0x00, 0x00, 0x00, 0x80, 
0x01, 0x00, 0x00, 0x00, 0x00, 0x00, 0x00, 0x80, 
0x01, 0x00, 0x00, 0x00, 0x00, 0x00, 0x00, 0x80, 
0x01, 0x00, 0x00, 0x00, 0x00, 0x00, 0x00, 0x80, 
0x01, 0x00, 0x00, 0x00, 0x00, 0x00, 0x00, 0x80, 
0x01, 0x00, 0x00, 0x00, 0x00, 0x00, 0x00, 0x80, 
0xc1, 0x00, 0x00, 0x00, 0x00, 0x00, 0x00, 0x80, 
0xc1, 0x00, 0x00, 0x00, 0x00, 0x00, 0x00, 0x80, 
0x01, 0x00, 0x00, 0x00, 0x00, 0x00, 0x00, 0x80, 
0x01, 0x00, 0x00, 0x00, 0x00, 0x00, 0x00, 0x80, 
0xc1, 0xc0, 0x00, 0x00, 0x00, 0x00, 0x00, 0x80, 
0xc1, 0xc0, 0x00, 0x00, 0x00, 0x00, 0x00, 0x80, 
0x01, 0x00, 0x00, 0x00, 0x00, 0x00, 0x00, 0x80, 
0x01, 0x00, 0x00, 0x00, 0x00, 0x00, 0x00, 0x80, 
0xc1, 0x0c, 0x00, 0x00, 0x00, 0x00, 0x00, 0x80, 
0xc1, 0x0c, 0x00, 0x00, 0x00, 0x00, 0x00, 0x80, 
0x01, 0x00, 0x00, 0x00, 0x00, 0x00, 0x00, 0x80, 
0x01, 0x00, 0x00, 0x00, 0x00, 0x00, 0x00, 0x80, 
0x01, 0x00, 0x00, 0x00, 0x00, 0x00, 0x00, 0x80, 
0x01, 0x00, 0x00, 0x00, 0x00, 0x00, 0x00, 0x80, 
0x01, 0x00, 0x00, 0x00, 0x00, 0x00, 0x00, 0x80, 
0x01, 0x00, 0x00, 0x00, 0x00, 0x00, 0x00, 0x80, 
0x01, 0x00, 0x00, 0x00, 0x00, 0x00, 0x00, 0x80, 
0xff, 0xff, 0xff, 0xff, 0xff, 0xff, 0xff, 0xff, 
}; 
