#define x_width 64
#define x_height 64
static char x_bits[] = {
0x00, 0x00, 0x00, 0x00, 0x00, 0x00, 0x00, 0x00, 
0x00, 0x00, 0x00, 0x00, 0x00, 0x00, 0x00, 0x00, 
0x00, 0x00, 0xc0, 0xff, 0xff, 0x03, 0x00, 0x00, 
0x00, 0x00, 0x40, 0x00, 0x00, 0x0a, 0x00, 0x00, 
0x00, 0x00, 0x40, 0x05, 0x60, 0x0a, 0x00, 0x00, 
0x00, 0x00, 0x40, 0x00, 0x60, 0x2a, 0x00, 0x00, 
0x00, 0x00, 0x40, 0x60, 0x01, 0x2a, 0x00, 0x00, 
0x00, 0x00, 0x40, 0x00, 0x00, 0x2a, 0x00, 0x00, 
0x00, 0x00, 0x40, 0xa0, 0x02, 0x2a, 0x00, 0x00, 
0x00, 0x00, 0x40, 0x00, 0x00, 0x2a, 0x00, 0x00, 
0x00, 0x00, 0x40, 0x00, 0x00, 0x2a, 0x00, 0x00, 
0x00, 0x00, 0xc0, 0xff, 0xff, 0x2b, 0x00, 0x00, 
0x00, 0x00, 0x00, 0x00, 0x00, 0x28, 0x00, 0x00, 
0x00, 0x00, 0x00, 0x8f, 0xf1, 0x2f, 0x00, 0x00, 
0x00, 0x00, 0x00, 0xc0, 0x03, 0x20, 0x00, 0x00, 
0x00, 0x00, 0x00, 0xe0, 0xc7, 0x3f, 0x00, 0x00, 
0x00, 0x00, 0x00, 0xf0, 0x0f, 0x00, 0x00, 0x00, 
0x00, 0x80, 0x0f, 0xf8, 0x1f, 0x00, 0x00, 0x00, 
0x00, 0x40, 0x10, 0xc0, 0x03, 0x00, 0x00, 0x00, 
0x00, 0x70, 0xf0, 0xc1, 0x03, 0x1f, 0x00, 0x00, 
0x00, 0x10, 0x00, 0xc0, 0x03, 0x10, 0x00, 0x00, 
0x00, 0x10, 0x00, 0xc0, 0x03, 0x10, 0x00, 0x00, 
0x00, 0x10, 0xf8, 0xff, 0xff, 0xff, 0x03, 0x00, 
0x00, 0x10, 0x04, 0x00, 0x00, 0x00, 0x02, 0x00, 
0x00, 0x10, 0x04, 0x00, 0x00, 0x00, 0x02, 0x00, 
0x00, 0x10, 0x02, 0x00, 0x00, 0x00, 0x01, 0x00, 
0x00, 0x10, 0x02, 0x00, 0x00, 0x00, 0x01, 0x00, 
0x00, 0x10, 0x01, 0x00, 0x00, 0x80, 0x00, 0x00, 
0x00, 0x10, 0x01, 0x00, 0x00, 0x80, 0x00, 0x00, 
0x00, 0x90, 0x00, 0x00, 0x00, 0x40, 0x00, 0x00, 
0x00, 0x90, 0x00, 0x00, 0x00, 0x40, 0x00, 0x00, 
0x00, 0x50, 0x00, 0x00, 0x00, 0x20, 0x00, 0x00, 
0x00, 0x50, 0x00, 0x00, 0x00, 0x20, 0x00, 0x00, 
0x00, 0x30, 0x00, 0x00, 0x00, 0x10, 0x00, 0x00, 
0x00, 0xf0, 0xff, 0xff, 0xff, 0x1f, 0x00, 0x00, 
0x00, 0x00, 0x00, 0x00, 0x00, 0x00, 0x00, 0x00, 
0x00, 0x00, 0x00, 0x00, 0x00, 0x00, 0x00, 0x00, 
0x00, 0x00, 0x00, 0x00, 0x00, 0x00, 0x00, 0x00, 
0x00, 0x00, 0x00, 0x00, 0x00, 0x00, 0x00, 0x00, 
0x00, 0x00, 0x01, 0x00, 0x00, 0x20, 0x00, 0x00, 
0x00, 0x00, 0x01, 0x00, 0x00, 0x20, 0x00, 0x00, 
0x00, 0x00, 0x01, 0x00, 0x00, 0x20, 0x00, 0x00, 
0x00, 0x00, 0x01, 0x1e, 0x0e, 0x2e, 0x00, 0x00, 
0x00, 0x00, 0x01, 0x21, 0x11, 0x31, 0x00, 0x00, 
0x00, 0x00, 0x01, 0x21, 0x10, 0x21, 0x00, 0x00, 
0x00, 0x00, 0x01, 0x21, 0x1e, 0x21, 0x00, 0x00, 
0x00, 0x00, 0x01, 0x21, 0x11, 0x21, 0x00, 0x00, 
0x00, 0x00, 0x01, 0x21, 0x11, 0x31, 0x00, 0x00, 
0x00, 0x00, 0x3f, 0x1e, 0x2e, 0x2e, 0x00, 0x00, 
0x00, 0x00, 0x00, 0x00, 0x00, 0x00, 0x00, 0x00, 
0x00, 0x00, 0x00, 0x00, 0x00, 0x00, 0x00, 0x00, 
0x00, 0x00, 0x00, 0x00, 0x00, 0x00, 0x00, 0x00, 
0x00, 0x00, 0x00, 0x00, 0x00, 0x00, 0x00, 0x00, 
0x00, 0x00, 0x00, 0x00, 0x00, 0x00, 0x00, 0x00, 
0x00, 0x00, 0x00, 0x00, 0x00, 0x00, 0x00, 0x00, 
0x00, 0x00, 0x00, 0x00, 0x00, 0x00, 0x00, 0x00, 
0x00, 0x00, 0x00, 0x00, 0x00, 0x00, 0x00, 0x00, 
0x00, 0x00, 0x00, 0x00, 0x00, 0x00, 0x00, 0x00, 
0x00, 0x00, 0x00, 0x00, 0x00, 0x00, 0x00, 0x00, 
0x00, 0x00, 0x00, 0x00, 0x00, 0x00, 0x00, 0x00, 
0x00, 0x00, 0x00, 0x00, 0x00, 0x00, 0x00, 0x00, 
0x00, 0x00, 0x00, 0x00, 0x00, 0x00, 0x00, 0x00, 
0x00, 0x00, 0x00, 0x00, 0x00, 0x00, 0x00, 0x00, 
0x00, 0x00, 0x00, 0x00, 0x00, 0x00, 0x00, 0x00, 
}; 
