#define x_width 64
#define x_height 64
static char x_bits[] = {
0x00, 0x00, 0x00, 0x00, 0x00, 0x00, 0x00, 0x00, 
0x00, 0x00, 0x00, 0x00, 0x00, 0x00, 0x00, 0x00, 
0x00, 0x00, 0x00, 0x00, 0x00, 0x00, 0x00, 0x00, 
0x00, 0x00, 0x00, 0x00, 0x00, 0x00, 0x00, 0x00, 
0x00, 0x00, 0x00, 0x00, 0x00, 0x00, 0x00, 0x00, 
0x00, 0x00, 0x00, 0x00, 0x00, 0x00, 0x00, 0x00, 
0x00, 0x00, 0x00, 0x00, 0x00, 0x00, 0x00, 0x00, 
0x00, 0x00, 0x00, 0x00, 0x00, 0x00, 0x00, 0x00, 
0x00, 0x00, 0x00, 0xfc, 0x0f, 0x00, 0x00, 0x00, 
0x00, 0x00, 0x00, 0x02, 0x10, 0x00, 0x00, 0x00, 
0x00, 0x00, 0x00, 0x01, 0x20, 0x00, 0x00, 0x00, 
0x00, 0x00, 0x80, 0x00, 0x40, 0x00, 0x00, 0x00, 
0xfc, 0xff, 0x7f, 0x00, 0x80, 0x00, 0x00, 0x00, 
0x02, 0x00, 0x00, 0x00, 0x80, 0x01, 0x00, 0x00, 
0x01, 0x00, 0x00, 0x00, 0x80, 0x01, 0x00, 0x00, 
0x01, 0x00, 0x00, 0x00, 0x80, 0x01, 0x00, 0x00, 
0x01, 0x00, 0x7e, 0x00, 0x80, 0x01, 0x00, 0x00, 
0x01, 0x00, 0xff, 0x00, 0x80, 0x01, 0x00, 0x00, 
0x01, 0x80, 0x81, 0x01, 0x80, 0x01, 0x00, 0x00, 
0x01, 0x80, 0x00, 0x01, 0x80, 0x01, 0x00, 0x00, 
0x01, 0xc0, 0x00, 0x03, 0x80, 0x01, 0x00, 0x00, 
0x01, 0xc0, 0x00, 0x03, 0x80, 0x01, 0x00, 0x00, 
0x01, 0x00, 0x00, 0x00, 0x80, 0x01, 0x00, 0x00, 
0x01, 0xc0, 0xff, 0x03, 0x80, 0x01, 0x00, 0x00, 
0x01, 0xc0, 0xff, 0x03, 0x80, 0x01, 0x00, 0x00, 
0x01, 0xc0, 0xff, 0x03, 0x80, 0x01, 0x00, 0x00, 
0x01, 0xc0, 0xe7, 0x03, 0x80, 0x01, 0x00, 0x00, 
0x01, 0xc0, 0xe7, 0x03, 0x80, 0x01, 0x00, 0x00, 
0x01, 0xc0, 0xe7, 0x03, 0x80, 0x01, 0x00, 0x00, 
0x01, 0xc0, 0xc3, 0x03, 0x80, 0x01, 0x00, 0x00, 
0x01, 0xc0, 0xc3, 0x03, 0x80, 0x01, 0x00, 0x00, 
0x01, 0x80, 0xff, 0x01, 0x80, 0x01, 0x00, 0x00, 
0x01, 0x00, 0xff, 0x00, 0x80, 0x01, 0x00, 0x00, 
0x01, 0x00, 0x7e, 0x00, 0x80, 0x01, 0x00, 0x00, 
0x01, 0x00, 0x00, 0x00, 0x80, 0x01, 0x00, 0x00, 
0x01, 0x00, 0x00, 0x00, 0x80, 0x01, 0x00, 0x00, 
0x01, 0x00, 0x00, 0x00, 0x80, 0x01, 0x00, 0x00, 
0x01, 0x00, 0x00, 0x00, 0x80, 0x01, 0x00, 0x00, 
0x03, 0x00, 0x00, 0x00, 0xc0, 0x01, 0x00, 0x00, 
0xfe, 0xff, 0xff, 0xff, 0xff, 0x00, 0x00, 0x00, 
0xfc, 0xff, 0xff, 0xff, 0x7f, 0x00, 0x00, 0x00, 
0x00, 0x00, 0x00, 0x00, 0x00, 0x00, 0x00, 0x00, 
0x00, 0x00, 0x00, 0x00, 0x00, 0x00, 0x00, 0x00, 
0x00, 0x00, 0x00, 0x00, 0x00, 0x00, 0x00, 0x00, 
0x00, 0x00, 0x00, 0x00, 0x00, 0x00, 0x00, 0x00, 
0x00, 0x00, 0x00, 0x00, 0x00, 0x00, 0x00, 0x00, 
0x00, 0x00, 0x00, 0x00, 0x00, 0x00, 0x00, 0x00, 
0x00, 0x00, 0x00, 0x00, 0x00, 0x00, 0x00, 0x00, 
0x00, 0x00, 0x00, 0x00, 0x00, 0x00, 0x00, 0x00, 
0x00, 0x00, 0x00, 0x00, 0x00, 0x00, 0x00, 0x00, 
0x00, 0x00, 0x00, 0x00, 0x00, 0x00, 0x00, 0x00, 
0x00, 0x00, 0x00, 0x00, 0x00, 0x00, 0x00, 0x00, 
0x00, 0x00, 0x00, 0x00, 0x00, 0x00, 0x00, 0x00, 
0x00, 0x00, 0x00, 0x00, 0x00, 0x00, 0x00, 0x00, 
0x00, 0x00, 0x00, 0x00, 0x00, 0x00, 0x00, 0x00, 
0x00, 0x00, 0x00, 0x00, 0x00, 0x00, 0x00, 0x00, 
0x00, 0x00, 0x00, 0x00, 0x00, 0x00, 0x00, 0x00, 
0x00, 0x00, 0x00, 0x00, 0x00, 0x00, 0x00, 0x00, 
0x00, 0x00, 0x00, 0x00, 0x00, 0x00, 0x00, 0x00, 
0x00, 0x00, 0x00, 0x00, 0x00, 0x00, 0x00, 0x00, 
0x00, 0x00, 0x00, 0x00, 0x00, 0x00, 0x00, 0x00, 
0x00, 0x00, 0x00, 0x00, 0x00, 0x00, 0x00, 0x00, 
0x00, 0x00, 0x00, 0x00, 0x00, 0x00, 0x00, 0x00, 
0x00, 0x00, 0x00, 0x00, 0x00, 0x00, 0x00, 0x00, 
}; 
