#define x_width 64
#define x_height 64
static char x_bits[] = {
0xff, 0xff, 0xff, 0xff, 0xff, 0xff, 0xff, 0xff, 
0x45, 0x44, 0x44, 0x44, 0x44, 0x44, 0x44, 0xc4, 
0x23, 0x22, 0x22, 0x22, 0x22, 0x22, 0x22, 0xa2, 
0x89, 0x88, 0x88, 0x88, 0x88, 0x88, 0x88, 0x88, 
0x11, 0x11, 0x11, 0x91, 0x17, 0x11, 0x11, 0x91, 
0x45, 0x44, 0x44, 0x74, 0x7c, 0x44, 0x44, 0xc4, 
0x23, 0x22, 0x22, 0x2e, 0xe2, 0x22, 0x22, 0xa2, 
0x89, 0x88, 0xc8, 0x89, 0x88, 0x89, 0x88, 0x88, 
0x11, 0x11, 0x39, 0x11, 0x31, 0x13, 0x11, 0x91, 
0x45, 0x44, 0x46, 0x44, 0x7c, 0x44, 0x44, 0xc4, 
0x23, 0xe2, 0x3f, 0x22, 0x3e, 0x26, 0x22, 0xa2, 
0x89, 0xb8, 0xe8, 0x88, 0xbf, 0x88, 0x88, 0x88, 
0x11, 0x19, 0x91, 0x91, 0x3f, 0x19, 0x11, 0x91, 
0x45, 0x44, 0x47, 0xc5, 0x7f, 0x54, 0x44, 0xc4, 
0x23, 0xa2, 0x2f, 0xa2, 0x3f, 0x32, 0x22, 0xa2, 
0x89, 0x8a, 0x8f, 0x8a, 0x9f, 0x98, 0x88, 0x88, 
0x11, 0x11, 0x17, 0x95, 0x17, 0x31, 0x11, 0x91, 
0x45, 0x45, 0x44, 0xc4, 0x45, 0x64, 0x44, 0xc4, 
0xa3, 0x22, 0x22, 0xaa, 0x22, 0x22, 0x22, 0xa2, 
0x89, 0xc8, 0x88, 0x88, 0x88, 0xa8, 0x88, 0x88, 
0x91, 0xb1, 0x11, 0x99, 0x11, 0x31, 0x11, 0x91, 
0xc5, 0x56, 0xe7, 0xcc, 0x44, 0x64, 0x44, 0xc4, 
0x63, 0x6e, 0xa6, 0xb2, 0x22, 0x22, 0x22, 0xa2, 
0xc9, 0xae, 0xac, 0x98, 0x89, 0xa8, 0x88, 0x88, 
0x51, 0x53, 0xb9, 0x91, 0x11, 0x31, 0x11, 0x91, 
0x45, 0xc5, 0xf4, 0x54, 0x44, 0x64, 0x44, 0xc4, 
0xe3, 0x22, 0xa2, 0x37, 0x22, 0x22, 0x22, 0xa2, 
0xc9, 0x89, 0xc8, 0x98, 0x88, 0xa8, 0x88, 0x88, 
0x51, 0x13, 0x93, 0x11, 0x11, 0x31, 0x11, 0x91, 
0x45, 0x46, 0x45, 0x57, 0x44, 0x64, 0x44, 0xc4, 
0x63, 0xaa, 0x2a, 0x32, 0x22, 0x32, 0x22, 0xa2, 
0xc9, 0xfe, 0xff, 0x9f, 0x88, 0xbc, 0x8e, 0x88, 
0x51, 0x11, 0x11, 0x11, 0x11, 0x1f, 0x11, 0x91, 
0x45, 0x44, 0x44, 0x54, 0xc4, 0x5f, 0x55, 0xc4, 
0x63, 0x22, 0x22, 0x32, 0xf2, 0xe6, 0x32, 0xa2, 
0xc9, 0x88, 0x88, 0x98, 0xbc, 0x8c, 0x88, 0x88, 
0x51, 0x11, 0x11, 0x11, 0x1f, 0x99, 0x3d, 0x91, 
0x45, 0x44, 0x44, 0xd4, 0x47, 0xf4, 0x47, 0xc4, 
0x63, 0x22, 0x22, 0xf2, 0x23, 0xae, 0x63, 0xa2, 
0xc9, 0xff, 0xff, 0xbf, 0x89, 0x8a, 0xac, 0x88, 
0xd1, 0xff, 0xff, 0x1f, 0x11, 0x93, 0x19, 0x91, 
0x45, 0x44, 0x46, 0x46, 0x45, 0xfc, 0x4c, 0xc4, 
0x23, 0x22, 0x22, 0x22, 0x23, 0x22, 0x2b, 0xa2, 
0x89, 0x88, 0x8a, 0x8a, 0x89, 0x98, 0x8e, 0x88, 
0x11, 0x11, 0x13, 0x13, 0x11, 0x11, 0x11, 0x91, 
0x45, 0x44, 0x46, 0x46, 0x45, 0x4c, 0x44, 0xc4, 
0x23, 0x22, 0x22, 0x22, 0x23, 0x2a, 0x22, 0xa2, 
0x89, 0x88, 0x8a, 0x8a, 0x89, 0xbc, 0xbf, 0x88, 
0x11, 0x11, 0x13, 0x13, 0x11, 0x1f, 0x39, 0x91, 
0x45, 0x44, 0x46, 0x46, 0x45, 0x47, 0x56, 0xc4, 
0x23, 0x22, 0x22, 0x22, 0xa3, 0xe2, 0x33, 0xa2, 
0x89, 0x88, 0x8a, 0x8a, 0xc9, 0xb8, 0x88, 0x88, 
0x11, 0x11, 0x13, 0x13, 0x31, 0x15, 0x15, 0x91, 
0x45, 0x44, 0x46, 0x46, 0x55, 0x47, 0x46, 0xc4, 
0x23, 0x22, 0x22, 0x22, 0xeb, 0xa2, 0x23, 0xa2, 
0x89, 0x88, 0x8a, 0x8a, 0xad, 0xe8, 0x88, 0x88, 
0x11, 0x11, 0x13, 0x13, 0x13, 0x19, 0x11, 0x91, 
0x45, 0x44, 0x46, 0x46, 0x45, 0x47, 0x44, 0xc4, 
0x23, 0x22, 0x22, 0xe2, 0xfe, 0x22, 0x22, 0xa2, 
0x89, 0x88, 0x8a, 0xba, 0x88, 0x88, 0x88, 0x88, 
0x11, 0x11, 0x13, 0x1f, 0x11, 0x11, 0x11, 0x91, 
0x45, 0x44, 0xfe, 0x47, 0x44, 0x44, 0x44, 0xc4, 
0x23, 0x22, 0x22, 0x22, 0x22, 0x22, 0x22, 0xa2, 
0xff, 0xff, 0xff, 0xff, 0xff, 0xff, 0xff, 0xff, 
}; 
