#define x_width 64
#define x_height 64
static char x_bits[] = {
0xfc, 0xff, 0x3f, 0x00, 0x00, 0x00, 0x00, 0x00, 
0x02, 0x00, 0x40, 0x00, 0x00, 0x00, 0x00, 0x00, 
0x01, 0x00, 0x80, 0x00, 0x00, 0x00, 0x00, 0x00, 
0x31, 0x18, 0x8c, 0x00, 0x00, 0x00, 0x00, 0x00, 
0x49, 0x24, 0x9e, 0x00, 0x00, 0x00, 0x00, 0x00, 
0x49, 0x24, 0x9e, 0x00, 0x00, 0x00, 0x00, 0x00, 
0x49, 0x24, 0x9e, 0x00, 0x00, 0x00, 0x00, 0x00, 
0x49, 0x24, 0x9e, 0x00, 0x00, 0x00, 0x00, 0x00, 
0x49, 0x24, 0x9e, 0x00, 0x00, 0x00, 0x00, 0x00, 
0x49, 0x24, 0x9e, 0x00, 0x00, 0x00, 0x00, 0x00, 
0x49, 0x24, 0x9e, 0x00, 0x00, 0x00, 0x00, 0x00, 
0x49, 0x24, 0x9e, 0x00, 0x00, 0x00, 0x00, 0x00, 
0x49, 0x24, 0x9e, 0x00, 0x00, 0x00, 0x00, 0x00, 
0x49, 0x24, 0x9e, 0x00, 0x00, 0x00, 0x00, 0x00, 
0x49, 0x24, 0x9e, 0x00, 0x00, 0x00, 0x00, 0x00, 
0x49, 0x24, 0x9e, 0x00, 0x00, 0x00, 0x00, 0x00, 
0x31, 0x18, 0x8c, 0x00, 0x00, 0x00, 0x00, 0x00, 
0x01, 0x00, 0x80, 0x00, 0x00, 0x00, 0x00, 0x00, 
0x01, 0x00, 0x80, 0x00, 0x00, 0x00, 0x00, 0x00, 
0x01, 0x00, 0x80, 0x00, 0x00, 0x00, 0x00, 0x00, 
0x01, 0x00, 0x80, 0x00, 0x00, 0x00, 0x00, 0x00, 
0x01, 0x00, 0x80, 0x00, 0x00, 0x00, 0x00, 0x00, 
0x01, 0x00, 0x80, 0x00, 0x00, 0x00, 0x00, 0x00, 
0x01, 0x00, 0x80, 0x00, 0x00, 0x00, 0x00, 0x00, 
0x01, 0x00, 0x80, 0x00, 0x00, 0x00, 0x00, 0x00, 
0x01, 0x00, 0x80, 0x00, 0x00, 0x00, 0x00, 0x00, 
0x01, 0x00, 0x80, 0x00, 0x00, 0x00, 0x00, 0x00, 
0x01, 0x00, 0x80, 0x00, 0x00, 0x00, 0x00, 0x00, 
0x01, 0x00, 0x80, 0x00, 0x00, 0x00, 0x00, 0x00, 
0x01, 0x00, 0x80, 0x00, 0x00, 0x00, 0x00, 0x00, 
0x01, 0xe0, 0x9f, 0x00, 0x00, 0x00, 0x00, 0x00, 
0x01, 0x20, 0x90, 0x00, 0x00, 0x00, 0x00, 0x00, 
0x01, 0xe0, 0x9f, 0x00, 0x00, 0x00, 0x00, 0x00, 
0x01, 0x00, 0x80, 0x00, 0x00, 0x00, 0x00, 0x00, 
0x02, 0x00, 0x40, 0x00, 0x00, 0x00, 0x00, 0x00, 
0xfc, 0xff, 0x3f, 0x00, 0x00, 0x00, 0x00, 0x00, 
0x00, 0x00, 0x00, 0x00, 0x00, 0x00, 0x00, 0x00, 
0x00, 0x00, 0x00, 0x00, 0x00, 0x00, 0x00, 0x00, 
0x00, 0x00, 0x00, 0x00, 0x00, 0x00, 0x00, 0x00, 
0x00, 0x00, 0x00, 0x00, 0x00, 0x00, 0x00, 0x00, 
0x00, 0x00, 0x00, 0x00, 0x00, 0x00, 0x00, 0x00, 
0x00, 0x00, 0x00, 0x00, 0x00, 0x00, 0x00, 0x00, 
0x00, 0x00, 0x00, 0x00, 0x00, 0x00, 0x00, 0x00, 
0x00, 0x00, 0x00, 0x00, 0x00, 0x00, 0x00, 0x00, 
0x00, 0x00, 0x00, 0x00, 0x00, 0x00, 0x00, 0x00, 
0x00, 0x00, 0x00, 0x00, 0x00, 0x00, 0x00, 0x00, 
0x00, 0x00, 0x00, 0x00, 0x00, 0x00, 0x00, 0x00, 
0x00, 0x00, 0x00, 0x00, 0x00, 0x00, 0x00, 0x00, 
0x00, 0x00, 0x00, 0x00, 0x00, 0x00, 0x00, 0x00, 
0x00, 0x00, 0x00, 0x00, 0x00, 0x00, 0x00, 0x00, 
0x00, 0x00, 0x00, 0x00, 0x00, 0x00, 0x00, 0x00, 
0x00, 0x00, 0x00, 0x00, 0x00, 0x00, 0x00, 0x00, 
0x00, 0x00, 0x00, 0x00, 0x00, 0x00, 0x00, 0x00, 
0x00, 0x00, 0x00, 0x00, 0x00, 0x00, 0x00, 0x00, 
0x00, 0x00, 0x00, 0x00, 0x00, 0x00, 0x00, 0x00, 
0x00, 0x00, 0x00, 0x00, 0x00, 0x00, 0x00, 0x00, 
0x00, 0x00, 0x00, 0x00, 0x00, 0x00, 0x00, 0x00, 
0x00, 0x00, 0x00, 0x00, 0x00, 0x00, 0x00, 0x00, 
0x00, 0x00, 0x00, 0x00, 0x00, 0x00, 0x00, 0x00, 
0x00, 0x00, 0x00, 0x00, 0x00, 0x00, 0x00, 0x00, 
0x00, 0x00, 0x00, 0x00, 0x00, 0x00, 0x00, 0x00, 
0x00, 0x00, 0x00, 0x00, 0x00, 0x00, 0x00, 0x00, 
0x00, 0x00, 0x00, 0x00, 0x00, 0x00, 0x00, 0x00, 
0x00, 0x00, 0x00, 0x00, 0x00, 0x00, 0x00, 0x00, 
}; 
