#define x_width 32
#define x_height 31
static char x_bits[] = {
0x00, 0x00, 0x60, 0x00, 
0x00, 0x00, 0x78, 0x00, 
0x00, 0x00, 0xfc, 0x03, 
0x00, 0x00, 0x7c, 0x06, 
0x00, 0x00, 0x7f, 0x04, 
0x00, 0xc0, 0x1c, 0x08, 
0x00, 0x30, 0x04, 0x08, 
0x00, 0x0c, 0x04, 0x08, 
0x00, 0x06, 0x04, 0x08, 
0xc0, 0x39, 0x04, 0x08, 
0x60, 0x60, 0x04, 0x08, 
0x20, 0x46, 0x04, 0x08, 
0x10, 0x86, 0x06, 0x08, 
0x10, 0x80, 0x06, 0x08, 
0x10, 0x80, 0x00, 0x08, 
0x10, 0x80, 0x00, 0x08, 
0x10, 0x80, 0x00, 0x08, 
0x90, 0x9f, 0x00, 0x06, 
0x90, 0x9f, 0x80, 0x01, 
0x10, 0x80, 0x60, 0x00, 
0x10, 0x80, 0x30, 0x00, 
0x10, 0x80, 0x2c, 0x00, 
0x10, 0x80, 0x23, 0x00, 
0xf0, 0xff, 0x22, 0x00, 
0x00, 0x08, 0x22, 0x00, 
0x00, 0x08, 0x22, 0x00, 
0x00, 0x08, 0x22, 0x00, 
0x00, 0x08, 0x22, 0x00, 
0x00, 0x08, 0x22, 0x00, 
0x00, 0x08, 0x02, 0x00, 
0x00, 0x08, 0x02, 0x00, 
}; 
