#define x_width 64
#define x_height 64
static char x_bits[] = {
0x00, 0x00, 0x00, 0x00, 0x00, 0x00, 0x00, 0x00, 
0x00, 0x00, 0x00, 0x00, 0x00, 0x00, 0x00, 0x00, 
0x00, 0x00, 0x00, 0x00, 0x00, 0x00, 0x00, 0x00, 
0x00, 0x00, 0x00, 0x00, 0x00, 0x00, 0x00, 0x00, 
0x00, 0x00, 0x00, 0x00, 0x00, 0x00, 0x00, 0x00, 
0x00, 0x00, 0x00, 0x00, 0xfe, 0x01, 0x00, 0x00, 
0x00, 0x00, 0x00, 0x80, 0x01, 0x06, 0x00, 0x00, 
0x00, 0x00, 0x00, 0x40, 0x00, 0x08, 0x00, 0x00, 
0x00, 0x00, 0x00, 0x20, 0x00, 0x08, 0x00, 0x00, 
0x00, 0x00, 0x00, 0x10, 0x00, 0x10, 0x00, 0x00, 
0x00, 0x00, 0x00, 0x08, 0x00, 0x13, 0x00, 0x00, 
0x00, 0x00, 0x00, 0x04, 0x80, 0x13, 0x00, 0x00, 
0x00, 0x00, 0x00, 0x02, 0xc0, 0x13, 0x00, 0x00, 
0x00, 0x00, 0x00, 0x01, 0xe0, 0x13, 0x00, 0x00, 
0x00, 0x00, 0x80, 0x00, 0xb0, 0x13, 0x00, 0x00, 
0x00, 0x00, 0x40, 0x00, 0x98, 0x11, 0x00, 0x00, 
0x00, 0x00, 0xa0, 0x3f, 0x88, 0x08, 0x00, 0x00, 
0x00, 0x00, 0x60, 0xc0, 0x00, 0x04, 0x00, 0x00, 
0x00, 0x00, 0x10, 0x0e, 0x01, 0x02, 0x00, 0x00, 
0x00, 0x00, 0x10, 0x04, 0x01, 0x01, 0x00, 0x00, 
0x00, 0x00, 0x08, 0x04, 0x82, 0x00, 0x00, 0x00, 
0x00, 0x00, 0x08, 0x00, 0x42, 0x00, 0x00, 0x00, 
0x00, 0x00, 0x08, 0x00, 0x22, 0x00, 0x00, 0x00, 
0x00, 0x00, 0x08, 0x00, 0x12, 0x00, 0x00, 0x00, 
0x00, 0x00, 0x08, 0x00, 0x1a, 0x00, 0x00, 0x00, 
0x00, 0x00, 0x08, 0x00, 0x16, 0x00, 0x00, 0x00, 
0x00, 0x00, 0xf8, 0xff, 0x13, 0x00, 0x00, 0x00, 
0x00, 0x00, 0x00, 0x08, 0x11, 0x00, 0x00, 0x00, 
0x00, 0x00, 0x00, 0x08, 0x11, 0x00, 0x00, 0x00, 
0x00, 0x00, 0x00, 0x08, 0x11, 0x00, 0x00, 0x00, 
0x00, 0x00, 0x00, 0x08, 0x11, 0x00, 0x00, 0x00, 
0x00, 0x00, 0x00, 0x08, 0x11, 0x00, 0x00, 0x00, 
0x00, 0x00, 0x00, 0x08, 0x09, 0x00, 0x00, 0x00, 
0x00, 0x00, 0x00, 0x08, 0x05, 0x00, 0x00, 0x00, 
0x00, 0x00, 0x00, 0x08, 0x03, 0x00, 0x00, 0x00, 
0x00, 0x00, 0x00, 0xf8, 0x01, 0x00, 0x00, 0x00, 
0x00, 0x00, 0x00, 0x00, 0x00, 0x00, 0x00, 0x00, 
0x00, 0x00, 0x00, 0x00, 0x00, 0x00, 0x00, 0x00, 
0x00, 0x00, 0x00, 0x00, 0x00, 0x00, 0x00, 0x00, 
0x08, 0x01, 0x00, 0x00, 0x08, 0x02, 0x20, 0x0e, 
0x18, 0x01, 0x00, 0x00, 0x08, 0x02, 0x20, 0x08, 
0x18, 0x01, 0x00, 0x00, 0x18, 0x03, 0x00, 0x08, 
0x28, 0xf1, 0x08, 0x02, 0x18, 0xe3, 0x38, 0x08, 
0x28, 0x09, 0x09, 0x02, 0xa8, 0x12, 0x21, 0x08, 
0x48, 0x09, 0x49, 0x02, 0xa8, 0x02, 0x21, 0x08, 
0x48, 0xf9, 0x49, 0x02, 0x48, 0xe2, 0x21, 0x08, 
0x88, 0x09, 0x48, 0x02, 0x48, 0x12, 0x21, 0x08, 
0x88, 0x09, 0x49, 0x02, 0x08, 0x12, 0x21, 0x08, 
0x08, 0xf1, 0xb0, 0x01, 0x08, 0xe2, 0x22, 0x08, 
0x00, 0x00, 0x00, 0x00, 0x00, 0x00, 0x00, 0x00, 
0x00, 0x00, 0x00, 0x00, 0x00, 0x00, 0x00, 0x00, 
0x00, 0x00, 0x00, 0x00, 0x00, 0x00, 0x00, 0x00, 
0x00, 0x00, 0x00, 0x00, 0x00, 0x00, 0x00, 0x00, 
0x00, 0x00, 0x00, 0x00, 0x00, 0x00, 0x00, 0x00, 
0x00, 0x00, 0x00, 0x00, 0x00, 0x00, 0x00, 0x00, 
0x00, 0x00, 0x00, 0x00, 0x00, 0x00, 0x00, 0x00, 
0x00, 0x00, 0x00, 0x00, 0x00, 0x00, 0x00, 0x00, 
0x00, 0x00, 0x00, 0x00, 0x00, 0x00, 0x00, 0x00, 
0x00, 0x00, 0x00, 0x00, 0x00, 0x00, 0x00, 0x00, 
0x00, 0x00, 0x00, 0x00, 0x00, 0x00, 0x00, 0x00, 
0x00, 0x00, 0x00, 0x00, 0x00, 0x00, 0x00, 0x00, 
0x00, 0x00, 0x00, 0x00, 0x00, 0x00, 0x00, 0x00, 
0x00, 0x00, 0x00, 0x00, 0x00, 0x00, 0x00, 0x00, 
0x00, 0x00, 0x00, 0x00, 0x00, 0x00, 0x00, 0x00, 
}; 
