#define x_width 64
#define x_height 64
static char x_bits[] = {
0x00, 0x00, 0x00, 0x00, 0x00, 0x00, 0x00, 0x00, 
0x00, 0x00, 0x00, 0x00, 0x00, 0x00, 0x00, 0x00, 
0x00, 0x00, 0x00, 0x00, 0x00, 0x00, 0x00, 0x00, 
0x00, 0x00, 0x00, 0x00, 0x00, 0x00, 0x00, 0x00, 
0x00, 0x00, 0x00, 0x00, 0x00, 0x00, 0x00, 0x00, 
0x00, 0x00, 0x00, 0x00, 0x00, 0x00, 0x00, 0x00, 
0x00, 0x00, 0x00, 0x00, 0x00, 0x00, 0x00, 0x00, 
0x00, 0x00, 0x00, 0x00, 0x00, 0x00, 0x00, 0x00, 
0x00, 0x00, 0x00, 0x00, 0x00, 0x00, 0x00, 0x00, 
0x00, 0x00, 0x00, 0xff, 0x01, 0x00, 0x00, 0x00, 
0x00, 0x00, 0x80, 0x00, 0x02, 0x00, 0x00, 0x00, 
0x00, 0x00, 0x40, 0x00, 0x04, 0x00, 0x00, 0x00, 
0xfc, 0xff, 0x3f, 0x00, 0x18, 0x00, 0x00, 0x00, 
0x02, 0x00, 0x00, 0x00, 0x30, 0x00, 0x00, 0x00, 
0x01, 0x00, 0x00, 0x00, 0x30, 0x00, 0x00, 0x00, 
0x01, 0x00, 0x00, 0x00, 0x30, 0x00, 0x00, 0x00, 
0x01, 0x00, 0x00, 0x00, 0x30, 0x00, 0x00, 0x00, 
0x01, 0x00, 0x00, 0x00, 0x30, 0x00, 0x00, 0x00, 
0x01, 0x00, 0x00, 0x00, 0x30, 0x00, 0x00, 0x00, 
0x01, 0x00, 0x00, 0x00, 0x30, 0x00, 0x00, 0x00, 
0x01, 0x00, 0x00, 0x00, 0x30, 0x00, 0x00, 0x00, 
0x01, 0x00, 0x00, 0x00, 0x30, 0x00, 0x00, 0x00, 
0x01, 0x00, 0x00, 0x00, 0x30, 0x00, 0x00, 0x00, 
0x01, 0x00, 0x00, 0x00, 0x30, 0x00, 0x00, 0x00, 
0x01, 0x00, 0x00, 0x00, 0x30, 0x00, 0x00, 0x00, 
0x01, 0x00, 0x00, 0x00, 0x30, 0x00, 0x00, 0x00, 
0x01, 0x00, 0x00, 0x00, 0x30, 0x00, 0x00, 0x00, 
0x01, 0x00, 0x00, 0x00, 0x30, 0x00, 0x00, 0x00, 
0x01, 0x00, 0x00, 0x00, 0x30, 0x00, 0x00, 0x00, 
0x01, 0x00, 0x00, 0x00, 0x30, 0x00, 0x00, 0x00, 
0x01, 0x00, 0x00, 0x00, 0x30, 0x00, 0x00, 0x00, 
0x01, 0x00, 0x00, 0x00, 0x30, 0x00, 0x00, 0x00, 
0x01, 0x00, 0x00, 0x00, 0x30, 0x00, 0x00, 0x00, 
0x01, 0x00, 0x00, 0x00, 0x30, 0x00, 0x00, 0x00, 
0x01, 0x00, 0x00, 0x00, 0x30, 0x00, 0x00, 0x00, 
0xe1, 0xff, 0xff, 0xff, 0xff, 0x01, 0x00, 0x00, 
0x11, 0x00, 0x00, 0x00, 0xc0, 0x01, 0x00, 0x00, 
0x09, 0x00, 0x00, 0x00, 0xe0, 0x00, 0x00, 0x00, 
0x05, 0x00, 0x00, 0x00, 0x70, 0x00, 0x00, 0x00, 
0xfe, 0xff, 0xff, 0xff, 0x3f, 0x00, 0x00, 0x00, 
0xfc, 0xff, 0xff, 0xff, 0x1f, 0x00, 0x00, 0x00, 
0x00, 0x00, 0x00, 0x00, 0x00, 0x00, 0x00, 0x00, 
0x00, 0x00, 0x00, 0x00, 0x00, 0x00, 0x00, 0x00, 
0x00, 0x00, 0x00, 0x00, 0x00, 0x00, 0x00, 0x00, 
0x00, 0x00, 0x00, 0x00, 0x00, 0x00, 0x00, 0x00, 
0x00, 0x00, 0x00, 0x00, 0x00, 0x00, 0x00, 0x00, 
0x00, 0x00, 0x00, 0x00, 0x00, 0x00, 0x00, 0x00, 
0x00, 0x00, 0x00, 0x00, 0x00, 0x00, 0x00, 0x00, 
0x00, 0x00, 0x00, 0x00, 0x00, 0x00, 0x00, 0x00, 
0x00, 0x00, 0x00, 0x00, 0x00, 0x00, 0x00, 0x00, 
0x00, 0x00, 0x00, 0x00, 0x00, 0x00, 0x00, 0x00, 
0x00, 0x00, 0x00, 0x00, 0x00, 0x00, 0x00, 0x00, 
0x00, 0x00, 0x00, 0x00, 0x00, 0x00, 0x00, 0x00, 
0x00, 0x00, 0x00, 0x00, 0x00, 0x00, 0x00, 0x00, 
0x00, 0x00, 0x00, 0x00, 0x00, 0x00, 0x00, 0x00, 
0x00, 0x00, 0x00, 0x00, 0x00, 0x00, 0x00, 0x00, 
0x00, 0x00, 0x00, 0x00, 0x00, 0x00, 0x00, 0x00, 
0x00, 0x00, 0x00, 0x00, 0x00, 0x00, 0x00, 0x00, 
0x00, 0x00, 0x00, 0x00, 0x00, 0x00, 0x00, 0x00, 
0x00, 0x00, 0x00, 0x00, 0x00, 0x00, 0x00, 0x00, 
0x00, 0x00, 0x00, 0x00, 0x00, 0x00, 0x00, 0x00, 
0x00, 0x00, 0x00, 0x00, 0x00, 0x00, 0x00, 0x00, 
0x00, 0x00, 0x00, 0x00, 0x00, 0x00, 0x00, 0x00, 
0x00, 0x00, 0x00, 0x00, 0x00, 0x00, 0x00, 0x00, 
}; 
