#define x_width 64
#define x_height 64
static char x_bits[] = {
0x00, 0x00, 0x00, 0x00, 0x00, 0x00, 0x00, 0x00, 
0x00, 0x00, 0x00, 0x00, 0x00, 0x00, 0x00, 0x00, 
0x00, 0x00, 0x00, 0x00, 0x00, 0x00, 0x00, 0x00, 
0x00, 0xf0, 0xff, 0xff, 0xff, 0xff, 0xff, 0x07, 
0x00, 0x10, 0x11, 0x11, 0x11, 0x11, 0x11, 0x05, 
0x00, 0x10, 0x11, 0x11, 0x11, 0x11, 0x11, 0x05, 
0x00, 0x10, 0x00, 0x00, 0x00, 0x00, 0x00, 0x04, 
0x00, 0x10, 0x00, 0x00, 0x00, 0x00, 0x00, 0x04, 
0x00, 0x10, 0x03, 0x00, 0x22, 0x02, 0x00, 0x04, 
0x00, 0x90, 0x24, 0x29, 0x22, 0xc0, 0x88, 0x04, 
0x00, 0x10, 0x21, 0x59, 0x22, 0x23, 0x89, 0x04, 
0x00, 0x10, 0x22, 0x49, 0x14, 0xe2, 0xa8, 0x04, 
0x00, 0x90, 0xa4, 0x49, 0x14, 0x22, 0xa8, 0x04, 
0xf0, 0xff, 0xff, 0xff, 0xff, 0xff, 0x5f, 0x04, 
0x50, 0x55, 0x55, 0x55, 0x55, 0x55, 0x0d, 0x04, 
0xb0, 0xaa, 0xaa, 0xaa, 0xaa, 0xaa, 0x0a, 0x04, 
0x50, 0x15, 0x00, 0x00, 0x00, 0x54, 0x0d, 0x04, 
0xb0, 0x2a, 0x07, 0x00, 0x00, 0xa8, 0x1a, 0x05, 
0x50, 0x95, 0x08, 0x00, 0x00, 0x54, 0x4d, 0x04, 
0xb0, 0xaa, 0x48, 0xc4, 0xd1, 0xa8, 0x4a, 0x04, 
0x50, 0x95, 0x48, 0x24, 0x32, 0x55, 0x1d, 0x05, 
0xb0, 0xaa, 0x88, 0xe2, 0x11, 0xa8, 0x1a, 0x05, 
0x50, 0x95, 0x88, 0x22, 0x10, 0x54, 0x4d, 0x04, 
0xb0, 0xaa, 0x08, 0x21, 0x12, 0xa8, 0x4a, 0x04, 
0x50, 0x15, 0x07, 0xc1, 0x11, 0x54, 0x1d, 0x05, 
0xb0, 0x2a, 0x00, 0x00, 0x00, 0xa8, 0x1a, 0x05, 
0x50, 0x15, 0x00, 0x00, 0x00, 0x54, 0x4d, 0x04, 
0xb0, 0xaa, 0x08, 0x01, 0x00, 0xa8, 0x4a, 0x04, 
0x50, 0x95, 0x08, 0x00, 0x00, 0x54, 0x1d, 0x05, 
0xb0, 0xaa, 0xc8, 0xc1, 0x11, 0xa9, 0x1a, 0x05, 
0x50, 0x15, 0x05, 0x21, 0x12, 0x55, 0x4d, 0x04, 
0xb0, 0x2a, 0x05, 0xe1, 0x51, 0xa9, 0x4a, 0x04, 
0x50, 0x15, 0x05, 0x21, 0x50, 0x55, 0x1d, 0x05, 
0xb0, 0x2a, 0x02, 0x21, 0x52, 0xa9, 0x1a, 0x05, 
0x50, 0x15, 0x02, 0xc1, 0xa1, 0x54, 0x4d, 0x04, 
0xb0, 0x2a, 0x00, 0x00, 0x00, 0xa8, 0x4a, 0x04, 
0x50, 0x15, 0x00, 0x00, 0x00, 0x54, 0x1d, 0x05, 
0xb0, 0xaa, 0xaa, 0xaa, 0xaa, 0xaa, 0x1a, 0x05, 
0x50, 0x55, 0x55, 0x55, 0x55, 0x55, 0x4d, 0x04, 
0xb0, 0xaa, 0xaa, 0xaa, 0xaa, 0xaa, 0xfa, 0x07, 
0x50, 0x55, 0x55, 0x55, 0x55, 0x55, 0x0d, 0x00, 
0xb0, 0xaa, 0xaa, 0xaa, 0xaa, 0xaa, 0x0a, 0x00, 
0x50, 0x55, 0x55, 0x55, 0x55, 0x55, 0x0d, 0x00, 
0xb0, 0xaa, 0xaa, 0xaa, 0xaa, 0xaa, 0x0a, 0x00, 
0x50, 0x55, 0x55, 0x55, 0x55, 0x55, 0x0d, 0x00, 
0xb0, 0xaa, 0xaa, 0xaa, 0xaa, 0xaa, 0x0a, 0x00, 
0x50, 0x55, 0x55, 0x55, 0x55, 0x55, 0x0d, 0x00, 
0xb0, 0xaa, 0xaa, 0xaa, 0xaa, 0xaa, 0x0a, 0x00, 
0x50, 0x55, 0x55, 0x55, 0x55, 0x55, 0x0d, 0x00, 
0xb0, 0xaa, 0xaa, 0xaa, 0xaa, 0xaa, 0x0a, 0x00, 
0xf0, 0xff, 0xff, 0xff, 0xff, 0xff, 0x0f, 0x00, 
0x00, 0x00, 0x00, 0x00, 0x00, 0x00, 0x00, 0x00, 
0x00, 0x00, 0x00, 0x00, 0x00, 0x00, 0x00, 0x00, 
0x00, 0x00, 0x00, 0x00, 0x00, 0x00, 0x00, 0x00, 
0x00, 0x00, 0x00, 0x00, 0x00, 0x00, 0x00, 0x00, 
0x00, 0x00, 0x00, 0x00, 0x00, 0x00, 0x00, 0x00, 
0x00, 0x00, 0x00, 0x00, 0x00, 0x00, 0x00, 0x00, 
0x00, 0x00, 0x00, 0x00, 0x00, 0x00, 0x00, 0x00, 
0x00, 0x00, 0x00, 0x00, 0x00, 0x00, 0x00, 0x00, 
0x00, 0x00, 0x00, 0x00, 0x00, 0x00, 0x00, 0x00, 
0x00, 0x00, 0x00, 0x00, 0x00, 0x00, 0x00, 0x00, 
0x00, 0x00, 0x00, 0x00, 0x00, 0x00, 0x00, 0x00, 
0x00, 0x00, 0x00, 0x00, 0x00, 0x00, 0x00, 0x00, 
0x00, 0x00, 0x00, 0x00, 0x00, 0x00, 0x00, 0x00, 
}; 
