#define x_width 64
#define x_height 64
static char x_bits[] = {
0x00, 0x00, 0x00, 0xfc, 0x1f, 0x00, 0x00, 0x00, 
0x00, 0x00, 0xc0, 0x03, 0xf0, 0x01, 0x00, 0x00, 
0x00, 0x00, 0x38, 0x00, 0x10, 0x0e, 0x00, 0x00, 
0x00, 0x00, 0x06, 0x00, 0x10, 0x30, 0x00, 0x00, 
0x00, 0x80, 0x01, 0x00, 0x08, 0xc0, 0x00, 0x00, 
0x00, 0x40, 0x02, 0x00, 0x08, 0x00, 0x01, 0x00, 
0x00, 0x20, 0x02, 0x1f, 0x08, 0x00, 0x02, 0x00, 
0x00, 0x18, 0x04, 0x33, 0x08, 0x00, 0x0c, 0x00, 
0x00, 0x04, 0x04, 0x30, 0x08, 0x00, 0x10, 0x00, 
0x00, 0x02, 0x08, 0x3c, 0x08, 0x00, 0x20, 0x00, 
0x00, 0x01, 0x08, 0x36, 0x04, 0x00, 0x40, 0x00, 
0x80, 0x00, 0x10, 0x73, 0x04, 0x00, 0x80, 0x00, 
0x80, 0x70, 0x10, 0x73, 0x04, 0x00, 0x80, 0x00, 
0x40, 0x60, 0x20, 0x6e, 0x04, 0x00, 0x00, 0x01, 
0x20, 0x60, 0x40, 0x00, 0x04, 0x00, 0x00, 0x02, 
0x10, 0xe0, 0x41, 0x00, 0x04, 0x00, 0x00, 0x04, 
0x10, 0x60, 0x82, 0x00, 0x02, 0x00, 0x00, 0x04, 
0x08, 0x60, 0x86, 0x00, 0x02, 0x00, 0x00, 0x08, 
0x08, 0x60, 0x06, 0x01, 0x02, 0x00, 0x00, 0x08, 
0x04, 0x60, 0x06, 0x01, 0x02, 0x00, 0x00, 0x10, 
0x04, 0x60, 0x06, 0x02, 0x02, 0x00, 0x00, 0x10, 
0x0c, 0x60, 0x02, 0x02, 0x02, 0x00, 0x00, 0x10, 
0x72, 0xa0, 0x01, 0x04, 0xc1, 0x00, 0x00, 0x20, 
0x82, 0x03, 0x00, 0x08, 0x21, 0x14, 0x86, 0x21, 
0x02, 0x1c, 0x00, 0x08, 0x71, 0x2c, 0x49, 0x22, 
0x02, 0xe0, 0x00, 0x10, 0x21, 0x04, 0xc7, 0x21, 
0x01, 0x00, 0x03, 0x10, 0x21, 0x04, 0x41, 0x40, 
0x01, 0x00, 0x1c, 0xa0, 0x21, 0x04, 0x8e, 0x43, 
0x01, 0x0f, 0xe0, 0xa0, 0x00, 0x00, 0x00, 0x40, 
0x81, 0x0d, 0x00, 0xc7, 0x00, 0x00, 0x00, 0x40, 
0xc1, 0x00, 0x00, 0xf8, 0x00, 0x00, 0x00, 0x40, 
0xc1, 0x00, 0x00, 0xf0, 0x01, 0x00, 0x00, 0x40, 
0xc1, 0x00, 0x00, 0xf8, 0x0f, 0x00, 0x00, 0x40, 
0xc1, 0x00, 0x00, 0xc7, 0x71, 0x00, 0x00, 0x40, 
0x81, 0x09, 0xc0, 0x40, 0x82, 0x03, 0x00, 0x40, 
0x01, 0x07, 0x38, 0x20, 0x04, 0x1c, 0x00, 0x40, 
0x01, 0x00, 0x07, 0x20, 0x04, 0x60, 0x00, 0x40, 
0x02, 0xe0, 0x00, 0x10, 0x08, 0x80, 0x03, 0x20, 
0x02, 0x1c, 0x00, 0x10, 0x10, 0x00, 0x1c, 0x20, 
0x02, 0x03, 0x00, 0x08, 0x10, 0x80, 0xe3, 0x20, 
0xe2, 0x80, 0x03, 0x08, 0x20, 0xc0, 0x04, 0x27, 
0x1c, 0x00, 0x03, 0x04, 0x40, 0xc0, 0x04, 0x18, 
0x04, 0x00, 0x03, 0x04, 0x40, 0xf0, 0x03, 0x10, 
0x04, 0xc0, 0x03, 0x02, 0x80, 0xc0, 0x00, 0x10, 
0x08, 0x20, 0x03, 0x02, 0x00, 0xc1, 0x00, 0x08, 
0x08, 0x30, 0x03, 0x01, 0x00, 0xc1, 0x00, 0x08, 
0x10, 0x30, 0x03, 0xc1, 0x01, 0xc2, 0x00, 0x04, 
0x10, 0x30, 0x03, 0x61, 0x02, 0xc2, 0x00, 0x04, 
0x20, 0x30, 0x83, 0x30, 0x06, 0xc4, 0x00, 0x02, 
0x40, 0x20, 0x83, 0xf0, 0x07, 0xe8, 0x01, 0x01, 
0x80, 0xc0, 0x47, 0x30, 0x00, 0x08, 0x80, 0x00, 
0x80, 0x00, 0x40, 0x30, 0x00, 0x10, 0x80, 0x00, 
0x00, 0x01, 0x20, 0x60, 0x04, 0x20, 0x40, 0x00, 
0x00, 0x02, 0x20, 0xc0, 0x03, 0x20, 0x20, 0x00, 
0x00, 0x04, 0x00, 0x00, 0x00, 0x40, 0x10, 0x00, 
0x00, 0x18, 0x10, 0x00, 0x00, 0x80, 0x0c, 0x00, 
0x00, 0x20, 0x08, 0x00, 0x00, 0x80, 0x02, 0x00, 
0x00, 0x40, 0x08, 0x00, 0x00, 0x00, 0x01, 0x00, 
0x00, 0x80, 0x05, 0x00, 0x00, 0xc0, 0x00, 0x00, 
0x00, 0x00, 0x06, 0x00, 0x00, 0x30, 0x00, 0x00, 
0x00, 0x00, 0x38, 0x00, 0x00, 0x0e, 0x00, 0x00, 
0x00, 0x00, 0xc0, 0x03, 0xe0, 0x01, 0x00, 0x00, 
0x00, 0x00, 0x00, 0xfc, 0x1f, 0x00, 0x00, 0x00, 
0x00, 0x00, 0x00, 0x00, 0x00, 0x00, 0x00, 0x00, 
}; 
