#define x_width 64
#define x_height 64
static char x_bits[] = {
0x00, 0x00, 0x00, 0x00, 0x00, 0x00, 0x00, 0x00, 
0x00, 0x00, 0x00, 0x00, 0x00, 0x00, 0x00, 0x00, 
0x00, 0x00, 0x00, 0x00, 0x00, 0x00, 0x00, 0x00, 
0x00, 0x00, 0x00, 0x00, 0x00, 0x00, 0x00, 0x00, 
0x00, 0x00, 0x00, 0x00, 0x00, 0x00, 0x00, 0x00, 
0x00, 0x00, 0x00, 0x00, 0x00, 0x00, 0x00, 0x00, 
0x00, 0x00, 0x00, 0x00, 0x00, 0x00, 0x00, 0x00, 
0x00, 0x00, 0x00, 0x00, 0x00, 0x00, 0x00, 0x00, 
0xff, 0xff, 0xff, 0xff, 0xff, 0xff, 0xff, 0xff, 
0xab, 0xba, 0xaa, 0xaa, 0xaa, 0xaa, 0xaa, 0xaa, 
0x55, 0x55, 0x55, 0x55, 0x55, 0x55, 0x55, 0xd5, 
0xab, 0xba, 0xaa, 0xaa, 0xaa, 0xaa, 0xaa, 0xaa, 
0x55, 0x55, 0x55, 0x55, 0x55, 0x55, 0x55, 0xd5, 
0xab, 0xba, 0xaa, 0xaa, 0xaa, 0xaa, 0xaa, 0xaa, 
0x55, 0x55, 0x55, 0x55, 0x55, 0x55, 0x55, 0xd5, 
0xeb, 0xba, 0xaa, 0xea, 0xff, 0xff, 0xff, 0xbf, 
0xf5, 0x55, 0x55, 0xf5, 0xff, 0xff, 0xff, 0xff, 
0xeb, 0xba, 0xaa, 0xaa, 0xaa, 0xaa, 0xaa, 0xaa, 
0x55, 0x55, 0x55, 0x55, 0x55, 0x55, 0x55, 0xdf, 
0xab, 0xba, 0xaa, 0xaa, 0xaa, 0xaa, 0xaa, 0xbf, 
0x55, 0x55, 0x55, 0x75, 0x5f, 0x55, 0x55, 0xdf, 
0xab, 0xba, 0xaa, 0xaa, 0xaa, 0xaa, 0xaa, 0xaa, 
0x55, 0x55, 0x55, 0x55, 0x55, 0x55, 0x55, 0xd5, 
0xff, 0xff, 0xff, 0xff, 0xff, 0xff, 0xff, 0xff, 
0xff, 0x0f, 0x00, 0x00, 0x00, 0x00, 0xf0, 0xff, 
0xff, 0x0f, 0x00, 0x00, 0x00, 0x00, 0xf0, 0xff, 
0xff, 0x0f, 0x00, 0x00, 0x00, 0x00, 0xf0, 0xff, 
0x00, 0x00, 0x00, 0x00, 0x00, 0x00, 0x00, 0x00, 
0x00, 0x00, 0x00, 0x00, 0x00, 0x00, 0x00, 0x00, 
0x00, 0x00, 0x00, 0x00, 0x00, 0x00, 0x00, 0x00, 
0x00, 0x00, 0x00, 0x00, 0x00, 0x00, 0x00, 0x00, 
0x00, 0x00, 0x00, 0x00, 0x00, 0x00, 0x00, 0x00, 
0x00, 0x00, 0x00, 0x00, 0x00, 0x00, 0x00, 0x00, 
0x00, 0x00, 0x00, 0x00, 0x00, 0x00, 0x00, 0x00, 
0x00, 0x00, 0x00, 0x00, 0x00, 0x00, 0x00, 0x00, 
0x00, 0x00, 0x00, 0x00, 0x00, 0x00, 0x00, 0x00, 
0x00, 0x00, 0x00, 0x00, 0x00, 0x00, 0x00, 0x00, 
0x00, 0x00, 0x00, 0x00, 0x00, 0x00, 0x00, 0x00, 
0x00, 0x00, 0x00, 0x00, 0x00, 0x00, 0x00, 0x00, 
0x00, 0x00, 0x00, 0x00, 0x00, 0x00, 0x00, 0x00, 
0x00, 0x00, 0x00, 0x00, 0x00, 0x00, 0x00, 0x00, 
0x00, 0x00, 0x00, 0x00, 0x00, 0x00, 0x00, 0x00, 
0x00, 0x00, 0x06, 0x60, 0x00, 0x00, 0x00, 0x00, 
0x00, 0x00, 0x04, 0x40, 0x00, 0x00, 0x00, 0x00, 
0x00, 0x00, 0x04, 0x40, 0x00, 0x00, 0x00, 0x00, 
0x00, 0x18, 0x87, 0x47, 0xcc, 0xcc, 0x34, 0x00, 
0x00, 0xa4, 0x04, 0x49, 0x92, 0x24, 0x19, 0x00, 
0x00, 0x84, 0x04, 0x49, 0x9c, 0xe6, 0x09, 0x00, 
0x00, 0x84, 0x04, 0x49, 0x92, 0x22, 0x08, 0x00, 
0x00, 0xa4, 0x04, 0x49, 0x12, 0x63, 0x0a, 0x00, 
0x00, 0x18, 0x0b, 0xe7, 0x2c, 0xc1, 0x1d, 0x00, 
0x00, 0x00, 0x00, 0x01, 0x00, 0x01, 0x00, 0x00, 
0x00, 0x00, 0x00, 0x01, 0x80, 0x00, 0x00, 0x00, 
0x00, 0x00, 0x80, 0x03, 0xc0, 0x00, 0x00, 0x00, 
0x00, 0x00, 0x00, 0x00, 0x00, 0x00, 0x00, 0x00, 
0x00, 0x00, 0x00, 0x00, 0x00, 0x00, 0x00, 0x00, 
0x00, 0x00, 0x00, 0x00, 0x00, 0x00, 0x00, 0x00, 
0x00, 0x00, 0x00, 0x00, 0x00, 0x00, 0x00, 0x00, 
0x00, 0x00, 0x00, 0x00, 0x00, 0x00, 0x00, 0x00, 
0x00, 0x00, 0x00, 0x00, 0x00, 0x00, 0x00, 0x00, 
0x00, 0x00, 0x00, 0x00, 0x00, 0x00, 0x00, 0x00, 
0x00, 0x00, 0x00, 0x00, 0x00, 0x00, 0x00, 0x00, 
0x00, 0x00, 0x00, 0x00, 0x00, 0x00, 0x00, 0x00, 
0x00, 0x00, 0x00, 0x00, 0x00, 0x00, 0x00, 0x00, 
}; 
