#define x_width 32
#define x_height 32
static char x_bits[] = {
0x00, 0x30, 0x00, 0x00, 
0x00, 0x70, 0x00, 0x00, 
0x00, 0xf0, 0x00, 0x00, 
0x00, 0xf0, 0x01, 0x00, 
0x00, 0xf0, 0x03, 0x00, 
0x00, 0xf0, 0x07, 0x00, 
0x00, 0xf0, 0x0f, 0x00, 
0x00, 0xf0, 0x1f, 0x00, 
0x00, 0xf0, 0x1f, 0x00, 
0x00, 0xf0, 0x0f, 0x00, 
0x00, 0xf0, 0x07, 0x00, 
0x00, 0xf0, 0x03, 0x00, 
0x00, 0xf0, 0x01, 0x00, 
0x00, 0xf0, 0x00, 0x00, 
0x00, 0x70, 0x00, 0x00, 
0x00, 0x30, 0x00, 0x00, 
0x00, 0x00, 0x00, 0x00, 
0x00, 0x00, 0x00, 0x00, 
0x00, 0x00, 0x00, 0x00, 
0x00, 0x00, 0x00, 0x00, 
0x00, 0x00, 0x00, 0x00, 
0x00, 0x00, 0x00, 0x00, 
0x00, 0x00, 0x00, 0x00, 
0x00, 0x00, 0x00, 0x00, 
0x00, 0x00, 0x00, 0x00, 
0x00, 0x00, 0x00, 0x00, 
0x00, 0x00, 0x00, 0x00, 
0x00, 0x00, 0x00, 0x00, 
0x00, 0x00, 0x00, 0x00, 
0x00, 0x00, 0x00, 0x00, 
0x00, 0x00, 0x00, 0x00, 
0x00, 0x00, 0x00, 0x00, 
}; 
