#define x_width 32
#define x_height 20
static char x_bits[] = {
0x00, 0x00, 0x00, 0x00, 
0x00, 0x00, 0x00, 0x00, 
0x00, 0x40, 0x00, 0x00, 
0x00, 0xe0, 0x00, 0x00, 
0x00, 0xb0, 0x01, 0x00, 
0x00, 0x18, 0x03, 0x00, 
0x00, 0x0c, 0x06, 0x00, 
0x00, 0x1e, 0x0f, 0x00, 
0x00, 0x10, 0x01, 0x00, 
0x00, 0x10, 0x01, 0x00, 
0x00, 0x10, 0x01, 0x00, 
0x00, 0x10, 0x01, 0x00, 
0x00, 0x10, 0x01, 0x00, 
0x00, 0x10, 0x01, 0x00, 
0x00, 0x10, 0x01, 0x00, 
0x00, 0xf0, 0x01, 0x00, 
0x00, 0x00, 0x00, 0x00, 
0x00, 0x00, 0x00, 0x00, 
0x00, 0x00, 0x00, 0x00, 
0x00, 0x00, 0x00, 0x00, 
}; 
