#define x_width 48
#define x_height 27
static char x_bits[] = {
0x00, 0x00, 0x00, 0x00, 0x00, 0x00, 
0x00, 0x00, 0x00, 0x00, 0x00, 0x00, 
0x00, 0x00, 0x00, 0x00, 0x00, 0x00, 
0x00, 0x00, 0x00, 0x00, 0x00, 0x00, 
0x00, 0x00, 0x00, 0x00, 0x00, 0x00, 
0x00, 0xff, 0xff, 0xff, 0x3f, 0x00, 
0x00, 0x01, 0x00, 0x00, 0x20, 0x00, 
0x00, 0x05, 0x00, 0x00, 0x20, 0x00, 
0x00, 0x01, 0x00, 0x00, 0x20, 0x00, 
0x00, 0xff, 0xff, 0xff, 0x3f, 0x00, 
0x00, 0x09, 0x01, 0x80, 0x20, 0x00, 
0x00, 0x09, 0x01, 0x80, 0x20, 0x00, 
0x00, 0x09, 0x01, 0x80, 0x20, 0x00, 
0x00, 0x69, 0x71, 0x80, 0x20, 0x00, 
0x00, 0x69, 0x01, 0x80, 0x20, 0x00, 
0x03, 0x09, 0x01, 0x80, 0x10, 0x00, 
0x0f, 0x09, 0x01, 0x80, 0x08, 0x00, 
0x3c, 0xff, 0xff, 0xff, 0xe7, 0x00, 
0xf0, 0x03, 0x00, 0x00, 0xfc, 0x00, 
0xc0, 0x03, 0xfe, 0xff, 0x1c, 0x00, 
0x00, 0x02, 0x00, 0x00, 0x04, 0x00, 
0x00, 0x02, 0xfe, 0xff, 0x04, 0x00, 
0x00, 0x02, 0x00, 0x00, 0x04, 0x00, 
0x00, 0x02, 0xfe, 0xff, 0x04, 0x00, 
0x00, 0x02, 0x00, 0x00, 0x04, 0x00, 
0x00, 0xfe, 0xff, 0xff, 0x07, 0x00, 
0x00, 0x18, 0x00, 0xc0, 0x00, 0x00, 
}; 
