#define x_width 64
#define x_height 64
static char x_bits[] = {
0x00, 0x00, 0x00, 0x00, 0x00, 0x00, 0x00, 0x00, 
0x00, 0x00, 0x00, 0x00, 0x00, 0x00, 0x00, 0x00, 
0x00, 0x00, 0x00, 0x00, 0x00, 0x00, 0x00, 0x00, 
0x00, 0x00, 0x00, 0x00, 0x00, 0x00, 0x00, 0x00, 
0x00, 0x00, 0x00, 0x00, 0x00, 0x00, 0x00, 0x00, 
0x00, 0x00, 0x00, 0x00, 0x00, 0x00, 0x00, 0x00, 
0x00, 0x00, 0x00, 0x00, 0x00, 0x00, 0x00, 0x00, 
0x00, 0x00, 0xfe, 0xff, 0xff, 0x7f, 0x00, 0x00, 
0x00, 0x00, 0x02, 0x00, 0x00, 0x40, 0x00, 0x00, 
0x00, 0x00, 0x02, 0x00, 0x00, 0x40, 0x00, 0x00, 
0x00, 0x00, 0x02, 0x00, 0x00, 0x40, 0x00, 0x00, 
0x00, 0x00, 0xfe, 0xff, 0xff, 0x7f, 0x00, 0x00, 
0x00, 0x00, 0x12, 0x00, 0x00, 0x41, 0x00, 0x00, 
0x00, 0x00, 0x12, 0x00, 0x00, 0x41, 0x00, 0x00, 
0x00, 0x00, 0x92, 0x01, 0x00, 0x41, 0x00, 0x00, 
0x00, 0x00, 0x92, 0x01, 0x00, 0x41, 0x00, 0x00, 
0x00, 0x00, 0x12, 0x00, 0x00, 0x41, 0x00, 0x00, 
0x00, 0x00, 0x12, 0x00, 0x00, 0x21, 0x00, 0x00, 
0x00, 0x18, 0x12, 0x00, 0x00, 0x11, 0x00, 0x00, 
0x00, 0x78, 0xfe, 0xff, 0xff, 0xcf, 0x01, 0x00, 
0x00, 0xe0, 0x07, 0x00, 0x00, 0xf8, 0x01, 0x00, 
0x00, 0x80, 0x07, 0xfc, 0xff, 0x39, 0x00, 0x00, 
0x00, 0x00, 0x04, 0x00, 0x00, 0x08, 0x00, 0x00, 
0x00, 0x00, 0x04, 0xfc, 0xff, 0x09, 0x00, 0x00, 
0x00, 0x00, 0x04, 0x00, 0x00, 0x08, 0x00, 0x00, 
0x00, 0x00, 0x04, 0xfc, 0xff, 0x09, 0x00, 0x00, 
0x00, 0x00, 0x04, 0x00, 0x00, 0x08, 0x00, 0x00, 
0x00, 0x00, 0xfc, 0xff, 0xff, 0x0f, 0x00, 0x00, 
0x00, 0x00, 0x70, 0x00, 0x80, 0x03, 0x00, 0x00, 
0x00, 0x00, 0x00, 0x00, 0x00, 0x00, 0x00, 0x00, 
0x00, 0x00, 0x00, 0x00, 0x00, 0x00, 0x00, 0x00, 
0x00, 0x00, 0x00, 0x00, 0x00, 0x00, 0x00, 0x00, 
0x00, 0x00, 0x00, 0x00, 0x00, 0x00, 0x00, 0x00, 
0x00, 0x00, 0x00, 0x00, 0x00, 0x00, 0x00, 0x00, 
0x00, 0x00, 0x00, 0x00, 0x00, 0x00, 0x00, 0x00, 
0x00, 0x00, 0x00, 0x00, 0x00, 0x00, 0x00, 0x00, 
0x00, 0x00, 0x00, 0x00, 0x00, 0x00, 0x00, 0x00, 
0x00, 0x00, 0x00, 0x00, 0x00, 0x00, 0x00, 0x00, 
0x00, 0x00, 0x00, 0x00, 0x00, 0x00, 0x00, 0x00, 
0x00, 0xe0, 0x03, 0x00, 0x01, 0x80, 0x00, 0x00, 
0x00, 0x20, 0x04, 0x00, 0x01, 0x80, 0x00, 0x00, 
0x00, 0x20, 0x04, 0x00, 0x00, 0x80, 0x00, 0x00, 
0x00, 0x20, 0xa4, 0xc3, 0xa1, 0xe3, 0x03, 0x00, 
0x00, 0x20, 0x64, 0x04, 0x61, 0x84, 0x00, 0x00, 
0x00, 0xe0, 0x23, 0x00, 0x21, 0x84, 0x00, 0x00, 
0x00, 0x20, 0x20, 0x00, 0x21, 0x84, 0x00, 0x00, 
0x00, 0x20, 0x20, 0x00, 0x21, 0x84, 0x00, 0x00, 
0x00, 0x20, 0x20, 0x00, 0x21, 0x84, 0x04, 0x00, 
0x00, 0x20, 0x20, 0x00, 0x21, 0x04, 0x03, 0x00, 
0x00, 0x00, 0x00, 0x00, 0x00, 0x00, 0x00, 0x00, 
0x00, 0x00, 0x00, 0x00, 0x00, 0x00, 0x00, 0x00, 
0x00, 0x00, 0x00, 0x00, 0x00, 0x00, 0x00, 0x00, 
0x00, 0x00, 0x00, 0x00, 0x00, 0x00, 0x00, 0x00, 
0x00, 0x00, 0x00, 0x00, 0x00, 0x00, 0x00, 0x00, 
0x00, 0x00, 0x00, 0x00, 0x00, 0x00, 0x00, 0x00, 
0x00, 0x00, 0x00, 0x00, 0x00, 0x00, 0x00, 0x00, 
0x00, 0x00, 0x00, 0x00, 0x00, 0x00, 0x00, 0x00, 
0x00, 0x00, 0x00, 0x00, 0x00, 0x00, 0x00, 0x00, 
0x00, 0x00, 0x00, 0x00, 0x00, 0x00, 0x00, 0x00, 
0x00, 0x00, 0x00, 0x00, 0x00, 0x00, 0x00, 0x00, 
0x00, 0x00, 0x00, 0x00, 0x00, 0x00, 0x00, 0x00, 
0x00, 0x00, 0x00, 0x00, 0x00, 0x00, 0x00, 0x00, 
0x00, 0x00, 0x00, 0x00, 0x00, 0x00, 0x00, 0x00, 
0x00, 0x00, 0x00, 0x00, 0x00, 0x00, 0x00, 0x00, 
}; 
