#define x_width 64
#define x_height 64
static char x_bits[] = {
0x11, 0x11, 0x11, 0x11, 0x11, 0x11, 0x11, 0x11, 
0x11, 0x11, 0x11, 0x11, 0x11, 0x11, 0x11, 0x11, 
0x44, 0x44, 0x44, 0x44, 0x44, 0x44, 0x44, 0x44, 
0x44, 0x44, 0x44, 0x44, 0x44, 0x44, 0x44, 0x44, 
0x11, 0x11, 0x11, 0x19, 0x11, 0x11, 0x11, 0x11, 
0x11, 0x11, 0xd1, 0xff, 0x11, 0x11, 0x11, 0x11, 
0x44, 0x44, 0xf4, 0xc3, 0x4f, 0x44, 0x44, 0x44, 
0x44, 0x44, 0x3c, 0x00, 0x7c, 0x44, 0x44, 0x44, 
0x11, 0x11, 0x0f, 0x00, 0xf0, 0x11, 0x11, 0x11, 
0x11, 0xd1, 0x03, 0x00, 0xc0, 0x13, 0x11, 0x11, 
0x44, 0x7c, 0x00, 0x00, 0x00, 0x4e, 0x44, 0x44, 
0x44, 0x1e, 0x00, 0x00, 0x00, 0x78, 0x44, 0x44, 
0x91, 0x07, 0x00, 0x00, 0x00, 0xc0, 0x11, 0x11, 
0xf1, 0x00, 0x00, 0x00, 0x00, 0x00, 0x17, 0x11, 
0x3c, 0x00, 0x00, 0x00, 0x00, 0x00, 0x58, 0x44, 
0x0e, 0x00, 0x00, 0x00, 0x00, 0x00, 0x60, 0x44, 
0xff, 0xff, 0xff, 0xff, 0xff, 0xff, 0xff, 0x39, 
0x03, 0x00, 0x00, 0x00, 0x00, 0x00, 0x80, 0x45, 
0xbb, 0xef, 0x01, 0x00, 0x00, 0x80, 0xbf, 0x87, 
0xfb, 0xef, 0x01, 0x00, 0x00, 0xe6, 0xa6, 0x89, 
0x03, 0x00, 0x00, 0x00, 0x00, 0x98, 0xb9, 0x91, 
0xbb, 0xef, 0x00, 0x00, 0x00, 0xe6, 0x66, 0x62, 
0xfb, 0xf7, 0x03, 0x00, 0x00, 0x98, 0x79, 0x44, 
0x03, 0x00, 0x00, 0x00, 0x00, 0xe6, 0xd6, 0x58, 
0x7b, 0x7b, 0x00, 0x00, 0x00, 0x98, 0x29, 0x09, 
0x7b, 0x7f, 0x00, 0x00, 0x00, 0x80, 0x97, 0x16, 
0x03, 0x00, 0x00, 0x00, 0x00, 0x00, 0x4a, 0x46, 
0x03, 0x00, 0x00, 0x00, 0x00, 0x00, 0x25, 0x45, 
0x03, 0x00, 0x00, 0x00, 0x00, 0x80, 0x92, 0x11, 
0x03, 0x00, 0x00, 0x00, 0x00, 0x40, 0xc9, 0x11, 
0x03, 0x00, 0x00, 0x00, 0x00, 0xa0, 0xa4, 0x45, 
0x83, 0xff, 0xff, 0xff, 0xff, 0x5f, 0xf2, 0xff, 
0x83, 0xff, 0xff, 0xff, 0xff, 0x2f, 0xf9, 0xff, 
0x83, 0x01, 0x00, 0x00, 0x00, 0x94, 0x04, 0xc0, 
0x83, 0x6d, 0x37, 0x00, 0x00, 0x4a, 0xc2, 0xdf, 
0x83, 0x7d, 0x3f, 0x00, 0x00, 0x25, 0x41, 0xd0, 
0x83, 0x01, 0x00, 0x00, 0x80, 0x92, 0x40, 0xd0, 
0x83, 0x9d, 0x0f, 0x00, 0x40, 0x49, 0x40, 0xd0, 
0x83, 0xbd, 0x0f, 0x00, 0xa0, 0x24, 0x40, 0xd0, 
0x83, 0x01, 0x00, 0x00, 0x50, 0x12, 0x40, 0xd0, 
0x83, 0xbd, 0x67, 0x00, 0x28, 0x09, 0x40, 0xd0, 
0x83, 0xbd, 0x6f, 0x00, 0x94, 0x04, 0xc0, 0xdf, 
0x83, 0x01, 0x00, 0x00, 0x4a, 0x02, 0x00, 0xc0, 
0x83, 0x01, 0x00, 0x00, 0x27, 0x01, 0x00, 0xc0, 
0x83, 0x01, 0x00, 0x80, 0x94, 0x00, 0x00, 0xc0, 
0x83, 0x01, 0x00, 0x80, 0x48, 0x00, 0x00, 0xc0, 
0xff, 0x01, 0x00, 0x40, 0x30, 0x00, 0x00, 0xc0, 
0xff, 0x01, 0x00, 0x40, 0x18, 0x00, 0x00, 0xc0, 
0x91, 0x01, 0x00, 0x70, 0xe6, 0x3e, 0x00, 0xc0, 
0x91, 0x01, 0x00, 0xf0, 0xe7, 0x3f, 0x00, 0xc0, 
0xc4, 0x01, 0x00, 0x70, 0x00, 0x00, 0x00, 0xc0, 
0xc4, 0x01, 0x00, 0x30, 0x00, 0x00, 0x00, 0xc0, 
0x91, 0x01, 0x00, 0xf0, 0xb9, 0x0d, 0x00, 0xc0, 
0x91, 0x01, 0x00, 0xf0, 0xf9, 0x0f, 0x00, 0xc0, 
0xc4, 0x01, 0x00, 0x00, 0x00, 0x00, 0x00, 0xc0, 
0xc4, 0x01, 0x00, 0x00, 0x00, 0x00, 0x00, 0xc0, 
0x91, 0x01, 0x00, 0x70, 0x76, 0x73, 0x00, 0xc0, 
0x91, 0x01, 0x00, 0x70, 0xfe, 0x73, 0x00, 0xc0, 
0xc4, 0x01, 0x00, 0x00, 0x00, 0x00, 0x00, 0xc0, 
0xc4, 0x01, 0x00, 0x00, 0x00, 0x00, 0x00, 0xc0, 
0x91, 0x01, 0x00, 0x00, 0x00, 0x00, 0x00, 0xc0, 
0x91, 0x01, 0x00, 0x00, 0x00, 0x00, 0x00, 0xc0, 
0xc4, 0xff, 0xff, 0xff, 0xff, 0xff, 0xff, 0xff, 
0xc4, 0xff, 0xff, 0xff, 0xff, 0xff, 0xff, 0xff, 
}; 
