#define x_width 64
#define x_height 64
static char x_bits[] = {
0x00, 0x00, 0x00, 0x00, 0x00, 0x00, 0x00, 0x00, 
0x00, 0x00, 0x00, 0x00, 0x00, 0x00, 0x00, 0x00, 
0x00, 0x00, 0x00, 0x00, 0x00, 0x00, 0x00, 0x00, 
0x00, 0x00, 0x00, 0x00, 0x00, 0x00, 0x00, 0x00, 
0x00, 0x00, 0x00, 0x00, 0x00, 0x00, 0x00, 0x00, 
0x00, 0x00, 0x00, 0x00, 0x00, 0x00, 0x00, 0x00, 
0x80, 0xff, 0xff, 0xff, 0xff, 0xff, 0xff, 0x01, 
0xc0, 0xff, 0xff, 0xff, 0xff, 0xff, 0xff, 0x03, 
0xc0, 0xff, 0xff, 0xff, 0xff, 0xff, 0xff, 0x03, 
0xc0, 0x01, 0x00, 0x00, 0x00, 0x00, 0x80, 0x03, 
0xc0, 0x01, 0x00, 0x00, 0x00, 0x00, 0x80, 0x03, 
0xc0, 0x01, 0x00, 0x00, 0x00, 0x00, 0x80, 0x03, 
0xc0, 0x01, 0x00, 0x00, 0x00, 0x00, 0x80, 0x03, 
0xc0, 0x01, 0x00, 0x00, 0x00, 0x00, 0x80, 0x03, 
0xc0, 0x01, 0x00, 0x00, 0x00, 0x00, 0x80, 0x03, 
0xc0, 0x01, 0x00, 0x00, 0x00, 0x00, 0x80, 0x03, 
0xc0, 0x01, 0x00, 0x00, 0x00, 0x03, 0x80, 0x03, 
0xc0, 0x01, 0x00, 0x00, 0xc0, 0x02, 0x80, 0x03, 
0xc0, 0x01, 0x00, 0x00, 0x20, 0x02, 0x80, 0x03, 
0xc0, 0x01, 0x00, 0x00, 0x18, 0x02, 0x80, 0x03, 
0xc0, 0x01, 0x00, 0x00, 0x04, 0x02, 0x80, 0x03, 
0xc0, 0x01, 0x00, 0x00, 0x03, 0x02, 0x80, 0x03, 
0xc0, 0x01, 0x00, 0xc0, 0x00, 0x02, 0x80, 0x03, 
0xc0, 0x01, 0x00, 0x20, 0x00, 0x02, 0x80, 0x03, 
0xc0, 0x01, 0x00, 0x18, 0x00, 0x02, 0x80, 0x03, 
0xc0, 0x01, 0x00, 0x04, 0x00, 0x02, 0x80, 0x03, 
0xc0, 0x01, 0x00, 0x03, 0x00, 0x02, 0x80, 0x03, 
0xc0, 0x01, 0x80, 0x00, 0x00, 0x02, 0x80, 0x03, 
0xc0, 0x01, 0x00, 0x03, 0x00, 0x02, 0x80, 0x03, 
0xc0, 0x01, 0x00, 0x04, 0x00, 0x02, 0x80, 0x03, 
0xc0, 0x01, 0x00, 0x18, 0x00, 0x02, 0x80, 0x03, 
0xc0, 0x01, 0x00, 0x20, 0x00, 0x02, 0x80, 0x03, 
0xc0, 0x01, 0x00, 0xc0, 0x00, 0x02, 0x80, 0x03, 
0xc0, 0x01, 0x00, 0x00, 0x01, 0x02, 0x80, 0x03, 
0xc0, 0x01, 0x00, 0x00, 0x06, 0x02, 0x80, 0x03, 
0xc0, 0x01, 0x00, 0x00, 0x08, 0x02, 0x80, 0x03, 
0xc0, 0x01, 0x00, 0x00, 0x30, 0x02, 0x80, 0x03, 
0xc0, 0x01, 0x00, 0x00, 0x40, 0x02, 0x80, 0x03, 
0xc0, 0x01, 0x00, 0x00, 0x80, 0x03, 0x80, 0x03, 
0xc0, 0x01, 0x00, 0x00, 0x00, 0x02, 0x80, 0x03, 
0xc0, 0x01, 0x00, 0x00, 0x00, 0x00, 0x80, 0x03, 
0xc0, 0x01, 0x00, 0x00, 0x00, 0x00, 0x80, 0x03, 
0xc0, 0x01, 0x00, 0x00, 0x00, 0x00, 0x80, 0x03, 
0xc0, 0x01, 0x80, 0xc7, 0x27, 0x02, 0x80, 0x03, 
0xc0, 0x01, 0x80, 0x48, 0x20, 0x02, 0x80, 0x03, 
0xc0, 0x01, 0x80, 0x48, 0x20, 0x02, 0x80, 0x03, 
0xc0, 0x01, 0x80, 0x48, 0x40, 0x01, 0x80, 0x03, 
0xc0, 0x01, 0x80, 0xc7, 0x43, 0x01, 0x80, 0x03, 
0xc0, 0x01, 0x80, 0x44, 0x40, 0x01, 0x80, 0x03, 
0xc0, 0x01, 0x80, 0x48, 0x80, 0x00, 0x80, 0x03, 
0xc0, 0x01, 0x80, 0x48, 0x80, 0x00, 0x80, 0x03, 
0xc0, 0x01, 0x80, 0xc8, 0x87, 0x00, 0x80, 0x03, 
0xc0, 0x01, 0x00, 0x00, 0x00, 0x00, 0x80, 0x03, 
0xc0, 0x01, 0x00, 0x00, 0x00, 0x00, 0x80, 0x03, 
0xc0, 0x01, 0x00, 0x00, 0x00, 0x00, 0x80, 0x03, 
0xc0, 0xff, 0xff, 0xff, 0xff, 0xff, 0xff, 0x03, 
0xc0, 0xff, 0xff, 0xff, 0xff, 0xff, 0xff, 0x03, 
0x80, 0xff, 0xff, 0xff, 0xff, 0xff, 0xff, 0x01, 
0x00, 0x00, 0x00, 0x00, 0x00, 0x00, 0x00, 0x00, 
0x00, 0x00, 0x00, 0x00, 0x00, 0x00, 0x00, 0x00, 
0x00, 0x00, 0x00, 0x00, 0x00, 0x00, 0x00, 0x00, 
0x00, 0x00, 0x00, 0x00, 0x00, 0x00, 0x00, 0x00, 
0x00, 0x00, 0x00, 0x00, 0x00, 0x00, 0x00, 0x00, 
0x00, 0x00, 0x00, 0x00, 0x00, 0x00, 0x00, 0x00, 
}; 
