#define x_width 64
#define x_height 64
static char x_bits[] = {
0x00, 0x00, 0x00, 0x00, 0x00, 0x00, 0x00, 0x00, 
0x00, 0x00, 0x00, 0x00, 0x00, 0x00, 0x00, 0x00, 
0x00, 0x00, 0x00, 0x00, 0x00, 0x00, 0x00, 0x00, 
0x00, 0x00, 0x00, 0x00, 0x00, 0x00, 0x00, 0x00, 
0x00, 0x00, 0x00, 0x00, 0x00, 0x00, 0x00, 0x00, 
0x00, 0x00, 0x00, 0x00, 0x00, 0x00, 0x00, 0x00, 
0x00, 0x00, 0x00, 0x00, 0x00, 0x00, 0x00, 0x00, 
0x00, 0x00, 0x00, 0x00, 0x00, 0x00, 0x00, 0x00, 
0x00, 0x00, 0x00, 0x00, 0x00, 0x00, 0x00, 0x00, 
0x00, 0x00, 0x00, 0x00, 0x00, 0x00, 0x00, 0x00, 
0x00, 0x00, 0x00, 0x00, 0x00, 0x00, 0x00, 0x00, 
0x00, 0x00, 0x00, 0x00, 0x00, 0x00, 0x00, 0x00, 
0x00, 0x00, 0x00, 0x00, 0x30, 0x00, 0x00, 0x00, 
0x00, 0x00, 0x00, 0x00, 0x38, 0x00, 0x00, 0x00, 
0x00, 0x00, 0x00, 0x00, 0x58, 0x00, 0x00, 0x00, 
0x00, 0x00, 0x00, 0x00, 0x78, 0x00, 0x00, 0x00, 
0x0f, 0x00, 0x00, 0x00, 0xb8, 0x00, 0x00, 0x00, 
0x7f, 0x00, 0x00, 0x00, 0xf8, 0x00, 0x00, 0x00, 
0xfc, 0x07, 0x00, 0x00, 0x78, 0x01, 0x00, 0x00, 
0xc7, 0xff, 0x01, 0x00, 0xf8, 0x01, 0x00, 0x00, 
0x7f, 0xfc, 0xff, 0x01, 0xf8, 0x02, 0x00, 0x00, 
0xff, 0x07, 0xfe, 0xff, 0xfb, 0x03, 0x00, 0x00, 
0xff, 0xff, 0x01, 0xfe, 0xfb, 0x05, 0x00, 0x00, 
0xff, 0xff, 0xff, 0x01, 0xf8, 0x07, 0x00, 0x00, 
0xff, 0xff, 0xff, 0xff, 0xff, 0x0b, 0x00, 0x00, 
0xff, 0xff, 0xff, 0xff, 0xff, 0x0f, 0x00, 0x00, 
0xff, 0xff, 0xff, 0xff, 0xff, 0x17, 0x00, 0x00, 
0xff, 0xff, 0xff, 0xff, 0xff, 0x1f, 0x00, 0x00, 
0xff, 0xff, 0xff, 0xff, 0xff, 0x2f, 0x00, 0x00, 
0xff, 0xff, 0xff, 0xff, 0xff, 0x3f, 0x00, 0x00, 
0xff, 0xff, 0xff, 0xff, 0xff, 0x5f, 0x00, 0x00, 
0xff, 0xff, 0xff, 0xff, 0xff, 0x7f, 0x00, 0x00, 
0xff, 0xff, 0xff, 0xff, 0xff, 0xbf, 0x00, 0x00, 
0xff, 0xff, 0xff, 0xff, 0xff, 0x7f, 0x00, 0x00, 
0xff, 0xff, 0xff, 0xff, 0xff, 0x3f, 0x00, 0x00, 
0xff, 0xff, 0xff, 0xff, 0xff, 0x3f, 0x00, 0x00, 
0xff, 0xff, 0xff, 0xff, 0xff, 0x1f, 0x00, 0x00, 
0xff, 0xff, 0xff, 0xff, 0xff, 0x3f, 0x00, 0x00, 
0xfc, 0xff, 0xff, 0xff, 0xff, 0x5f, 0x00, 0x00, 
0xf8, 0xff, 0xff, 0xff, 0xff, 0x2f, 0x00, 0x00, 
0xd0, 0xff, 0xff, 0xff, 0xff, 0x57, 0x00, 0x00, 
0xa0, 0xfe, 0xff, 0xff, 0xff, 0x2f, 0x00, 0x00, 
0x50, 0xf5, 0xff, 0xff, 0xff, 0x17, 0x00, 0x00, 
0xa0, 0xaa, 0xfe, 0xff, 0xff, 0x2b, 0x00, 0x00, 
0x50, 0x55, 0xf5, 0xff, 0xff, 0x15, 0x00, 0x00, 
0xa0, 0xaa, 0xaa, 0xfa, 0xff, 0x0b, 0x00, 0x00, 
0x50, 0x55, 0x55, 0x55, 0xfd, 0x05, 0x00, 0x00, 
0xa0, 0xaa, 0xaa, 0xaa, 0xfa, 0x0a, 0x00, 0x00, 
0x00, 0x55, 0x55, 0x55, 0x7d, 0x05, 0x00, 0x00, 
0x00, 0xa8, 0xaa, 0xaa, 0xfa, 0x02, 0x00, 0x00, 
0x00, 0x40, 0x55, 0x55, 0x7d, 0x01, 0x00, 0x00, 
0x00, 0x00, 0xaa, 0xaa, 0xba, 0x02, 0x00, 0x00, 
0x00, 0x00, 0x40, 0x55, 0x5d, 0x01, 0x00, 0x00, 
0x00, 0x00, 0x00, 0xa0, 0xba, 0x00, 0x00, 0x00, 
0x00, 0x00, 0x00, 0x00, 0x50, 0x00, 0x00, 0x00, 
0x00, 0x00, 0x00, 0x00, 0xa8, 0x00, 0x00, 0x00, 
0x00, 0x00, 0x00, 0x00, 0x50, 0x00, 0x00, 0x00, 
0x00, 0x00, 0x00, 0x00, 0x28, 0x00, 0x00, 0x00, 
0x00, 0x00, 0x00, 0x00, 0x10, 0x00, 0x00, 0x00, 
0x00, 0x00, 0x00, 0x00, 0x28, 0x00, 0x00, 0x00, 
0x00, 0x00, 0x00, 0x00, 0x10, 0x00, 0x00, 0x00, 
0x00, 0x00, 0x00, 0x00, 0x08, 0x00, 0x00, 0x00, 
0x00, 0x00, 0x00, 0x00, 0x00, 0x00, 0x00, 0x00, 
0x00, 0x00, 0x00, 0x00, 0x00, 0x00, 0x00, 0x00, 
}; 
