#define x_width 64
#define x_height 64
static char x_bits[] = {
0x11, 0x11, 0x11, 0xfd, 0x3f, 0x11, 0x11, 0x11, 
0x11, 0x11, 0xd1, 0xff, 0xff, 0x13, 0x11, 0x11, 
0x44, 0x44, 0xf4, 0x07, 0xe0, 0x4f, 0x44, 0x44, 
0x44, 0x44, 0x7e, 0x80, 0x01, 0x7e, 0x44, 0x44, 
0x11, 0x11, 0x0f, 0x80, 0x01, 0xf0, 0x11, 0x11, 
0x11, 0xd1, 0x03, 0x00, 0x00, 0xc0, 0x13, 0x11, 
0x44, 0xe4, 0x30, 0x00, 0x00, 0x0c, 0x47, 0x44, 
0x44, 0x7c, 0x30, 0x00, 0x00, 0x0c, 0x5e, 0x44, 
0x11, 0x1d, 0x00, 0x00, 0x00, 0x00, 0x38, 0x11, 
0x11, 0x0f, 0x00, 0x00, 0x00, 0x00, 0x70, 0x11, 
0x44, 0x07, 0x00, 0x00, 0x00, 0x00, 0xe0, 0x44, 
0xc4, 0x03, 0x00, 0x00, 0x00, 0x00, 0xc0, 0x45, 
0x91, 0x31, 0x00, 0x00, 0x00, 0x00, 0x8c, 0x11, 
0xd1, 0x30, 0x00, 0x00, 0x00, 0x00, 0x0c, 0x13, 
0xe4, 0x00, 0x00, 0x00, 0x00, 0x00, 0x00, 0x47, 
0x64, 0x00, 0x00, 0x00, 0x00, 0x00, 0x00, 0x46, 
0x31, 0x00, 0x00, 0x00, 0x00, 0x00, 0x00, 0x1c, 
0x39, 0x00, 0x00, 0x00, 0x00, 0x00, 0x00, 0x1c, 
0x1c, 0x00, 0x00, 0x00, 0x00, 0x00, 0x00, 0x58, 
0x1c, 0x00, 0x00, 0x00, 0x00, 0x00, 0x00, 0x58, 
0x0d, 0x00, 0x00, 0x00, 0x00, 0x00, 0x00, 0x30, 
0xcd, 0x00, 0x00, 0x00, 0x00, 0x00, 0x00, 0x33, 
0xce, 0x00, 0x00, 0x00, 0x00, 0x00, 0x00, 0x73, 
0x06, 0x00, 0x00, 0x00, 0x00, 0x00, 0x00, 0x60, 
0x07, 0x00, 0x00, 0x00, 0x00, 0x00, 0x00, 0x60, 
0x07, 0x00, 0x00, 0x00, 0x00, 0x00, 0x00, 0x60, 
0x07, 0x00, 0x00, 0x00, 0x00, 0x00, 0x00, 0xe0, 
0x03, 0x00, 0x00, 0x00, 0x00, 0x00, 0x00, 0xc0, 
0x03, 0x00, 0x00, 0x00, 0x00, 0x00, 0x00, 0xc0, 
0x03, 0x00, 0x00, 0x00, 0x00, 0x00, 0x00, 0xc0, 
0x03, 0x00, 0x00, 0x80, 0x01, 0x00, 0x00, 0xc0, 
0x1b, 0x00, 0x00, 0xc0, 0x03, 0x00, 0x00, 0xd8, 
0x1b, 0x00, 0x00, 0xc0, 0x03, 0x00, 0x00, 0xd8, 
0x03, 0x00, 0x00, 0x80, 0x01, 0x00, 0x00, 0xc0, 
0x03, 0x00, 0x00, 0x00, 0x00, 0x00, 0x00, 0xc0, 
0xff, 0xff, 0xff, 0xff, 0xff, 0xff, 0xff, 0xff, 
0x03, 0x00, 0x00, 0x00, 0x00, 0x00, 0x00, 0xc0, 
0x03, 0x00, 0x00, 0x00, 0x00, 0x00, 0x00, 0xc0, 
0x03, 0x00, 0x00, 0x00, 0x00, 0x00, 0x00, 0xc0, 
0x03, 0x00, 0x00, 0x00, 0x00, 0x00, 0x00, 0xc0, 
0x03, 0x00, 0x00, 0x00, 0x00, 0x00, 0x00, 0xc0, 
0x03, 0x00, 0x00, 0x00, 0x00, 0x00, 0x00, 0xc0, 
0x03, 0x00, 0x00, 0x00, 0x00, 0x00, 0x00, 0xc0, 
0x03, 0x00, 0x00, 0x00, 0x00, 0x00, 0x00, 0xc0, 
0x03, 0x00, 0x00, 0x00, 0x00, 0x00, 0x00, 0xc0, 
0x03, 0x00, 0x00, 0x00, 0x00, 0x00, 0x00, 0xc0, 
0xff, 0xff, 0xff, 0xff, 0xff, 0xff, 0xff, 0xff, 
0x03, 0x00, 0x00, 0x00, 0x00, 0x00, 0x00, 0xc0, 
0x03, 0x00, 0x00, 0x00, 0x00, 0x00, 0x00, 0xc0, 
0x03, 0x00, 0x00, 0x00, 0x00, 0x00, 0x00, 0xc0, 
0x03, 0x00, 0x00, 0x00, 0x00, 0x00, 0x00, 0xc0, 
0x03, 0x00, 0x00, 0x00, 0x00, 0x00, 0x00, 0xc0, 
0x03, 0x00, 0x00, 0x00, 0x00, 0x00, 0x00, 0xc0, 
0x03, 0x00, 0x00, 0x00, 0x00, 0x00, 0x00, 0xc0, 
0x03, 0x00, 0x00, 0x00, 0x00, 0x00, 0x00, 0xc0, 
0x03, 0x00, 0x00, 0x00, 0x00, 0x00, 0x00, 0xc0, 
0x03, 0x00, 0x00, 0x00, 0x00, 0x00, 0x00, 0xc0, 
0xff, 0xff, 0xff, 0xff, 0xff, 0xff, 0xff, 0xff, 
0xff, 0xff, 0xff, 0xff, 0xff, 0xff, 0xff, 0xff, 
0x44, 0x44, 0x44, 0x44, 0x44, 0x44, 0x44, 0x44, 
0x11, 0x11, 0x11, 0x11, 0x11, 0x11, 0x11, 0x11, 
0x11, 0x11, 0x11, 0x11, 0x11, 0x11, 0x11, 0x11, 
0x44, 0x44, 0x44, 0x44, 0x44, 0x44, 0x44, 0x44, 
0x44, 0x44, 0x44, 0x44, 0x44, 0x44, 0x44, 0x44, 
}; 
