#define x_width 32
#define x_height 31
static char x_bits[] = {
0x00, 0x00, 0x00, 0x00, 
0x00, 0xff, 0xff, 0x1f, 
0x00, 0x0b, 0x00, 0x1e, 
0x00, 0x15, 0x00, 0x1e, 
0x00, 0x0b, 0x00, 0x1e, 
0x00, 0x01, 0x2a, 0x10, 
0x00, 0x01, 0x15, 0x10, 
0x00, 0x01, 0x2a, 0x10, 
0x00, 0x01, 0x00, 0x10, 
0x00, 0x01, 0x00, 0x10, 
0x00, 0xff, 0xff, 0x1f, 
0x00, 0x00, 0x07, 0x00, 
0xfc, 0x00, 0x07, 0x00, 
0x86, 0x7f, 0xf7, 0x0f, 
0x02, 0x00, 0x07, 0x08, 
0x02, 0xc0, 0x1f, 0x08, 
0x02, 0x80, 0x0f, 0x08, 
0x02, 0x00, 0x07, 0x08, 
0xf2, 0xff, 0xff, 0x7f, 
0x0a, 0x00, 0x00, 0x20, 
0x0a, 0x00, 0x00, 0x20, 
0x0a, 0x00, 0x00, 0x20, 
0x0a, 0x00, 0x00, 0x20, 
0x06, 0x00, 0x00, 0x10, 
0x06, 0x00, 0x00, 0x10, 
0x06, 0x00, 0x00, 0x10, 
0x06, 0x00, 0x00, 0x10, 
0x06, 0x00, 0x00, 0x18, 
0x02, 0x00, 0x00, 0x08, 
0x02, 0x00, 0x00, 0x08, 
0xfe, 0xff, 0xff, 0x0f, 
}; 
