#define x_width 64
#define x_height 64
static char x_bits[] = {
0xff, 0xff, 0xff, 0xff, 0xff, 0xff, 0xff, 0xff, 
0xff, 0xff, 0xff, 0xff, 0xff, 0xff, 0xff, 0xff, 
0x03, 0x02, 0x56, 0x55, 0x55, 0x55, 0x61, 0xc0, 
0x03, 0x02, 0xaa, 0xaa, 0xaa, 0x2a, 0x44, 0xc0, 
0x03, 0x12, 0x56, 0x55, 0x55, 0xd5, 0x50, 0xc8, 
0x03, 0xfa, 0xaa, 0xaa, 0xaa, 0x2a, 0x42, 0xdf, 
0x03, 0x12, 0x56, 0x55, 0x55, 0x55, 0x48, 0xc8, 
0x03, 0x02, 0xaa, 0xaa, 0xaa, 0x2a, 0x61, 0xc0, 
0x03, 0x02, 0x56, 0x55, 0x55, 0x55, 0x44, 0xc0, 
0xff, 0xff, 0xff, 0xff, 0xff, 0xff, 0xff, 0xff, 
0x03, 0x02, 0x00, 0x00, 0x00, 0x00, 0x00, 0xc0, 
0x23, 0x02, 0x00, 0x00, 0x00, 0x00, 0x00, 0xc0, 
0x73, 0x02, 0x00, 0x00, 0x00, 0x00, 0x00, 0xc0, 
0x23, 0x02, 0x00, 0x00, 0x00, 0x00, 0x00, 0xc0, 
0x23, 0x02, 0x00, 0x00, 0x00, 0x00, 0x00, 0xc0, 
0x23, 0x02, 0x00, 0x00, 0x00, 0x00, 0x00, 0xc0, 
0x03, 0x02, 0x00, 0x00, 0x00, 0x00, 0x00, 0xc0, 
0xff, 0x03, 0x00, 0x00, 0x00, 0x87, 0x23, 0xc0, 
0x23, 0x02, 0x00, 0x00, 0x00, 0x04, 0x22, 0xc0, 
0x87, 0x72, 0x38, 0x1a, 0x0e, 0x04, 0xa2, 0xe1, 
0x13, 0x8a, 0x44, 0x26, 0x11, 0x04, 0x62, 0xd2, 
0x43, 0x32, 0x04, 0x02, 0x11, 0x04, 0x22, 0xe2, 
0x0b, 0x43, 0x04, 0x02, 0x11, 0x04, 0x22, 0xd2, 
0x23, 0x8a, 0x44, 0x02, 0x11, 0x04, 0x62, 0xd2, 
0x87, 0x72, 0x38, 0x02, 0x0e, 0x04, 0xa2, 0xe1, 
0xab, 0x02, 0x00, 0x00, 0x00, 0x00, 0x00, 0xc0, 
0x57, 0x03, 0x00, 0x00, 0x00, 0x00, 0x00, 0xc0, 
0xab, 0x02, 0x00, 0x00, 0x00, 0x00, 0x00, 0xc0, 
0x57, 0x03, 0x00, 0x00, 0x00, 0x00, 0x00, 0xc0, 
0xab, 0x02, 0x00, 0x00, 0x00, 0x00, 0x00, 0xc0, 
0x57, 0x03, 0x00, 0x00, 0x00, 0x00, 0x00, 0xc0, 
0xab, 0x02, 0x00, 0x00, 0x00, 0x00, 0x00, 0xc0, 
0x57, 0x03, 0x00, 0x00, 0x00, 0x00, 0x00, 0xc0, 
0xab, 0x02, 0x00, 0x00, 0x00, 0x00, 0x00, 0xc0, 
0x57, 0x03, 0x00, 0x00, 0x00, 0x00, 0x00, 0xc0, 
0xab, 0x82, 0x00, 0x00, 0x00, 0x00, 0x00, 0xc0, 
0x57, 0x83, 0x00, 0x00, 0x00, 0x00, 0x40, 0xc0, 
0xab, 0xb2, 0x38, 0x36, 0x8e, 0x86, 0xe3, 0xd1, 
0x57, 0xcb, 0x44, 0x2a, 0x91, 0x49, 0x44, 0xf0, 
0xab, 0x8a, 0x3c, 0x2a, 0x91, 0x88, 0x41, 0xd0, 
0x57, 0x8b, 0x04, 0x2a, 0x91, 0x08, 0x42, 0xd0, 
0xab, 0xca, 0x44, 0x2a, 0x91, 0x48, 0x44, 0xd2, 
0x57, 0xb3, 0x38, 0x2a, 0x8e, 0x88, 0x83, 0xd1, 
0xab, 0x02, 0x00, 0x00, 0x00, 0x00, 0x00, 0xc0, 
0x23, 0x02, 0x00, 0x00, 0x00, 0x00, 0x00, 0xc0, 
0x87, 0x02, 0x00, 0x00, 0x00, 0x00, 0x00, 0xc0, 
0x13, 0x02, 0x00, 0x00, 0x00, 0x00, 0x00, 0xc0, 
0x43, 0x02, 0x00, 0x00, 0x00, 0x00, 0x00, 0xc0, 
0x0b, 0x03, 0x00, 0x00, 0x00, 0x00, 0x00, 0xc0, 
0x23, 0x02, 0x00, 0x00, 0x00, 0x00, 0x00, 0xc0, 
0x87, 0x02, 0x00, 0x00, 0x00, 0x00, 0x00, 0xc0, 
0x13, 0x02, 0x00, 0x00, 0x00, 0x00, 0x00, 0xc0, 
0x43, 0x02, 0x00, 0x00, 0x00, 0x00, 0x00, 0xc0, 
0x0b, 0x03, 0x00, 0x00, 0x00, 0x00, 0x00, 0xc0, 
0xff, 0x03, 0x00, 0x00, 0x00, 0x00, 0x00, 0xc0, 
0x03, 0x02, 0x00, 0x00, 0x00, 0x00, 0x00, 0xc0, 
0x23, 0x02, 0x00, 0x00, 0x00, 0x00, 0x00, 0xc0, 
0x23, 0x02, 0x00, 0x00, 0x00, 0x00, 0x00, 0xc0, 
0x23, 0x02, 0x00, 0x00, 0x00, 0x00, 0x00, 0xc0, 
0x73, 0x02, 0x00, 0x00, 0x00, 0x00, 0x00, 0xc0, 
0x23, 0x02, 0x00, 0x00, 0x00, 0x00, 0x00, 0xc0, 
0x03, 0x02, 0x00, 0x00, 0x00, 0x00, 0x00, 0xc0, 
0xff, 0xff, 0xff, 0xff, 0xff, 0xff, 0xff, 0xff, 
0xff, 0xff, 0xff, 0xff, 0xff, 0xff, 0xff, 0xff, 
}; 
