#define x_width 64
#define x_height 64
static char x_bits[] = {
0x00, 0x00, 0x00, 0x00, 0x00, 0x00, 0x00, 0x00, 
0x00, 0x00, 0x00, 0x00, 0x00, 0x00, 0x00, 0x00, 
0x00, 0x00, 0x00, 0x00, 0x00, 0x00, 0x00, 0x00, 
0x00, 0x00, 0xff, 0xff, 0xff, 0xff, 0x00, 0x00, 
0x00, 0x00, 0xff, 0xff, 0xff, 0xff, 0x00, 0x00, 
0x00, 0x00, 0x03, 0x80, 0xff, 0x9f, 0x00, 0x00, 
0x00, 0x00, 0x73, 0x00, 0x00, 0x80, 0x00, 0x00, 
0x00, 0x00, 0x73, 0x66, 0xdb, 0x86, 0x00, 0x00, 
0x00, 0x00, 0x73, 0x66, 0xdb, 0xb6, 0x00, 0x00, 
0x00, 0x00, 0x73, 0x66, 0xdb, 0xb6, 0x00, 0x00, 
0x00, 0x00, 0x73, 0x66, 0xdb, 0xb6, 0x00, 0x00, 
0x00, 0x00, 0x03, 0x00, 0x00, 0xb0, 0x00, 0x00, 
0x00, 0x00, 0xdb, 0xf6, 0x1e, 0xb0, 0x00, 0x00, 
0x00, 0x00, 0xdb, 0xf6, 0x1e, 0x80, 0x00, 0x00, 
0x00, 0x00, 0xdb, 0xf6, 0xde, 0xb0, 0x00, 0x00, 
0x00, 0x00, 0xdb, 0xf6, 0xde, 0xb6, 0x00, 0x00, 
0x00, 0x00, 0x03, 0xf0, 0xde, 0xb6, 0x00, 0x00, 
0x00, 0x00, 0xab, 0xf2, 0xde, 0xb6, 0x00, 0x00, 
0x00, 0x00, 0x73, 0xf5, 0x1e, 0x80, 0x00, 0x00, 
0x00, 0x00, 0xab, 0xf2, 0xde, 0xb6, 0x00, 0x00, 
0x00, 0x00, 0xdb, 0xf5, 0xde, 0xb6, 0x00, 0x00, 
0x00, 0x00, 0xab, 0x02, 0xc0, 0xb6, 0x00, 0x00, 
0x00, 0x00, 0x53, 0x75, 0xce, 0xb6, 0x00, 0x00, 
0x00, 0x00, 0xab, 0x73, 0x0e, 0x80, 0x00, 0x00, 
0x00, 0x00, 0x73, 0x75, 0x0e, 0xbc, 0x00, 0x00, 
0x00, 0x00, 0xab, 0x72, 0x0e, 0xbc, 0x00, 0x00, 
0x00, 0x00, 0x53, 0x75, 0xce, 0xbc, 0x00, 0x00, 
0x00, 0x00, 0xeb, 0x72, 0xce, 0xbc, 0x00, 0x00, 
0x00, 0x00, 0x43, 0x77, 0xce, 0xbc, 0x00, 0x00, 
0x00, 0x00, 0x9b, 0x72, 0xce, 0xbc, 0x00, 0x00, 
0x00, 0x00, 0x5b, 0x05, 0x00, 0x80, 0x00, 0x00, 
0x00, 0x00, 0xc3, 0xb2, 0x6d, 0x9b, 0x00, 0x00, 
0x00, 0x00, 0x5b, 0xb5, 0x6d, 0x9b, 0x00, 0x00, 
0x00, 0x00, 0xbb, 0xb6, 0x6d, 0x9b, 0x00, 0x00, 
0x00, 0x00, 0x03, 0xb0, 0x6d, 0x9b, 0x00, 0x00, 
0x00, 0x00, 0xf3, 0x07, 0x80, 0x87, 0x00, 0x00, 
0x00, 0x00, 0xff, 0xff, 0xff, 0xff, 0x00, 0x00, 
0x00, 0x00, 0xff, 0xff, 0xff, 0xff, 0x00, 0x00, 
0x00, 0x00, 0x00, 0x00, 0x00, 0x00, 0x00, 0x00, 
0x00, 0x00, 0x00, 0x00, 0x00, 0x00, 0x00, 0x00, 
0x00, 0x00, 0x3c, 0x3c, 0x3c, 0x7e, 0x00, 0x00, 
0x00, 0x00, 0x66, 0x66, 0x66, 0x18, 0x00, 0x00, 
0x00, 0x00, 0x06, 0x46, 0x06, 0x18, 0x00, 0x00, 
0x00, 0x00, 0x0c, 0x06, 0x0c, 0x18, 0x00, 0x00, 
0x00, 0x00, 0x30, 0x06, 0x30, 0x18, 0x00, 0x00, 
0x00, 0x00, 0x60, 0x06, 0x60, 0x18, 0x00, 0x00, 
0x00, 0x00, 0x66, 0x46, 0x66, 0x18, 0x00, 0x00, 
0x00, 0x00, 0x66, 0x66, 0x66, 0x18, 0x00, 0x00, 
0x00, 0x00, 0x3c, 0x3c, 0x3c, 0x7e, 0x00, 0x00, 
0x00, 0x00, 0x00, 0x00, 0x00, 0x00, 0x00, 0x00, 
0x00, 0x10, 0x00, 0x00, 0x00, 0x00, 0x08, 0x00, 
0x00, 0x38, 0x00, 0x00, 0x00, 0x00, 0x1c, 0x00, 
0x00, 0x1c, 0x00, 0x00, 0x00, 0x00, 0x38, 0x00, 
0x00, 0x0e, 0x00, 0x00, 0x00, 0x00, 0x70, 0x00, 
0x00, 0x07, 0x00, 0x00, 0x00, 0x00, 0xe0, 0x00, 
0x80, 0x03, 0x00, 0x00, 0x00, 0x00, 0xc0, 0x01, 
0xc0, 0x01, 0x00, 0x00, 0x00, 0x00, 0x80, 0x03, 
0xe0, 0x00, 0x00, 0x00, 0x00, 0x00, 0x00, 0x07, 
0x70, 0x00, 0x00, 0x00, 0x00, 0x00, 0x00, 0x0e, 
0x38, 0x00, 0x00, 0x00, 0x00, 0x00, 0x00, 0x1c, 
0x1c, 0x00, 0x00, 0x00, 0x00, 0x00, 0x00, 0x38, 
0x0e, 0x00, 0x00, 0x00, 0x00, 0x00, 0x00, 0x70, 
0x07, 0x00, 0x00, 0x00, 0x00, 0x00, 0x00, 0xe0, 
0x03, 0x00, 0x00, 0x00, 0x00, 0x00, 0x00, 0xc0, 
}; 
