#define x_width 64
#define x_height 64
static char x_bits[] = {
0x00, 0x00, 0x00, 0x00, 0x00, 0x00, 0x00, 0x00, 
0x00, 0x00, 0x00, 0x00, 0x00, 0x00, 0x00, 0x00, 
0x00, 0x00, 0x00, 0x00, 0x00, 0x00, 0x00, 0x00, 
0x00, 0x00, 0x00, 0xfc, 0xff, 0xff, 0xff, 0x01, 
0x00, 0x00, 0x00, 0x22, 0x22, 0x22, 0xa2, 0x01, 
0x00, 0x00, 0x00, 0x89, 0x88, 0x88, 0xc8, 0x01, 
0x00, 0x00, 0x80, 0x11, 0x11, 0x11, 0x71, 0x01, 
0x00, 0x00, 0x40, 0x44, 0x44, 0x44, 0xb4, 0x01, 
0x00, 0x00, 0x20, 0x22, 0x22, 0x22, 0x5a, 0x01, 
0x00, 0x00, 0x90, 0x88, 0x88, 0x88, 0xac, 0x01, 
0x00, 0x00, 0x18, 0x11, 0x11, 0x11, 0x57, 0x01, 
0x00, 0x00, 0x44, 0x44, 0x44, 0x44, 0xab, 0x01, 
0x00, 0x00, 0x22, 0x22, 0x22, 0xa2, 0x55, 0x01, 
0x00, 0x00, 0x89, 0x88, 0x88, 0xc8, 0xaa, 0x01, 
0x00, 0x80, 0x11, 0x11, 0x11, 0x71, 0x55, 0x01, 
0x00, 0x40, 0x44, 0x44, 0x44, 0xb4, 0xaa, 0x01, 
0x00, 0x20, 0x22, 0x22, 0x22, 0x5a, 0x55, 0x01, 
0x00, 0x90, 0x88, 0x88, 0x88, 0xac, 0xaa, 0x01, 
0x00, 0x18, 0x11, 0x11, 0x11, 0x57, 0x55, 0x01, 
0x00, 0xfc, 0xff, 0xff, 0xff, 0xab, 0xaa, 0x00, 
0x00, 0xfc, 0xff, 0xff, 0xff, 0x55, 0x55, 0x00, 
0x00, 0xfc, 0xff, 0xff, 0xff, 0xab, 0x2a, 0x00, 
0x00, 0xfc, 0xff, 0xff, 0xff, 0x55, 0x15, 0x00, 
0x00, 0xfc, 0xff, 0xff, 0xff, 0xab, 0x0a, 0x00, 
0x00, 0xfc, 0xff, 0xff, 0xff, 0x55, 0x05, 0x00, 
0x00, 0xfc, 0xff, 0xff, 0xff, 0xab, 0x02, 0x00, 
0x00, 0xfc, 0xff, 0xff, 0xff, 0x55, 0x01, 0x00, 
0x00, 0xfc, 0xff, 0xff, 0xff, 0xab, 0x00, 0x00, 
0x00, 0xfc, 0xff, 0xff, 0xff, 0x55, 0x00, 0x00, 
0x00, 0xfc, 0xff, 0xff, 0xff, 0x2b, 0x00, 0x00, 
0x00, 0xfc, 0xff, 0xff, 0xff, 0x15, 0x00, 0x00, 
0x00, 0xac, 0xa8, 0xaa, 0xaa, 0x0b, 0x00, 0x00, 
0x00, 0xac, 0xa8, 0xaa, 0xaa, 0x05, 0x00, 0x00, 
0x00, 0xfc, 0xff, 0xff, 0xff, 0x03, 0x00, 0x00, 
0x00, 0xfc, 0xff, 0xff, 0xff, 0x01, 0x00, 0x00, 
0x00, 0x00, 0x00, 0x00, 0x00, 0x00, 0x00, 0x00, 
0x00, 0x00, 0x00, 0x00, 0x00, 0x00, 0x00, 0x00, 
0x00, 0x00, 0x00, 0x00, 0x00, 0x00, 0x00, 0x00, 
0x00, 0x00, 0x00, 0x00, 0x00, 0x00, 0x00, 0x00, 
0x00, 0x00, 0x00, 0x00, 0x00, 0x00, 0x00, 0x00, 
0x00, 0x00, 0x00, 0x00, 0x00, 0x00, 0x00, 0x00, 
0x00, 0x00, 0x00, 0x00, 0x00, 0x00, 0x00, 0x00, 
0x00, 0x00, 0x00, 0x00, 0x00, 0x00, 0x00, 0x00, 
0x00, 0x00, 0x00, 0x00, 0x00, 0x00, 0x00, 0x00, 
0x00, 0x00, 0x00, 0x00, 0x00, 0x00, 0x00, 0x00, 
0x00, 0x00, 0x00, 0x00, 0x00, 0x00, 0x00, 0x00, 
0x00, 0x00, 0x00, 0x00, 0x00, 0x00, 0x00, 0x00, 
0x00, 0x00, 0x00, 0x00, 0x00, 0x00, 0x00, 0x00, 
0x00, 0x00, 0x00, 0x00, 0x00, 0x00, 0x00, 0x00, 
0x00, 0x00, 0x00, 0x00, 0x00, 0x00, 0x00, 0x00, 
0x00, 0x00, 0x00, 0x00, 0x00, 0x00, 0x00, 0x00, 
0x00, 0x00, 0x00, 0x00, 0x00, 0x00, 0x00, 0x00, 
0x00, 0x00, 0x00, 0x00, 0x00, 0x00, 0x00, 0x00, 
0x00, 0x00, 0x00, 0x00, 0x00, 0x00, 0x00, 0x00, 
0x00, 0x00, 0x00, 0x00, 0x00, 0x00, 0x00, 0x00, 
0x00, 0x00, 0x00, 0x00, 0x00, 0x00, 0x00, 0x00, 
0x00, 0x00, 0x00, 0x00, 0x00, 0x00, 0x00, 0x00, 
0x00, 0x00, 0x00, 0x00, 0x00, 0x00, 0x00, 0x00, 
0x00, 0x00, 0x00, 0x00, 0x00, 0x00, 0x00, 0x00, 
0x00, 0x00, 0x00, 0x00, 0x00, 0x00, 0x00, 0x00, 
0x00, 0x00, 0x00, 0x00, 0x00, 0x00, 0x00, 0x00, 
0x00, 0x00, 0x00, 0x00, 0x00, 0x00, 0x00, 0x00, 
0x00, 0x00, 0x00, 0x00, 0x00, 0x00, 0x00, 0x00, 
0x00, 0x00, 0x00, 0x00, 0x00, 0x00, 0x00, 0x00, 
}; 
