#define x_width 64
#define x_height 64
static char x_bits[] = {
0x00, 0x00, 0x00, 0x00, 0x00, 0x00, 0x00, 0x00, 
0xfe, 0xff, 0xff, 0xff, 0xff, 0xff, 0xff, 0x7f, 
0x02, 0x00, 0x00, 0x00, 0x00, 0x00, 0x00, 0x40, 
0x02, 0x00, 0x00, 0x00, 0x00, 0x00, 0x00, 0x40, 
0x02, 0x00, 0x00, 0x00, 0x00, 0x00, 0x00, 0x40, 
0x02, 0x00, 0x00, 0x00, 0x00, 0x00, 0x00, 0x40, 
0x02, 0x00, 0x00, 0x00, 0x00, 0x00, 0x00, 0x40, 
0x02, 0x80, 0xff, 0x03, 0x00, 0x00, 0x00, 0x40, 
0x02, 0x70, 0x00, 0x1c, 0x00, 0x00, 0x00, 0x40, 
0x02, 0x0e, 0x00, 0xe0, 0x00, 0x00, 0x00, 0x40, 
0x82, 0x63, 0x40, 0x95, 0x03, 0x00, 0x00, 0x40, 
0xc2, 0x60, 0xa0, 0x2a, 0x06, 0x00, 0x00, 0x40, 
0x42, 0x0c, 0x00, 0x55, 0x04, 0x00, 0x00, 0x40, 
0x22, 0xcc, 0x7c, 0x00, 0x08, 0x00, 0x00, 0x40, 
0xa2, 0xc1, 0x82, 0x00, 0x08, 0x00, 0x00, 0x40, 
0xa2, 0x0d, 0x7c, 0x00, 0x08, 0x00, 0x00, 0x40, 
0x42, 0x0c, 0x00, 0x00, 0x04, 0x00, 0x00, 0x40, 
0xc2, 0x00, 0x00, 0x00, 0x06, 0x00, 0x00, 0x40, 
0x82, 0x03, 0x00, 0x80, 0x03, 0x00, 0x00, 0x40, 
0x82, 0x0e, 0x00, 0xe0, 0x01, 0xe0, 0xff, 0x40, 
0x02, 0x77, 0x00, 0xde, 0x00, 0x1c, 0x00, 0x43, 
0x02, 0x9c, 0xff, 0x3b, 0x00, 0x02, 0x00, 0x44, 
0x02, 0xe0, 0xff, 0x07, 0x00, 0x1e, 0x00, 0x47, 
0x02, 0x00, 0x00, 0x00, 0x00, 0xe2, 0xff, 0x44, 
0x02, 0x00, 0x00, 0x00, 0x00, 0x02, 0x00, 0x44, 
0x02, 0x00, 0x00, 0x08, 0x08, 0x02, 0x00, 0x44, 
0x02, 0x00, 0x00, 0x14, 0x08, 0x02, 0x00, 0x44, 
0x02, 0x00, 0x00, 0x2a, 0x08, 0x0e, 0x00, 0x46, 
0x02, 0x00, 0x00, 0x54, 0x08, 0x72, 0xe0, 0x45, 
0x02, 0x00, 0x00, 0xa8, 0x08, 0x82, 0x1f, 0x44, 
0x02, 0x00, 0x00, 0x50, 0x09, 0x02, 0x00, 0x44, 
0x02, 0x00, 0x00, 0xa0, 0x0a, 0x02, 0x00, 0x44, 
0x02, 0x00, 0x00, 0x40, 0x0d, 0x0e, 0x00, 0x46, 
0x02, 0x00, 0x00, 0x80, 0x0a, 0x32, 0xc0, 0x45, 
0x02, 0x00, 0x00, 0x00, 0x0d, 0xc2, 0x3f, 0x44, 
0x02, 0x00, 0x00, 0xfe, 0x0f, 0x0e, 0x00, 0x46, 
0x02, 0x00, 0x00, 0x00, 0x00, 0x72, 0xc0, 0x45, 
0x02, 0x00, 0x00, 0x00, 0x00, 0x82, 0x3f, 0x44, 
0x02, 0x00, 0x00, 0x00, 0x00, 0x02, 0x00, 0x44, 
0x02, 0x00, 0x00, 0x00, 0x00, 0x02, 0x00, 0x44, 
0x02, 0x00, 0x00, 0x00, 0x00, 0xe2, 0x3f, 0x44, 
0x02, 0x00, 0x00, 0x00, 0x00, 0xda, 0xdd, 0x44, 
0x02, 0x00, 0x00, 0x00, 0x00, 0xbe, 0xef, 0x47, 
0x02, 0x00, 0x00, 0x00, 0x00, 0x7a, 0xf5, 0x46, 
0x02, 0x00, 0x00, 0x00, 0x00, 0xbe, 0xef, 0x47, 
0x02, 0x00, 0x00, 0x00, 0x00, 0xd8, 0xdd, 0x40, 
0x02, 0x00, 0x00, 0x00, 0x00, 0xe0, 0x3f, 0x40, 
0x02, 0x00, 0x00, 0x00, 0x00, 0x00, 0x00, 0x40, 
0x02, 0x00, 0x00, 0x00, 0x00, 0x00, 0x00, 0x40, 
0x02, 0x00, 0x00, 0x00, 0x00, 0x00, 0x00, 0x40, 
0x02, 0x00, 0x00, 0x00, 0x00, 0x00, 0x00, 0x40, 
0x02, 0x00, 0x00, 0x00, 0x00, 0x00, 0x00, 0x40, 
0x02, 0x00, 0x00, 0x00, 0x00, 0x00, 0x00, 0x40, 
0x02, 0x00, 0x00, 0x00, 0x00, 0x00, 0x00, 0x40, 
0x02, 0x00, 0x00, 0x00, 0x00, 0x00, 0x00, 0x40, 
0x02, 0x00, 0x00, 0x00, 0x00, 0x00, 0x00, 0x40, 
0x02, 0x00, 0x00, 0x00, 0x00, 0x00, 0x00, 0x40, 
0x02, 0x00, 0x00, 0x00, 0x00, 0x00, 0x00, 0x40, 
0x02, 0x00, 0x00, 0x00, 0x00, 0x00, 0x00, 0x40, 
0x02, 0x00, 0x00, 0x00, 0x00, 0x00, 0x00, 0x40, 
0x02, 0x00, 0x00, 0x00, 0x00, 0x00, 0x00, 0x40, 
0x02, 0x00, 0x00, 0x00, 0x00, 0x00, 0x00, 0x40, 
0xfe, 0xff, 0xff, 0xff, 0xff, 0xff, 0xff, 0x7f, 
0x00, 0x00, 0x00, 0x00, 0x00, 0x00, 0x00, 0x00, 
}; 
