#define x_width 64
#define x_height 64
static char x_bits[] = {
0xff, 0xff, 0xff, 0xff, 0xff, 0xff, 0xff, 0xff, 
0x01, 0x00, 0x00, 0x00, 0x00, 0x00, 0x00, 0x80, 
0x01, 0x00, 0x00, 0x00, 0x00, 0x00, 0x00, 0x80, 
0x01, 0xfc, 0xff, 0xff, 0xff, 0xff, 0x7f, 0x80, 
0x01, 0x04, 0x00, 0x00, 0x00, 0x00, 0x40, 0x80, 
0x01, 0xe4, 0xff, 0xff, 0xff, 0xff, 0x4f, 0x80, 
0x01, 0x34, 0x11, 0x11, 0x11, 0x11, 0x59, 0x80, 
0x01, 0x54, 0x44, 0x44, 0x44, 0x44, 0x54, 0x80, 
0x01, 0x34, 0x22, 0x22, 0x22, 0x22, 0x52, 0x80, 
0x01, 0x94, 0x88, 0x88, 0x88, 0x88, 0x58, 0x80, 
0x01, 0x14, 0xf1, 0xff, 0x7f, 0x11, 0x51, 0x80, 
0x01, 0x54, 0xf4, 0xff, 0x7f, 0x44, 0x54, 0x80, 
0x01, 0x34, 0x12, 0x00, 0x40, 0x22, 0x52, 0x80, 
0x01, 0x94, 0x18, 0x00, 0xc0, 0x9f, 0x58, 0x80, 
0x01, 0x14, 0x11, 0x00, 0xc0, 0x1f, 0x51, 0x80, 
0x01, 0x54, 0x14, 0x00, 0x40, 0x50, 0x54, 0x80, 
0x01, 0x34, 0x12, 0x00, 0x40, 0x30, 0x52, 0x80, 
0x01, 0x94, 0xff, 0xff, 0x4f, 0x90, 0x58, 0x80, 
0x01, 0x94, 0xff, 0xff, 0x4f, 0x10, 0x51, 0x80, 
0x01, 0xd4, 0x00, 0x00, 0x48, 0x50, 0x54, 0x80, 
0x01, 0xb4, 0x00, 0x00, 0x78, 0x30, 0x52, 0x80, 
0x01, 0x94, 0x00, 0x00, 0x08, 0x90, 0x58, 0x80, 
0x01, 0x94, 0x00, 0x00, 0x08, 0x10, 0x51, 0x80, 
0x01, 0xd4, 0x00, 0x00, 0x08, 0x50, 0x54, 0x80, 
0x01, 0xb4, 0x00, 0x00, 0x08, 0x30, 0x52, 0x80, 
0x01, 0x94, 0x00, 0x00, 0x08, 0x90, 0x58, 0x80, 
0x01, 0x94, 0x00, 0x00, 0xf8, 0x1f, 0x51, 0x80, 
0x01, 0xd4, 0x00, 0x00, 0x48, 0x44, 0x54, 0x80, 
0x01, 0xb4, 0x00, 0x00, 0x28, 0x22, 0x52, 0x80, 
0x01, 0x94, 0xff, 0xff, 0x8f, 0x88, 0x58, 0x80, 
0x01, 0x14, 0x11, 0x11, 0x11, 0x11, 0x51, 0x80, 
0x01, 0x54, 0x44, 0x44, 0x44, 0x44, 0x54, 0x80, 
0x01, 0xe4, 0xff, 0xff, 0xff, 0xff, 0x4f, 0x80, 
0x01, 0x04, 0x00, 0x00, 0x00, 0x00, 0x40, 0x80, 
0x01, 0xfc, 0xff, 0xff, 0xff, 0xff, 0x7f, 0x80, 
0x01, 0x00, 0x00, 0x04, 0x10, 0x00, 0x00, 0x80, 
0x81, 0xff, 0xff, 0xff, 0xff, 0xff, 0xff, 0x81, 
0x41, 0x00, 0x00, 0x00, 0x00, 0x00, 0x00, 0x82, 
0x41, 0x04, 0x00, 0x00, 0x00, 0x00, 0x00, 0x82, 
0xf1, 0xff, 0xff, 0xff, 0xff, 0xff, 0xff, 0x9f, 
0x09, 0x00, 0x00, 0x00, 0x00, 0x00, 0x00, 0xa0, 
0xfd, 0xff, 0xff, 0xff, 0xff, 0xff, 0xff, 0xff, 
0x1d, 0x00, 0x00, 0x00, 0x00, 0x00, 0x00, 0xf0, 
0x17, 0x00, 0x00, 0x00, 0x00, 0x00, 0x00, 0xd0, 
0x13, 0x00, 0x00, 0x00, 0x00, 0x00, 0x00, 0xd0, 
0x11, 0x00, 0x00, 0x00, 0x00, 0x00, 0x00, 0x90, 
0x11, 0xc0, 0x03, 0x00, 0x00, 0x00, 0x00, 0x90, 
0x11, 0xe0, 0x06, 0x00, 0x00, 0x00, 0x00, 0x90, 
0x11, 0xd0, 0x0d, 0x00, 0x00, 0x00, 0x00, 0x90, 
0x11, 0xb8, 0x1b, 0x00, 0x00, 0x00, 0x00, 0x90, 
0x11, 0x7c, 0x3f, 0xc0, 0xef, 0xd8, 0x1e, 0x90, 
0x11, 0xf6, 0x5f, 0x60, 0xcc, 0x98, 0x33, 0x90, 
0x11, 0xfb, 0xef, 0x60, 0xc0, 0x98, 0x31, 0x90, 
0x11, 0x7d, 0xf6, 0xc0, 0xc7, 0x98, 0x31, 0x90, 
0x11, 0x6f, 0xbe, 0x00, 0xcc, 0x98, 0x31, 0x90, 
0x11, 0xf7, 0xdf, 0x60, 0xcc, 0x9c, 0x31, 0x90, 
0x11, 0xfa, 0x6f, 0xe0, 0x87, 0xfb, 0x71, 0x90, 
0x11, 0xfc, 0x3e, 0x00, 0x00, 0x00, 0x00, 0x90, 
0x11, 0xd8, 0x1d, 0x00, 0x00, 0x00, 0x00, 0x90, 
0x11, 0xb0, 0x0b, 0xe0, 0x77, 0xef, 0x5e, 0x90, 
0x11, 0x60, 0x07, 0xa0, 0xdd, 0xbd, 0x7b, 0x90, 
0x11, 0xc0, 0x03, 0x00, 0x00, 0x00, 0x00, 0x90, 
0x11, 0x00, 0x00, 0x00, 0x00, 0x00, 0x00, 0x90, 
0xff, 0xff, 0xff, 0xff, 0xff, 0xff, 0xff, 0xff, 
}; 
