#define x_width 64
#define x_height 64
static char x_bits[] = {
0x00, 0x00, 0x00, 0x00, 0x00, 0x00, 0x00, 0x00, 
0x00, 0x00, 0x00, 0x00, 0x00, 0x00, 0x00, 0x00, 
0x00, 0x00, 0x00, 0x00, 0x00, 0x00, 0x00, 0x00, 
0x00, 0x00, 0x00, 0x1e, 0x00, 0x00, 0x00, 0x00, 
0x00, 0x00, 0xe0, 0xe1, 0x01, 0x00, 0x00, 0x00, 
0x00, 0x00, 0x1c, 0x00, 0x0e, 0x00, 0x00, 0x00, 
0x00, 0x00, 0x03, 0x00, 0x30, 0x00, 0x00, 0x00, 
0x00, 0x80, 0x00, 0x00, 0x40, 0x00, 0x00, 0x00, 
0x00, 0xc0, 0xff, 0xff, 0xff, 0x00, 0x00, 0x00, 
0x00, 0x40, 0x00, 0x00, 0x80, 0x00, 0x00, 0x00, 
0x00, 0x40, 0x2a, 0x00, 0x80, 0x00, 0x00, 0x00, 
0x00, 0x40, 0x00, 0xfc, 0xff, 0xff, 0x00, 0x00, 
0x00, 0x40, 0x2a, 0x04, 0x00, 0x80, 0x00, 0x00, 
0x00, 0x40, 0x00, 0x04, 0x00, 0x80, 0x00, 0x00, 
0x00, 0x40, 0x00, 0x64, 0x01, 0x80, 0x00, 0x00, 
0x00, 0x40, 0x00, 0x04, 0x00, 0x80, 0x00, 0x00, 
0x00, 0x40, 0x00, 0x64, 0x01, 0x80, 0x00, 0x00, 
0x00, 0x40, 0x00, 0x04, 0x00, 0x80, 0x00, 0x00, 
0x00, 0x40, 0x00, 0x04, 0x00, 0x80, 0x00, 0x00, 
0x00, 0x40, 0x00, 0xe4, 0x00, 0x80, 0x00, 0x00, 
0x00, 0x40, 0x00, 0x04, 0x00, 0x80, 0x00, 0x00, 
0x00, 0x40, 0x00, 0x04, 0x00, 0x80, 0x00, 0x00, 
0x00, 0x40, 0x00, 0x64, 0xdd, 0x86, 0x00, 0x00, 
0x00, 0x40, 0x00, 0x04, 0x00, 0x80, 0x00, 0x00, 
0x00, 0xc0, 0xff, 0xa5, 0x7b, 0x8b, 0x00, 0x00, 
0x00, 0x00, 0x00, 0x04, 0x00, 0x80, 0x00, 0x00, 
0x00, 0x00, 0x00, 0x04, 0x00, 0x80, 0x00, 0x00, 
0x00, 0x00, 0x00, 0xe4, 0xd6, 0x87, 0x00, 0x00, 
0x00, 0x00, 0x00, 0x04, 0x00, 0x80, 0x00, 0x00, 
0x00, 0x00, 0x00, 0xa4, 0xbb, 0x83, 0x00, 0x00, 
0x00, 0x00, 0x00, 0x04, 0x00, 0x80, 0x00, 0x00, 
0x00, 0x00, 0x00, 0xe4, 0xda, 0x8d, 0x00, 0x00, 
0x00, 0x00, 0x00, 0x04, 0x00, 0x80, 0x00, 0x00, 
0x00, 0x00, 0x00, 0xe4, 0x7d, 0x87, 0x00, 0x00, 
0x00, 0x00, 0x00, 0x04, 0x00, 0x80, 0x00, 0x00, 
0x00, 0x00, 0x00, 0xfc, 0xff, 0xff, 0x00, 0x00, 
0x00, 0x00, 0x00, 0x00, 0x00, 0x00, 0x00, 0x00, 
0x00, 0x00, 0x00, 0x00, 0x00, 0x00, 0x00, 0x00, 
0x00, 0x00, 0x00, 0x00, 0x00, 0x00, 0x00, 0x00, 
0x00, 0x00, 0x1e, 0x01, 0x00, 0x00, 0x00, 0x00, 
0x00, 0x00, 0x21, 0x01, 0x00, 0x00, 0x00, 0x00, 
0x00, 0x00, 0x21, 0x01, 0x00, 0x00, 0x00, 0x00, 
0x00, 0x00, 0x02, 0x1d, 0x9e, 0x20, 0x00, 0x00, 
0x00, 0x00, 0x0c, 0x23, 0xa1, 0x20, 0x00, 0x00, 
0x00, 0x00, 0x10, 0x21, 0xa1, 0x24, 0x00, 0x00, 
0x00, 0x00, 0x20, 0x21, 0xa1, 0x24, 0x00, 0x00, 
0x00, 0x00, 0x21, 0x21, 0xa1, 0x24, 0x00, 0x00, 
0x00, 0x00, 0x21, 0x21, 0xa1, 0x24, 0x00, 0x00, 
0x00, 0x00, 0x1e, 0x21, 0x1e, 0x1b, 0x00, 0x00, 
0x00, 0x00, 0x00, 0x00, 0x00, 0x00, 0x00, 0x00, 
0x00, 0x00, 0x00, 0x00, 0x00, 0x00, 0x00, 0x00, 
0x00, 0x00, 0x00, 0x00, 0x00, 0x00, 0x00, 0x00, 
0x00, 0x00, 0x00, 0x00, 0x00, 0x00, 0x00, 0x00, 
0x00, 0x00, 0x00, 0x00, 0x00, 0x00, 0x00, 0x00, 
0x00, 0x00, 0x00, 0x00, 0x00, 0x00, 0x00, 0x00, 
0x00, 0x00, 0x00, 0x00, 0x00, 0x00, 0x00, 0x00, 
0x00, 0x00, 0x00, 0x00, 0x00, 0x00, 0x00, 0x00, 
0x00, 0x00, 0x00, 0x00, 0x00, 0x00, 0x00, 0x00, 
0x00, 0x00, 0x00, 0x00, 0x00, 0x00, 0x00, 0x00, 
0x00, 0x00, 0x00, 0x00, 0x00, 0x00, 0x00, 0x00, 
0x00, 0x00, 0x00, 0x00, 0x00, 0x00, 0x00, 0x00, 
0x00, 0x00, 0x00, 0x00, 0x00, 0x00, 0x00, 0x00, 
0x00, 0x00, 0x00, 0x00, 0x00, 0x00, 0x00, 0x00, 
0x00, 0x00, 0x00, 0x00, 0x00, 0x00, 0x00, 0x00, 
}; 
