#define x_width 64
#define x_height 64
static char x_bits[] = {
0x00, 0x00, 0x00, 0x00, 0x00, 0x00, 0x00, 0x00, 
0x00, 0x00, 0x00, 0x00, 0x00, 0x00, 0x00, 0x00, 
0x00, 0x00, 0x00, 0x00, 0x00, 0x00, 0x00, 0x00, 
0x00, 0x00, 0x00, 0x00, 0x00, 0x00, 0x00, 0x00, 
0x00, 0x00, 0x00, 0x00, 0x00, 0x00, 0x00, 0x00, 
0x00, 0x00, 0x00, 0x00, 0x00, 0x00, 0x00, 0x00, 
0x00, 0x00, 0x00, 0x00, 0x00, 0x00, 0x00, 0x00, 
0x08, 0x00, 0x20, 0x00, 0x08, 0x80, 0x00, 0x00, 
0x08, 0x00, 0x20, 0x00, 0x08, 0x80, 0x00, 0x00, 
0x68, 0x38, 0x2c, 0x00, 0x8b, 0xe3, 0xe3, 0x00, 
0x98, 0x44, 0x32, 0x80, 0x4c, 0x84, 0x10, 0x01, 
0x88, 0x40, 0x22, 0x80, 0x08, 0x84, 0x00, 0x01, 
0x88, 0x78, 0x22, 0x80, 0x88, 0x87, 0xe0, 0x01, 
0x88, 0x44, 0x22, 0x80, 0x48, 0x84, 0x10, 0x01, 
0x98, 0x44, 0x32, 0x80, 0x4c, 0x84, 0x10, 0x01, 
0x68, 0x78, 0x2c, 0x00, 0x8b, 0x07, 0xe3, 0x01, 
0x00, 0x00, 0x00, 0x00, 0x00, 0x00, 0x00, 0x00, 
0x00, 0x00, 0x00, 0x00, 0x00, 0x00, 0x00, 0x00, 
0x00, 0x00, 0x00, 0x00, 0x00, 0x00, 0x00, 0x00, 
0x00, 0x00, 0x08, 0x00, 0x00, 0x00, 0x00, 0x01, 
0x00, 0x00, 0x08, 0x00, 0x00, 0x00, 0x00, 0x01, 
0x68, 0x38, 0x3e, 0x91, 0x46, 0xc3, 0x61, 0x01, 
0x98, 0x44, 0x08, 0x91, 0xc9, 0x24, 0x92, 0x01, 
0x08, 0x44, 0x08, 0x91, 0x40, 0x24, 0x12, 0x01, 
0x08, 0x7c, 0x08, 0x91, 0x40, 0xe4, 0x13, 0x01, 
0x08, 0x04, 0x08, 0x91, 0x40, 0x24, 0x10, 0x01, 
0x08, 0x44, 0x08, 0x99, 0x40, 0x24, 0x92, 0x01, 
0x08, 0x38, 0x30, 0x96, 0x40, 0xc4, 0x61, 0x01, 
0x00, 0x00, 0x00, 0x00, 0x00, 0x00, 0x00, 0x00, 
0x00, 0x00, 0x00, 0x00, 0x00, 0x00, 0x00, 0x00, 
0x00, 0x00, 0x00, 0x00, 0x00, 0x00, 0x00, 0x00, 
0x00, 0x00, 0x00, 0x00, 0x00, 0x00, 0x00, 0x00, 
0x00, 0x00, 0x00, 0x00, 0x00, 0x00, 0x00, 0x00, 
0x00, 0x00, 0x00, 0x04, 0x00, 0x00, 0x00, 0x00, 
0x00, 0x00, 0x00, 0x0c, 0x00, 0x00, 0x00, 0x00, 
0x00, 0x00, 0x00, 0x0a, 0x00, 0x00, 0x00, 0x00, 
0x00, 0x18, 0x00, 0x0a, 0x00, 0x00, 0x00, 0x00, 
0x00, 0x18, 0x00, 0x0a, 0x00, 0x00, 0x00, 0x00, 
0x00, 0x18, 0x00, 0x12, 0x00, 0x00, 0x00, 0x00, 
0x00, 0x18, 0x00, 0x12, 0x00, 0x00, 0x00, 0x00, 
0x00, 0x18, 0x00, 0x12, 0x00, 0x00, 0x00, 0x00, 
0x00, 0x18, 0x00, 0x11, 0x00, 0x00, 0x00, 0x00, 
0x00, 0x14, 0x00, 0x11, 0x00, 0x00, 0x00, 0x00, 
0x00, 0x14, 0x00, 0x11, 0x00, 0x00, 0x00, 0x00, 
0x00, 0x74, 0x00, 0x51, 0x04, 0x00, 0x00, 0x00, 
0x00, 0x84, 0x00, 0xb1, 0x03, 0x00, 0x00, 0x00, 
0x00, 0x84, 0x00, 0x01, 0x00, 0x00, 0x00, 0x00, 
0x80, 0x83, 0x00, 0x01, 0x00, 0x00, 0x00, 0x00, 
0x44, 0x80, 0x08, 0x01, 0x00, 0x00, 0x00, 0x00, 
0x5c, 0x80, 0x4a, 0x01, 0x00, 0x00, 0x00, 0x00, 
0x22, 0x80, 0xb5, 0x00, 0x00, 0x00, 0x00, 0x00, 
0x00, 0x00, 0x00, 0x00, 0x00, 0x00, 0x00, 0x00, 
0x00, 0x00, 0x00, 0x00, 0xf8, 0xf8, 0xf8, 0xf8, 
0x00, 0x00, 0x00, 0x00, 0x00, 0x00, 0x00, 0x00, 
0x00, 0x00, 0x00, 0x00, 0x00, 0x00, 0x00, 0x00, 
0x00, 0x00, 0x00, 0x00, 0x00, 0x00, 0x00, 0x00, 
0x00, 0x00, 0x00, 0x00, 0x00, 0x00, 0x00, 0x00, 
0x00, 0x00, 0x00, 0x00, 0x00, 0x00, 0x00, 0x00, 
0x00, 0x00, 0x00, 0x00, 0x00, 0x00, 0x00, 0x00, 
0x00, 0x00, 0x00, 0x00, 0x00, 0x00, 0x00, 0x00, 
0x00, 0x00, 0x00, 0x00, 0x00, 0x00, 0x00, 0x00, 
0x00, 0x00, 0x00, 0x00, 0x00, 0x00, 0x00, 0x00, 
0x00, 0x00, 0x00, 0x00, 0x00, 0x00, 0x00, 0x00, 
0x00, 0x00, 0x00, 0x00, 0x00, 0x00, 0x00, 0x00, 
}; 
