#define x_width 32
#define x_height 27
static char x_bits[] = {
0x11, 0x11, 0x51, 0x00, 
0x11, 0x11, 0x11, 0x00, 
0x44, 0x44, 0x44, 0x00, 
0x44, 0x44, 0x44, 0x00, 
0x11, 0x11, 0x11, 0x00, 
0x11, 0x11, 0x11, 0x00, 
0x04, 0x00, 0x44, 0x00, 
0x04, 0x00, 0x44, 0x00, 
0x01, 0x00, 0x10, 0x00, 
0x01, 0x00, 0x10, 0x00, 
0x04, 0x00, 0x44, 0x00, 
0x04, 0x00, 0x44, 0x00, 
0x01, 0x00, 0x10, 0x00, 
0x01, 0x00, 0x10, 0x00, 
0x04, 0x00, 0x44, 0x00, 
0x04, 0x00, 0x44, 0x00, 
0x01, 0x00, 0x10, 0x00, 
0x01, 0x00, 0x10, 0x00, 
0x04, 0x00, 0x44, 0x00, 
0x04, 0x00, 0x44, 0x00, 
0x11, 0x11, 0x11, 0x00, 
0x11, 0x11, 0x11, 0x00, 
0x44, 0x44, 0x44, 0x00, 
0x44, 0x44, 0x44, 0x00, 
0x11, 0x11, 0x11, 0x00, 
0x11, 0x11, 0x51, 0x00, 
0x00, 0x00, 0x00, 0x00, 
}; 
