#define x_width 64
#define x_height 64
static char x_bits[] = {
0x00, 0x00, 0x00, 0x00, 0x00, 0x00, 0x00, 0x00, 
0x00, 0x00, 0x00, 0x00, 0x00, 0x00, 0x00, 0x00, 
0x00, 0x00, 0x00, 0x00, 0x00, 0x00, 0x00, 0x00, 
0x00, 0x00, 0x00, 0x00, 0x00, 0x00, 0x00, 0x00, 
0x00, 0x00, 0x00, 0x00, 0x00, 0x00, 0x00, 0x00, 
0x00, 0x00, 0x00, 0x00, 0x00, 0x00, 0x00, 0x00, 
0x00, 0x00, 0x00, 0x00, 0x00, 0x00, 0x00, 0x00, 
0x00, 0x00, 0xe0, 0xff, 0xff, 0x03, 0x00, 0x00, 
0x00, 0x00, 0x30, 0x00, 0x00, 0x06, 0x00, 0x00, 
0x00, 0x00, 0x18, 0x00, 0x00, 0x0c, 0x00, 0x00, 
0x00, 0x00, 0x0c, 0x00, 0x00, 0x18, 0x00, 0x00, 
0x00, 0x00, 0x86, 0xff, 0xff, 0x30, 0x00, 0x00, 
0x00, 0x00, 0xc3, 0xff, 0xff, 0x61, 0x00, 0x00, 
0x00, 0x80, 0xe1, 0xff, 0xff, 0xc3, 0x00, 0x00, 
0x00, 0xc0, 0xf0, 0xff, 0xff, 0x87, 0x01, 0x00, 
0x00, 0x60, 0xf8, 0xff, 0xff, 0x0f, 0x03, 0x00, 
0x00, 0x30, 0xfc, 0x1f, 0xfc, 0x1f, 0x06, 0x00, 
0x00, 0x18, 0xfe, 0x07, 0xf0, 0x3f, 0x0c, 0x00, 
0x00, 0x0c, 0xff, 0x03, 0xe0, 0x7f, 0x18, 0x00, 
0x00, 0x86, 0xff, 0x01, 0xc0, 0xff, 0x30, 0x00, 
0x00, 0xc3, 0xff, 0x00, 0x80, 0xff, 0x61, 0x00, 
0x80, 0xe1, 0x7f, 0xc0, 0x83, 0xff, 0xc3, 0x00, 
0xc0, 0xf0, 0x7f, 0xe0, 0x07, 0xff, 0x87, 0x01, 
0x40, 0xf8, 0x7f, 0xf0, 0x07, 0xff, 0x0f, 0x01, 
0x40, 0xfc, 0xff, 0xf8, 0x07, 0xff, 0x1f, 0x01, 
0x40, 0xfc, 0xff, 0xff, 0x07, 0xff, 0x1f, 0x01, 
0x40, 0xfc, 0xff, 0xff, 0x03, 0xff, 0x1f, 0x01, 
0x40, 0xfc, 0xff, 0xff, 0x81, 0xff, 0x1f, 0x01, 
0x40, 0xfc, 0xff, 0xff, 0x80, 0xff, 0x1f, 0x01, 
0x40, 0xfc, 0xff, 0x7f, 0xc0, 0xff, 0x1f, 0x01, 
0x40, 0xfc, 0xff, 0x3f, 0xe0, 0xff, 0x1f, 0x01, 
0x40, 0xfc, 0xff, 0x1f, 0xf0, 0xff, 0x1f, 0x01, 
0x40, 0xfc, 0xff, 0x1f, 0xf8, 0xff, 0x1f, 0x01, 
0x40, 0xfc, 0xff, 0x1f, 0xfc, 0xff, 0x1f, 0x01, 
0x40, 0xfc, 0xff, 0x1f, 0xfc, 0xff, 0x1f, 0x01, 
0x40, 0xfc, 0xff, 0x1f, 0xfc, 0xff, 0x1f, 0x01, 
0x40, 0xfc, 0xff, 0x1f, 0xfc, 0xff, 0x1f, 0x01, 
0x40, 0xfc, 0xff, 0x1f, 0xfc, 0xff, 0x1f, 0x01, 
0x40, 0xfc, 0xff, 0x1f, 0xfc, 0xff, 0x1f, 0x01, 
0x40, 0xfc, 0xff, 0x1f, 0xfc, 0xff, 0x1f, 0x01, 
0x40, 0xfc, 0xff, 0x1f, 0xfc, 0xff, 0x1f, 0x01, 
0x40, 0xf8, 0xff, 0x3f, 0xfe, 0xff, 0x0f, 0x01, 
0xc0, 0xf0, 0xff, 0xff, 0xff, 0xff, 0x87, 0x01, 
0x80, 0xe1, 0xff, 0xff, 0xff, 0xff, 0xc3, 0x00, 
0x00, 0xc3, 0xff, 0x3f, 0xfe, 0xff, 0x61, 0x00, 
0x00, 0x86, 0xff, 0x1f, 0xfc, 0xff, 0x30, 0x00, 
0x00, 0x0c, 0xff, 0x1f, 0xfc, 0x7f, 0x18, 0x00, 
0x00, 0x18, 0xfe, 0x1f, 0xfc, 0x3f, 0x0c, 0x00, 
0x00, 0x30, 0xfc, 0x3f, 0xfe, 0x1f, 0x06, 0x00, 
0x00, 0x60, 0xf8, 0xff, 0xff, 0x0f, 0x03, 0x00, 
0x00, 0xc0, 0xf0, 0xff, 0xff, 0x87, 0x01, 0x00, 
0x00, 0x80, 0xe1, 0xff, 0xff, 0xc3, 0x00, 0x00, 
0x00, 0x00, 0xc3, 0xff, 0xff, 0x61, 0x00, 0x00, 
0x00, 0x00, 0x86, 0xff, 0xff, 0x30, 0x00, 0x00, 
0x00, 0x00, 0x0c, 0x00, 0x00, 0x18, 0x00, 0x00, 
0x00, 0x00, 0x18, 0x00, 0x00, 0x0c, 0x00, 0x00, 
0x00, 0x00, 0x30, 0x00, 0x00, 0x06, 0x00, 0x00, 
0x00, 0x00, 0xe0, 0xff, 0xff, 0x03, 0x00, 0x00, 
0x00, 0x00, 0x00, 0x00, 0x00, 0x00, 0x00, 0x00, 
0x00, 0x00, 0x00, 0x00, 0x00, 0x00, 0x00, 0x00, 
0x00, 0x00, 0x00, 0x00, 0x00, 0x00, 0x00, 0x00, 
0x00, 0x00, 0x00, 0x00, 0x00, 0x00, 0x00, 0x00, 
0x00, 0x00, 0x00, 0x00, 0x00, 0x00, 0x00, 0x00, 
0x00, 0x00, 0x00, 0x00, 0x00, 0x00, 0x00, 0x00, 
}; 
