#define x_width 64
#define x_height 64
static char x_bits[] = {
0x00, 0x00, 0x00, 0x00, 0x00, 0x00, 0x00, 0x00, 
0x00, 0x00, 0x00, 0x00, 0x00, 0x00, 0x00, 0x00, 
0x00, 0x00, 0xc0, 0xff, 0xff, 0x03, 0x00, 0x00, 
0x00, 0x00, 0x40, 0x00, 0x00, 0x02, 0x00, 0x00, 
0x00, 0x00, 0x40, 0x05, 0x60, 0x02, 0x00, 0x00, 
0x00, 0x00, 0x40, 0x00, 0x60, 0x02, 0x00, 0x00, 
0x00, 0x00, 0x40, 0x60, 0x01, 0x02, 0x00, 0x00, 
0x00, 0x00, 0x40, 0x00, 0x00, 0x02, 0x00, 0x00, 
0x00, 0x00, 0x40, 0xa0, 0x02, 0x02, 0x00, 0x00, 
0x00, 0x00, 0x40, 0x00, 0x00, 0x02, 0x00, 0x00, 
0x00, 0x00, 0x40, 0x00, 0x00, 0x02, 0x00, 0x00, 
0x00, 0x00, 0xc0, 0xff, 0xff, 0x03, 0x00, 0x00, 
0x00, 0x00, 0x00, 0x00, 0x00, 0x00, 0x00, 0x00, 
0x00, 0x00, 0x00, 0xc0, 0x03, 0x00, 0x00, 0x00, 
0x00, 0x00, 0x00, 0xc0, 0x03, 0x00, 0x00, 0x00, 
0x00, 0x00, 0x00, 0xc0, 0x03, 0x00, 0x00, 0x00, 
0x00, 0x00, 0x00, 0xc0, 0x03, 0x00, 0x00, 0x00, 
0x00, 0x80, 0x0f, 0xf8, 0x1f, 0x00, 0x00, 0x00, 
0x00, 0x40, 0x10, 0xf0, 0x0f, 0x00, 0x00, 0x00, 
0x00, 0x70, 0xf0, 0xe0, 0x07, 0x1f, 0x00, 0x00, 
0x00, 0x10, 0x00, 0xc0, 0x03, 0x10, 0x00, 0x00, 
0x00, 0x10, 0x00, 0x80, 0x01, 0x10, 0x00, 0x00, 
0x00, 0x10, 0xf8, 0xff, 0xff, 0xff, 0x03, 0x00, 
0x00, 0x10, 0x04, 0x00, 0x00, 0x00, 0x02, 0x00, 
0x00, 0x10, 0x04, 0x00, 0x00, 0x00, 0x02, 0x00, 
0x00, 0x10, 0x02, 0x00, 0x00, 0x00, 0x01, 0x00, 
0x00, 0x10, 0x02, 0x00, 0x00, 0x00, 0x01, 0x00, 
0x00, 0x10, 0x01, 0x00, 0x00, 0x80, 0x00, 0x00, 
0x00, 0x10, 0x01, 0x00, 0x00, 0x80, 0x00, 0x00, 
0x00, 0x90, 0x00, 0x00, 0x00, 0x40, 0x00, 0x00, 
0x00, 0x90, 0x00, 0x00, 0x00, 0x40, 0x00, 0x00, 
0x00, 0x50, 0x00, 0x00, 0x00, 0x20, 0x00, 0x00, 
0x00, 0x50, 0x00, 0x00, 0x00, 0x20, 0x00, 0x00, 
0x00, 0x30, 0x00, 0x00, 0x00, 0x10, 0x00, 0x00, 
0x00, 0xf0, 0xff, 0xff, 0xff, 0x1f, 0x00, 0x00, 
0x00, 0x00, 0x00, 0x00, 0x00, 0x00, 0x00, 0x00, 
0x00, 0x00, 0x00, 0x00, 0x00, 0x00, 0x00, 0x00, 
0x00, 0x00, 0x00, 0x00, 0x00, 0x00, 0x00, 0x00, 
0x00, 0x00, 0x00, 0x00, 0x00, 0x00, 0x00, 0x00, 
0x00, 0xe0, 0x41, 0x00, 0x00, 0x00, 0x00, 0x00, 
0x00, 0x10, 0x42, 0x00, 0x00, 0x00, 0x00, 0x00, 
0x00, 0x10, 0x42, 0x00, 0x00, 0x00, 0x00, 0x00, 
0x00, 0x20, 0xf0, 0xe1, 0xd1, 0xe1, 0x01, 0x00, 
0x00, 0xc0, 0x40, 0x10, 0x32, 0x12, 0x02, 0x00, 
0x00, 0x00, 0x41, 0x10, 0x12, 0x10, 0x02, 0x00, 
0x00, 0x00, 0x42, 0x10, 0x12, 0xf0, 0x03, 0x00, 
0x00, 0x10, 0x42, 0x10, 0x12, 0x10, 0x00, 0x00, 
0x00, 0x10, 0x42, 0x12, 0x12, 0x10, 0x02, 0x00, 
0x00, 0xe0, 0x81, 0xe1, 0x11, 0xe0, 0x01, 0x00, 
0x00, 0x00, 0x00, 0x00, 0x00, 0x00, 0x00, 0x00, 
0x00, 0x00, 0x00, 0x00, 0x00, 0x00, 0x00, 0x00, 
0x00, 0x00, 0x00, 0x00, 0x00, 0x00, 0x00, 0x00, 
0x00, 0x00, 0x00, 0x00, 0x00, 0x00, 0x00, 0x00, 
0x00, 0x00, 0x00, 0x00, 0x00, 0x00, 0x00, 0x00, 
0x00, 0x00, 0x00, 0x00, 0x00, 0x00, 0x00, 0x00, 
0x00, 0x00, 0x00, 0x00, 0x00, 0x00, 0x00, 0x00, 
0x00, 0x00, 0x00, 0x00, 0x00, 0x00, 0x00, 0x00, 
0x00, 0x00, 0x00, 0x00, 0x00, 0x00, 0x00, 0x00, 
0x00, 0x00, 0x00, 0x00, 0x00, 0x00, 0x00, 0x00, 
0x00, 0x00, 0x00, 0x00, 0x00, 0x00, 0x00, 0x00, 
0x00, 0x00, 0x00, 0x00, 0x00, 0x00, 0x00, 0x00, 
0x00, 0x00, 0x00, 0x00, 0x00, 0x00, 0x00, 0x00, 
0x00, 0x00, 0x00, 0x00, 0x00, 0x00, 0x00, 0x00, 
0x00, 0x00, 0x00, 0x00, 0x00, 0x00, 0x00, 0x00, 
}; 
