#define x_width 64
#define x_height 64
static char x_bits[] = {
0x00, 0x00, 0x00, 0x00, 0x00, 0x00, 0x00, 0x00, 
0x00, 0xc0, 0x01, 0x00, 0x00, 0x00, 0x00, 0x00, 
0x00, 0xe0, 0x03, 0x00, 0x00, 0x00, 0x00, 0x00, 
0x00, 0x60, 0x07, 0x00, 0x00, 0x00, 0x00, 0x00, 
0x00, 0xe8, 0x0e, 0x00, 0x00, 0x00, 0x00, 0x00, 
0x00, 0xdc, 0x1d, 0x00, 0x00, 0x00, 0x00, 0x00, 
0x00, 0xba, 0x3b, 0x00, 0x00, 0x00, 0x00, 0x00, 
0x00, 0x77, 0x77, 0x00, 0x00, 0x00, 0x00, 0x00, 
0x80, 0xee, 0xae, 0x00, 0x00, 0x00, 0x00, 0x00, 
0xc0, 0xdd, 0xdd, 0x01, 0x00, 0x00, 0x00, 0x00, 
0xe0, 0xba, 0xeb, 0x02, 0x00, 0x00, 0x00, 0x00, 
0x70, 0x77, 0x73, 0x07, 0x00, 0x00, 0x00, 0x00, 
0xb8, 0xe3, 0xbb, 0x03, 0x00, 0x00, 0x00, 0x00, 
0xdc, 0xdd, 0xdd, 0x1d, 0x00, 0x00, 0x00, 0x00, 
0xee, 0x3e, 0xee, 0x3e, 0x00, 0x00, 0x00, 0x00, 
0x76, 0x37, 0x76, 0x37, 0x00, 0x00, 0x00, 0x00, 
0xbe, 0x3b, 0xbe, 0x3b, 0x00, 0x00, 0x00, 0x00, 
0xdc, 0xdd, 0xdd, 0x1d, 0x00, 0x00, 0x00, 0x00, 
0xe0, 0xee, 0xe3, 0x0e, 0x00, 0x00, 0x00, 0x00, 
0x70, 0x67, 0x77, 0x07, 0x00, 0x00, 0x00, 0x00, 
0xa0, 0xeb, 0xae, 0x03, 0x00, 0x00, 0x00, 0x00, 
0xc0, 0xdd, 0xdd, 0x01, 0x00, 0x00, 0x00, 0x00, 
0x80, 0xba, 0xbb, 0x00, 0x00, 0x00, 0x00, 0x00, 
0x00, 0x77, 0x77, 0x00, 0x00, 0x00, 0x00, 0x00, 
0x00, 0xee, 0x2e, 0x00, 0x00, 0x00, 0x00, 0x00, 
0x00, 0xdc, 0x1d, 0x00, 0x00, 0x00, 0x00, 0x00, 
0x00, 0xb8, 0x0b, 0x00, 0x00, 0x00, 0x00, 0x00, 
0x00, 0x70, 0x03, 0x00, 0x00, 0x00, 0x00, 0x00, 
0x00, 0xe0, 0x03, 0x00, 0x00, 0x00, 0x00, 0x00, 
0x00, 0xc0, 0x01, 0x00, 0x00, 0x00, 0x00, 0x00, 
0x00, 0x00, 0x00, 0x00, 0x00, 0x00, 0x00, 0x00, 
0x00, 0x00, 0x00, 0x00, 0x00, 0x00, 0x00, 0x00, 
0x00, 0x00, 0x00, 0x00, 0x00, 0x00, 0x00, 0x00, 
0x00, 0x00, 0x00, 0x00, 0x00, 0x00, 0x00, 0x00, 
0x00, 0x00, 0x00, 0x00, 0x00, 0x00, 0x00, 0x00, 
0x00, 0x00, 0x00, 0x00, 0x00, 0x00, 0x00, 0x00, 
0x00, 0x00, 0x00, 0x00, 0x00, 0x00, 0x00, 0x00, 
0x00, 0x00, 0x00, 0x00, 0x00, 0x00, 0x00, 0x00, 
0x00, 0x00, 0x00, 0x00, 0x00, 0x00, 0x00, 0x00, 
0x00, 0x00, 0x00, 0x00, 0x00, 0x00, 0x00, 0x00, 
0x00, 0x00, 0x00, 0x00, 0x00, 0x00, 0x00, 0x00, 
0x00, 0x00, 0x00, 0x00, 0x00, 0x00, 0x00, 0x00, 
0x00, 0x00, 0x00, 0x00, 0x00, 0x00, 0x00, 0x00, 
0x00, 0x00, 0x00, 0x00, 0x00, 0x00, 0x00, 0x00, 
0x00, 0x00, 0x00, 0x00, 0x00, 0x00, 0x00, 0x00, 
0x00, 0x00, 0x00, 0x00, 0x00, 0x00, 0x00, 0x00, 
0x00, 0x00, 0x00, 0x00, 0x00, 0x00, 0x00, 0x00, 
0x00, 0x00, 0x00, 0x00, 0x00, 0x00, 0x00, 0x00, 
0x00, 0x00, 0x00, 0x00, 0x00, 0x00, 0x00, 0x00, 
0x00, 0x00, 0x00, 0x00, 0x00, 0x00, 0x00, 0x00, 
0x00, 0x00, 0x00, 0x00, 0x00, 0x00, 0x00, 0x00, 
0x00, 0x00, 0x00, 0x00, 0x00, 0x00, 0x00, 0x00, 
0x00, 0x00, 0x00, 0x00, 0x00, 0x00, 0x00, 0x00, 
0x00, 0x00, 0x00, 0x00, 0x00, 0x00, 0x00, 0x00, 
0x00, 0x00, 0x00, 0x00, 0x00, 0x00, 0x00, 0x00, 
0x00, 0x00, 0x00, 0x00, 0x00, 0x00, 0x00, 0x00, 
0x00, 0x00, 0x00, 0x00, 0x00, 0x00, 0x00, 0x00, 
0x00, 0x00, 0x00, 0x00, 0x00, 0x00, 0x00, 0x00, 
0x00, 0x00, 0x00, 0x00, 0x00, 0x00, 0x00, 0x00, 
0x00, 0x00, 0x00, 0x00, 0x00, 0x00, 0x00, 0x00, 
0x00, 0x00, 0x00, 0x00, 0x00, 0x00, 0x00, 0x00, 
0x00, 0x00, 0x00, 0x00, 0x00, 0x00, 0x00, 0x00, 
0x00, 0x00, 0x00, 0x00, 0x00, 0x00, 0x00, 0x00, 
0x00, 0x00, 0x00, 0x00, 0x00, 0x00, 0x00, 0x00, 
}; 
