#define x_width 64
#define x_height 64
static char x_bits[] = {
0x00, 0x00, 0x00, 0x00, 0x00, 0xf0, 0xff, 0xff, 
0x00, 0x00, 0x00, 0x00, 0x00, 0x10, 0x00, 0x80, 
0x00, 0x00, 0x00, 0x00, 0x00, 0x10, 0xff, 0x8f, 
0x00, 0x00, 0x00, 0x00, 0x00, 0x90, 0x00, 0x90, 
0x00, 0x00, 0x00, 0x0c, 0x00, 0x50, 0x00, 0xa0, 
0x00, 0x00, 0x80, 0x0b, 0x00, 0x50, 0x08, 0xa2, 
0x00, 0x00, 0x70, 0x10, 0x00, 0x50, 0x08, 0xa2, 
0x00, 0x00, 0x0e, 0x10, 0x00, 0x50, 0x08, 0xa2, 
0x00, 0x80, 0x01, 0x13, 0x00, 0x50, 0x08, 0xa2, 
0x00, 0x70, 0xe0, 0x22, 0x00, 0x50, 0x08, 0xa2, 
0x00, 0x0e, 0x1c, 0x24, 0x00, 0x50, 0x08, 0xa2, 
0xc0, 0x01, 0x03, 0x24, 0x00, 0x50, 0x18, 0xa6, 
0x30, 0xe0, 0x00, 0x44, 0x00, 0x50, 0x38, 0xae, 
0x10, 0x1c, 0x00, 0x48, 0x00, 0xd0, 0x75, 0xbd, 
0x20, 0x03, 0x40, 0x4a, 0x00, 0x50, 0x82, 0xa0, 
0x20, 0x01, 0xd2, 0x8a, 0x00, 0x50, 0x82, 0xa0, 
0x20, 0x62, 0x52, 0x93, 0x00, 0x50, 0x00, 0xa0, 
0x40, 0x12, 0x52, 0x12, 0x01, 0x90, 0x00, 0x90, 
0x40, 0xf2, 0x52, 0x22, 0x01, 0x10, 0xff, 0x8f, 
0x40, 0x82, 0x0c, 0x20, 0x01, 0x10, 0x00, 0x80, 
0x40, 0x64, 0x00, 0x2c, 0x02, 0x10, 0xc6, 0x98, 
0x80, 0x04, 0x40, 0x42, 0x3e, 0x10, 0xc6, 0x98, 
0x80, 0x04, 0xa4, 0x5a, 0x42, 0x10, 0xc6, 0x80, 
0x80, 0x08, 0xa4, 0x52, 0x84, 0xf0, 0xff, 0xff, 
0x00, 0xc9, 0xf4, 0x9d, 0x04, 0x01, 0x82, 0x00, 
0x00, 0x49, 0x15, 0xc1, 0x04, 0x02, 0x82, 0x00, 
0x00, 0x51, 0x05, 0x38, 0x08, 0xfc, 0x81, 0x00, 
0x00, 0x52, 0x01, 0x07, 0x1c, 0x00, 0x40, 0x00, 
0x00, 0xd2, 0xe0, 0x80, 0xf3, 0x01, 0x40, 0x00, 
0x00, 0x12, 0x1c, 0x70, 0x20, 0x02, 0x20, 0x00, 
0x00, 0xa2, 0x03, 0x0e, 0x4c, 0x0c, 0x30, 0x00, 
0x00, 0x64, 0xc0, 0x81, 0x81, 0x30, 0x0c, 0x00, 
0x00, 0x04, 0x38, 0x60, 0x80, 0xc1, 0x03, 0x00, 
0x18, 0x04, 0x07, 0x0c, 0x70, 0x00, 0x00, 0x00, 
0x18, 0xe8, 0x80, 0x01, 0x0e, 0x00, 0x00, 0x00, 
0x18, 0x18, 0x60, 0xc0, 0x01, 0x00, 0x00, 0x00, 
0x18, 0x08, 0x0c, 0x38, 0x00, 0x00, 0x00, 0x00, 
0x18, 0x08, 0x03, 0x06, 0x00, 0x00, 0x00, 0x00, 
0x18, 0x68, 0xc0, 0x0d, 0x00, 0x00, 0x00, 0x00, 
0x18, 0x08, 0x38, 0x1c, 0x00, 0x00, 0x00, 0x00, 
0x18, 0x08, 0x07, 0x18, 0x20, 0x00, 0x00, 0x00, 
0x18, 0xe8, 0x00, 0x38, 0x7c, 0x00, 0x00, 0x00, 
0x18, 0x18, 0x00, 0x78, 0x86, 0x00, 0x00, 0x00, 
0x18, 0x00, 0x00, 0xfc, 0x01, 0x00, 0x00, 0x00, 
0x18, 0x00, 0x00, 0x76, 0x00, 0x00, 0x00, 0x00, 
0x18, 0x00, 0x84, 0xf1, 0x00, 0x00, 0x00, 0x00, 
0x18, 0x00, 0xf8, 0xe0, 0x00, 0x00, 0x00, 0x00, 
0x18, 0x00, 0x00, 0xe0, 0x01, 0x00, 0x00, 0x00, 
0x18, 0x00, 0x00, 0xf0, 0x00, 0x00, 0x00, 0x00, 
0x18, 0x00, 0x00, 0x8f, 0x00, 0x00, 0x00, 0x00, 
0x18, 0x00, 0xc0, 0x01, 0x31, 0x00, 0x00, 0x00, 
0x18, 0x00, 0x40, 0x00, 0x4d, 0x00, 0x00, 0x00, 
0x18, 0x00, 0x40, 0x00, 0x42, 0x00, 0x00, 0x00, 
0x18, 0x00, 0x40, 0x00, 0x00, 0x00, 0x00, 0x00, 
0x18, 0x00, 0x78, 0x00, 0x00, 0x00, 0x00, 0x00, 
0x98, 0x1f, 0x00, 0x00, 0x00, 0x1f, 0x00, 0x00, 
0xd8, 0xe1, 0xff, 0xff, 0xff, 0x39, 0x00, 0x00, 
0xd8, 0x03, 0x00, 0x00, 0x00, 0x3c, 0x00, 0x00, 
0xd8, 0x01, 0x00, 0x00, 0x00, 0x38, 0x00, 0x00, 
0x98, 0xff, 0xff, 0xff, 0xff, 0x1f, 0x00, 0x00, 
0xf8, 0xff, 0xff, 0xff, 0xff, 0xff, 0x00, 0x00, 
0x1c, 0x00, 0x00, 0x00, 0x00, 0xc0, 0x01, 0x00, 
0x3e, 0x00, 0x00, 0x00, 0x00, 0xe0, 0x03, 0x00, 
0x3e, 0x00, 0x00, 0x00, 0x00, 0xe0, 0x03, 0x00, 
}; 
