#define x_width 64
#define x_height 64
static char x_bits[] = {
0xf1, 0xff, 0xff, 0xff, 0xff, 0xff, 0x17, 0x11, 
0x31, 0x00, 0x00, 0x00, 0x00, 0x00, 0x10, 0x11, 
0xd4, 0xff, 0xff, 0xff, 0xff, 0xff, 0x4f, 0x44, 
0x94, 0x00, 0x00, 0x00, 0x00, 0x00, 0x40, 0x44, 
0x11, 0xfe, 0xff, 0xff, 0xff, 0xff, 0xff, 0x11, 
0x11, 0x00, 0x00, 0x00, 0x00, 0x00, 0x80, 0x11, 
0x14, 0xfc, 0xff, 0xff, 0xff, 0xff, 0xff, 0x44, 
0x14, 0x04, 0x00, 0x00, 0x00, 0x00, 0x80, 0x44, 
0x11, 0x04, 0x00, 0x00, 0x00, 0x00, 0x80, 0x11, 
0x11, 0x04, 0x00, 0x00, 0x00, 0x00, 0x80, 0x11, 
0x14, 0x04, 0xf0, 0x01, 0x00, 0x00, 0x80, 0x44, 
0x14, 0x04, 0x18, 0x03, 0x00, 0x00, 0x80, 0x44, 
0x11, 0x04, 0x18, 0x03, 0x00, 0x00, 0x80, 0x11, 
0x11, 0x04, 0x30, 0x30, 0xa6, 0x07, 0x80, 0x11, 
0x14, 0x04, 0xe0, 0x30, 0xe6, 0x0c, 0x80, 0x44, 
0x14, 0x04, 0x80, 0x31, 0x66, 0x0c, 0x80, 0x44, 
0x11, 0x04, 0x00, 0x33, 0x66, 0x0c, 0x80, 0x11, 
0x11, 0x04, 0x18, 0x33, 0x66, 0x0c, 0x80, 0x11, 
0x14, 0x04, 0x18, 0x33, 0x67, 0x0c, 0x80, 0x44, 
0x14, 0x04, 0xf0, 0xe1, 0x66, 0x0c, 0x80, 0x44, 
0x11, 0x04, 0x00, 0x00, 0x00, 0x00, 0x80, 0x11, 
0x11, 0x04, 0x00, 0x00, 0x00, 0x00, 0x80, 0x11, 
0x14, 0x04, 0x00, 0x00, 0x00, 0x00, 0x80, 0x44, 
0x14, 0x04, 0x00, 0x00, 0x00, 0x00, 0x80, 0x44, 
0x11, 0x04, 0x00, 0x00, 0x00, 0x00, 0x80, 0x11, 
0x11, 0x84, 0x31, 0x18, 0x00, 0x00, 0x80, 0x11, 
0x14, 0x84, 0x31, 0x18, 0x00, 0x00, 0x80, 0x44, 
0x14, 0x84, 0x31, 0x00, 0x00, 0x00, 0x80, 0x44, 
0x11, 0x04, 0x1b, 0x1e, 0x7c, 0x86, 0x81, 0x11, 
0x11, 0x04, 0x1b, 0x18, 0xc6, 0x86, 0x81, 0x11, 
0x14, 0x04, 0x1b, 0x18, 0xc6, 0xb6, 0x81, 0x44, 
0x14, 0x04, 0x0e, 0x18, 0xfe, 0xb6, 0x81, 0x44, 
0x11, 0x04, 0x0e, 0x18, 0x06, 0xb6, 0x81, 0x11, 
0x11, 0x04, 0x04, 0x18, 0xc6, 0xb6, 0x81, 0x11, 
0x14, 0x04, 0x04, 0x18, 0x7c, 0xfc, 0x80, 0x44, 
0x14, 0x04, 0x00, 0x00, 0x00, 0x00, 0x80, 0x44, 
0x11, 0x04, 0x00, 0x00, 0x00, 0x00, 0x80, 0x11, 
0x11, 0x04, 0x00, 0x00, 0x00, 0x00, 0x80, 0x11, 
0x14, 0x04, 0x00, 0x00, 0x00, 0x00, 0x80, 0x44, 
0x14, 0x04, 0x00, 0x00, 0x00, 0x00, 0x80, 0x44, 
0x11, 0x04, 0x00, 0x00, 0x00, 0x00, 0x80, 0x11, 
0x11, 0x04, 0x00, 0x00, 0x00, 0x00, 0x80, 0x11, 
0x14, 0x04, 0x00, 0x00, 0x00, 0x00, 0x80, 0x44, 
0x14, 0x04, 0x00, 0x00, 0x00, 0x00, 0x80, 0x44, 
0x11, 0x04, 0x00, 0x00, 0x00, 0x00, 0x80, 0x11, 
0x11, 0x04, 0x00, 0x00, 0x00, 0x00, 0x80, 0x11, 
0x14, 0x04, 0x00, 0x00, 0x00, 0x00, 0x80, 0x44, 
0x14, 0x84, 0x08, 0x00, 0x00, 0xc0, 0x80, 0x44, 
0x11, 0x84, 0xcd, 0x28, 0x12, 0x83, 0x80, 0x11, 
0x11, 0x84, 0x0a, 0x59, 0x12, 0x84, 0x80, 0x11, 
0x14, 0x84, 0xca, 0x49, 0x12, 0x87, 0x80, 0x44, 
0x14, 0x84, 0x28, 0x49, 0x9a, 0x84, 0x80, 0x44, 
0x11, 0x84, 0x48, 0x49, 0x14, 0x85, 0x80, 0x11, 
0x11, 0x04, 0x00, 0x00, 0x00, 0x00, 0x80, 0x11, 
0x14, 0x04, 0x00, 0x00, 0x00, 0x00, 0x80, 0x44, 
0x14, 0x04, 0x00, 0x00, 0x00, 0x00, 0x80, 0x44, 
0x11, 0x04, 0x00, 0x00, 0x00, 0x00, 0x80, 0x11, 
0x11, 0x04, 0x00, 0x00, 0x00, 0x00, 0x80, 0x11, 
0x34, 0x04, 0x00, 0x00, 0x00, 0x00, 0x80, 0x44, 
0x44, 0x04, 0x00, 0x00, 0x00, 0x00, 0x80, 0x44, 
0x91, 0x04, 0x00, 0x00, 0x00, 0x00, 0x80, 0x11, 
0x11, 0x05, 0x00, 0x00, 0x00, 0x00, 0x80, 0x11, 
0x44, 0x06, 0x00, 0x00, 0x00, 0x00, 0x80, 0x44, 
0x44, 0xfe, 0xff, 0xff, 0xff, 0xff, 0xff, 0x44, 
}; 
