#define x_width 64
#define x_height 64
static char x_bits[] = {
0x00, 0x00, 0x00, 0x00, 0x00, 0x00, 0x00, 0x00, 
0x00, 0x00, 0x00, 0x00, 0x00, 0x00, 0x00, 0x00, 
0xc0, 0xff, 0xff, 0xff, 0x07, 0x00, 0x00, 0x00, 
0x40, 0x00, 0x00, 0x00, 0x04, 0x00, 0x00, 0x00, 
0x40, 0x00, 0x00, 0x00, 0x04, 0x00, 0x00, 0x00, 
0x40, 0x00, 0x00, 0x00, 0x04, 0x00, 0x00, 0x00, 
0x40, 0xf8, 0xff, 0x3f, 0x04, 0x00, 0x00, 0x00, 
0x40, 0xfc, 0xff, 0x7f, 0x04, 0x00, 0x00, 0x00, 
0x40, 0xfc, 0xff, 0x7f, 0x04, 0x00, 0x00, 0x00, 
0x40, 0xfc, 0xff, 0x7f, 0x04, 0x00, 0x00, 0x00, 
0x40, 0xfc, 0xff, 0x7f, 0x04, 0x00, 0x00, 0x00, 
0x40, 0xfc, 0xff, 0x7f, 0x04, 0x00, 0x00, 0x00, 
0x40, 0xfc, 0xff, 0x7f, 0x04, 0x00, 0x00, 0x00, 
0x40, 0xfc, 0xff, 0x7f, 0x04, 0x00, 0x00, 0x00, 
0x40, 0xfc, 0xff, 0x7f, 0x04, 0x00, 0x00, 0x00, 
0x40, 0xfc, 0xff, 0x7f, 0x04, 0x00, 0x00, 0x00, 
0x40, 0xfc, 0xff, 0x7f, 0x04, 0x00, 0x00, 0x00, 
0x40, 0xfc, 0xff, 0x7f, 0x04, 0x00, 0x00, 0x00, 
0x40, 0xfc, 0xff, 0x7f, 0x04, 0x00, 0x00, 0x00, 
0x40, 0xfc, 0xff, 0x7f, 0x04, 0x00, 0x00, 0x00, 
0x40, 0xf8, 0xff, 0x3f, 0x04, 0x00, 0x00, 0x00, 
0x40, 0x00, 0x00, 0x00, 0x04, 0x00, 0x00, 0x00, 
0x40, 0x00, 0x00, 0x00, 0x04, 0x00, 0x00, 0x00, 
0x40, 0x00, 0x00, 0x00, 0x04, 0x00, 0x00, 0x00, 
0xc0, 0xff, 0xff, 0xff, 0x07, 0x00, 0x00, 0x00, 
0x00, 0x00, 0x00, 0x00, 0x00, 0x00, 0x00, 0x00, 
0x00, 0x00, 0x00, 0x00, 0x00, 0x00, 0x00, 0x00, 
0x00, 0x00, 0x00, 0x00, 0x00, 0x00, 0x00, 0x00, 
0x00, 0x00, 0x00, 0x00, 0x00, 0x00, 0x00, 0x00, 
0x00, 0x00, 0x00, 0x00, 0x00, 0x00, 0x00, 0x00, 
0x00, 0x00, 0x00, 0x00, 0x00, 0x00, 0x00, 0x00, 
0xc0, 0xff, 0xff, 0xff, 0x07, 0x00, 0x00, 0x00, 
0xc0, 0xff, 0xff, 0xff, 0x07, 0x00, 0x00, 0x00, 
0xc0, 0xff, 0xff, 0xff, 0x07, 0x00, 0x00, 0x00, 
0xc0, 0xff, 0xff, 0xff, 0x07, 0x00, 0x00, 0x00, 
0xc0, 0xff, 0xff, 0xff, 0x07, 0x00, 0x00, 0x00, 
0xc0, 0xff, 0xff, 0xff, 0x07, 0x00, 0x00, 0x00, 
0xc0, 0xff, 0xff, 0xff, 0x07, 0x00, 0x00, 0x00, 
0x00, 0x00, 0x00, 0x00, 0x00, 0x00, 0x00, 0x00, 
0x00, 0x00, 0x00, 0x00, 0x00, 0x00, 0x00, 0x00, 
0x00, 0x00, 0x00, 0x00, 0x00, 0x00, 0x00, 0x00, 
0x00, 0x00, 0x00, 0x00, 0x00, 0x00, 0x00, 0x00, 
0x00, 0x00, 0x00, 0x00, 0x00, 0x00, 0x00, 0x00, 
0x00, 0x00, 0x00, 0x00, 0x00, 0x00, 0x00, 0x00, 
0x00, 0x00, 0x00, 0x00, 0x00, 0x00, 0x00, 0x00, 
0x00, 0x00, 0x00, 0x00, 0x00, 0x00, 0x00, 0x00, 
0x00, 0x00, 0x00, 0x00, 0x00, 0x00, 0x00, 0x00, 
0x00, 0x00, 0x00, 0x00, 0x00, 0x00, 0x00, 0x00, 
0x00, 0x00, 0x00, 0x00, 0x00, 0x00, 0x00, 0x00, 
0x00, 0x00, 0x00, 0x00, 0x00, 0x00, 0x00, 0x00, 
0x00, 0x00, 0x00, 0x00, 0x00, 0x00, 0x00, 0x00, 
0x00, 0x00, 0x00, 0x00, 0x00, 0x00, 0x00, 0x00, 
0x00, 0x00, 0x00, 0x00, 0x00, 0x00, 0x00, 0x00, 
0x00, 0x00, 0x00, 0x00, 0x00, 0x00, 0x00, 0x00, 
0x00, 0x00, 0x00, 0x00, 0x00, 0x00, 0x00, 0x00, 
0x00, 0x00, 0x00, 0x00, 0x00, 0x00, 0x00, 0x00, 
0x00, 0x00, 0x00, 0x00, 0x00, 0x00, 0x00, 0x00, 
0x00, 0x00, 0x00, 0x00, 0x00, 0x00, 0x00, 0x00, 
0x00, 0x00, 0x00, 0x00, 0x00, 0x00, 0x00, 0x00, 
0x00, 0x00, 0x00, 0x00, 0x00, 0x00, 0x00, 0x00, 
0x00, 0x00, 0x00, 0x00, 0x00, 0x00, 0x00, 0x00, 
0x00, 0x00, 0x00, 0x00, 0x00, 0x00, 0x00, 0x00, 
0x00, 0x00, 0x00, 0x00, 0x00, 0x00, 0x00, 0x00, 
0x00, 0x00, 0x00, 0x00, 0x00, 0x00, 0x00, 0x00, 
}; 
