#define x_width 64
#define x_height 64
static char x_bits[] = {
0xf0, 0xff, 0xff, 0xff, 0x1f, 0x00, 0x00, 0x00, 
0x10, 0x00, 0x00, 0x00, 0x30, 0x00, 0x00, 0x00, 
0x10, 0x00, 0x00, 0x00, 0x30, 0x00, 0x00, 0x00, 
0x10, 0x00, 0x00, 0x00, 0x30, 0x00, 0x00, 0x00, 
0x10, 0xfe, 0xff, 0xff, 0x30, 0x00, 0x00, 0x00, 
0x10, 0x03, 0x00, 0x80, 0x31, 0x00, 0x00, 0x00, 
0x10, 0x01, 0x00, 0x00, 0x31, 0x00, 0x00, 0x00, 
0x10, 0x01, 0x00, 0x00, 0x31, 0x00, 0x00, 0x00, 
0x10, 0x01, 0x00, 0x00, 0x31, 0x00, 0x00, 0x00, 
0x10, 0x01, 0x00, 0x00, 0x31, 0x00, 0x00, 0x00, 
0x10, 0x01, 0x00, 0x00, 0x31, 0x00, 0x00, 0x00, 
0x10, 0x01, 0x00, 0x00, 0x31, 0x00, 0x00, 0x00, 
0x10, 0x01, 0x00, 0x00, 0x31, 0x00, 0x00, 0x00, 
0x10, 0x01, 0x00, 0x00, 0x31, 0x00, 0x00, 0x00, 
0x10, 0x01, 0x00, 0x00, 0x31, 0x00, 0x00, 0x00, 
0x10, 0x01, 0x00, 0x00, 0x31, 0x00, 0x00, 0x00, 
0x10, 0x01, 0x00, 0x00, 0x31, 0x00, 0x00, 0x00, 
0x10, 0x01, 0x00, 0x00, 0x31, 0x00, 0x00, 0x00, 
0x10, 0x01, 0x00, 0x00, 0x31, 0x00, 0x00, 0x00, 
0x10, 0x01, 0x00, 0x00, 0x31, 0x00, 0x00, 0x00, 
0x10, 0x01, 0x00, 0x00, 0x31, 0x00, 0x00, 0x00, 
0x10, 0x03, 0x00, 0x80, 0x31, 0x00, 0x00, 0x00, 
0x10, 0xfe, 0xff, 0xff, 0x30, 0x00, 0x00, 0x00, 
0x10, 0x00, 0x00, 0x00, 0x30, 0x00, 0x00, 0x00, 
0x10, 0x00, 0x00, 0x00, 0x30, 0x00, 0x00, 0x00, 
0x10, 0x00, 0x00, 0x00, 0x30, 0x00, 0x00, 0x00, 
0xf0, 0xff, 0xff, 0xff, 0x3f, 0x00, 0x00, 0x00, 
0x00, 0x00, 0x00, 0x00, 0x00, 0x00, 0x00, 0x00, 
0xf0, 0xff, 0xff, 0xff, 0x3f, 0x00, 0x00, 0x00, 
0x10, 0x00, 0x00, 0x00, 0x30, 0x00, 0x00, 0x00, 
0x10, 0x00, 0x00, 0x00, 0x30, 0x00, 0x00, 0x00, 
0x10, 0x00, 0x00, 0x00, 0x30, 0x00, 0x00, 0x00, 
0x10, 0x00, 0x00, 0x00, 0x30, 0x00, 0x00, 0x00, 
0x10, 0x00, 0x00, 0x00, 0x30, 0x00, 0x00, 0x00, 
0x10, 0x00, 0x00, 0x00, 0x30, 0x00, 0x00, 0x00, 
0x10, 0x00, 0x00, 0x00, 0x30, 0x00, 0x00, 0x00, 
0x10, 0x00, 0x00, 0x00, 0x30, 0x00, 0x00, 0x00, 
0x10, 0x00, 0x00, 0x00, 0x30, 0x00, 0x00, 0x00, 
0x10, 0x00, 0x00, 0x00, 0x30, 0x00, 0x00, 0x00, 
0xf0, 0xff, 0xff, 0xff, 0x3f, 0x00, 0x00, 0x00, 
0xe0, 0xff, 0xff, 0xff, 0x1f, 0x00, 0x00, 0x00, 
0x00, 0x00, 0x00, 0x00, 0x00, 0x00, 0x00, 0x00, 
0x00, 0x00, 0x00, 0x00, 0x00, 0x00, 0x00, 0x00, 
0x00, 0x00, 0x00, 0x00, 0x00, 0x00, 0x00, 0x00, 
0x00, 0x00, 0x00, 0x00, 0x00, 0x00, 0x00, 0x00, 
0x00, 0x00, 0x00, 0x00, 0x00, 0x00, 0x00, 0x00, 
0x00, 0x00, 0x00, 0x00, 0x00, 0x00, 0x00, 0x00, 
0x00, 0x00, 0x00, 0x00, 0x00, 0x00, 0x00, 0x00, 
0x00, 0x00, 0x00, 0x00, 0x00, 0x00, 0x00, 0x00, 
0x00, 0x00, 0x00, 0x00, 0x00, 0x00, 0x00, 0x00, 
0x00, 0x00, 0x00, 0x00, 0x00, 0x00, 0x00, 0x00, 
0x00, 0x00, 0x00, 0x00, 0x00, 0x00, 0x00, 0x00, 
0x00, 0x00, 0x00, 0x00, 0x00, 0x00, 0x00, 0x00, 
0x00, 0x00, 0x00, 0x00, 0x00, 0x00, 0x00, 0x00, 
0x00, 0x00, 0x00, 0x00, 0x00, 0x00, 0x00, 0x00, 
0x00, 0x00, 0x00, 0x00, 0x00, 0x00, 0x00, 0x00, 
0x00, 0x00, 0x00, 0x00, 0x00, 0x00, 0x00, 0x00, 
0x00, 0x00, 0x00, 0x00, 0x00, 0x00, 0x00, 0x00, 
0x00, 0x00, 0x00, 0x00, 0x00, 0x00, 0x00, 0x00, 
0x00, 0x00, 0x00, 0x00, 0x00, 0x00, 0x00, 0x00, 
0x00, 0x00, 0x00, 0x00, 0x00, 0x00, 0x00, 0x00, 
0x00, 0x00, 0x00, 0x00, 0x00, 0x00, 0x00, 0x00, 
0x00, 0x00, 0x00, 0x00, 0x00, 0x00, 0x00, 0x00, 
0x00, 0x00, 0x00, 0x00, 0x00, 0x00, 0x00, 0x00, 
}; 
