#define x_width 64
#define x_height 64
static char x_bits[] = {
0x11, 0x11, 0x11, 0x11, 0x11, 0x11, 0x11, 0x11, 
0x11, 0x11, 0x11, 0x11, 0x11, 0x11, 0x11, 0x11, 
0xfc, 0xff, 0xff, 0xff, 0xff, 0xff, 0xff, 0x5f, 
0xfc, 0xff, 0xff, 0xff, 0xff, 0xff, 0xff, 0x5f, 
0x19, 0x00, 0x00, 0x00, 0x00, 0x00, 0x00, 0x18, 
0x19, 0x00, 0x00, 0x00, 0x00, 0x00, 0x00, 0x18, 
0x1c, 0x00, 0xf0, 0xe7, 0x4f, 0x08, 0x00, 0x58, 
0x1c, 0x00, 0x80, 0x20, 0x40, 0x04, 0x00, 0x58, 
0x19, 0x00, 0x80, 0x20, 0x40, 0x02, 0x00, 0x18, 
0x19, 0x00, 0x80, 0x20, 0x40, 0x01, 0x00, 0x18, 
0x1c, 0x00, 0x80, 0xe0, 0xc1, 0x01, 0x00, 0x58, 
0x1c, 0x00, 0x80, 0x20, 0x40, 0x02, 0x00, 0x58, 
0x19, 0x00, 0x80, 0x20, 0x40, 0x04, 0x00, 0x18, 
0x19, 0x00, 0x80, 0x20, 0x40, 0x08, 0x00, 0x18, 
0x1c, 0x00, 0x80, 0xe0, 0x4f, 0x10, 0x00, 0x58, 
0x1c, 0x00, 0x00, 0x00, 0x00, 0x00, 0x00, 0x58, 
0x19, 0x00, 0x00, 0x00, 0x00, 0x00, 0x00, 0x18, 
0x19, 0x00, 0x00, 0x00, 0x00, 0x00, 0x00, 0x18, 
0x1c, 0x00, 0x00, 0x00, 0x00, 0x04, 0x00, 0x58, 
0x1c, 0x80, 0x00, 0x3e, 0x10, 0x44, 0x00, 0x58, 
0x19, 0x80, 0x08, 0x41, 0x18, 0x44, 0x00, 0x18, 
0x19, 0x80, 0x08, 0x61, 0x10, 0x44, 0x00, 0x18, 
0x1c, 0x80, 0x08, 0x51, 0x10, 0x44, 0x00, 0x58, 
0x1c, 0x80, 0x3f, 0x49, 0x10, 0xfc, 0x01, 0x58, 
0x19, 0x00, 0x08, 0x45, 0x10, 0x40, 0x00, 0x18, 
0x19, 0x00, 0x08, 0x43, 0x10, 0x40, 0x00, 0x18, 
0x1c, 0x00, 0x08, 0x41, 0x10, 0x40, 0x00, 0x58, 
0x1c, 0x00, 0x08, 0x3e, 0x38, 0x40, 0x00, 0x58, 
0x19, 0x00, 0x00, 0x00, 0x00, 0x00, 0x00, 0x18, 
0x19, 0x00, 0x00, 0x00, 0x00, 0x00, 0x00, 0x18, 
0x1c, 0x00, 0x00, 0x00, 0x00, 0x00, 0x00, 0x58, 
0xfc, 0xff, 0xff, 0xff, 0xff, 0xff, 0xff, 0x5f, 
0xf9, 0xff, 0xff, 0xff, 0xff, 0xff, 0xff, 0x1f, 
0x11, 0x11, 0xff, 0xff, 0xff, 0xff, 0x11, 0x11, 
0x44, 0x44, 0xff, 0xff, 0xff, 0xff, 0x44, 0x44, 
0x44, 0x44, 0xff, 0xff, 0xff, 0xff, 0x44, 0x44, 
0x11, 0x11, 0xff, 0xff, 0xff, 0xff, 0x11, 0x11, 
0x11, 0x11, 0xff, 0xff, 0xff, 0xff, 0x11, 0x11, 
0x44, 0x44, 0xff, 0xff, 0xff, 0xff, 0x44, 0x44, 
0x44, 0x44, 0xff, 0xff, 0xff, 0xff, 0x44, 0x44, 
0x11, 0x11, 0xff, 0xff, 0xff, 0xff, 0x11, 0x11, 
0x11, 0x11, 0xff, 0xff, 0xff, 0xff, 0x11, 0x11, 
0x44, 0x44, 0xff, 0xff, 0xff, 0xff, 0x44, 0x44, 
0x44, 0x44, 0xff, 0xff, 0xff, 0xff, 0x44, 0x44, 
0x11, 0x11, 0xff, 0xff, 0xff, 0xff, 0x11, 0x11, 
0x11, 0x11, 0xff, 0xff, 0xff, 0xff, 0x11, 0x11, 
0x44, 0x44, 0xff, 0xff, 0xff, 0xff, 0x44, 0x44, 
0x44, 0x44, 0xff, 0xff, 0xff, 0xff, 0x44, 0x44, 
0x11, 0x11, 0xff, 0xff, 0xff, 0xff, 0x11, 0x11, 
0x11, 0x11, 0xff, 0xff, 0xff, 0xff, 0x11, 0x11, 
0x44, 0x44, 0xff, 0xff, 0xff, 0xff, 0x44, 0x44, 
0x44, 0x44, 0xff, 0xff, 0xff, 0xff, 0x44, 0x44, 
0x11, 0x11, 0xff, 0xff, 0xff, 0xff, 0x11, 0x11, 
0x11, 0x11, 0xff, 0xff, 0xff, 0xff, 0x11, 0x11, 
0xfc, 0xff, 0xff, 0xff, 0xff, 0xff, 0xff, 0x5f, 
0xfc, 0xff, 0xff, 0xff, 0xff, 0xff, 0xff, 0x5f, 
0x39, 0x11, 0x11, 0x11, 0x11, 0x11, 0x11, 0x1d, 
0x11, 0x11, 0x11, 0x11, 0x11, 0x11, 0x11, 0x11, 
0x44, 0x44, 0x44, 0x44, 0x44, 0x44, 0x44, 0x44, 
0x44, 0x44, 0x44, 0x44, 0x44, 0x44, 0x44, 0x44, 
0x11, 0x11, 0x11, 0x11, 0x11, 0x11, 0x11, 0x11, 
0x11, 0x11, 0x11, 0x11, 0x11, 0x11, 0x11, 0x11, 
0x44, 0x44, 0x44, 0x44, 0x44, 0x44, 0x44, 0x44, 
0x44, 0x44, 0x44, 0x44, 0x44, 0x44, 0x44, 0x44, 
}; 
