#define x_width 64
#define x_height 64
static char x_bits[] = {
0xff, 0xff, 0xff, 0xff, 0xff, 0xff, 0xff, 0xff, 
0x01, 0x00, 0x00, 0x00, 0x00, 0x00, 0x00, 0x80, 
0x01, 0xc0, 0xff, 0xff, 0xff, 0xff, 0x1f, 0x80, 
0x01, 0x20, 0x00, 0x00, 0x00, 0x00, 0x60, 0x80, 
0x01, 0x20, 0xfe, 0xff, 0xff, 0xff, 0xa3, 0x80, 
0x01, 0x20, 0x01, 0x00, 0x00, 0x00, 0x24, 0x81, 
0x01, 0xa0, 0x00, 0x00, 0x00, 0x00, 0x28, 0x82, 
0x01, 0xa0, 0x7c, 0x01, 0x00, 0x00, 0x28, 0x82, 
0x01, 0xa0, 0x00, 0x00, 0x00, 0x00, 0x28, 0x82, 
0x01, 0xa0, 0x00, 0x00, 0x00, 0x00, 0x28, 0x82, 
0x01, 0xa0, 0x00, 0x00, 0x00, 0x00, 0x28, 0x82, 
0x01, 0xa0, 0x00, 0x00, 0x00, 0x00, 0x28, 0x82, 
0x01, 0xa0, 0x00, 0x00, 0x00, 0x00, 0x28, 0x82, 
0x01, 0xa0, 0x00, 0x00, 0x00, 0x00, 0x28, 0x82, 
0x01, 0xa0, 0x00, 0x00, 0x00, 0x00, 0x28, 0x82, 
0x01, 0xa0, 0x00, 0x00, 0x00, 0x00, 0x28, 0x82, 
0x01, 0xa0, 0x00, 0x00, 0x00, 0x00, 0x28, 0x82, 
0x01, 0xa0, 0x00, 0x00, 0x00, 0x00, 0x28, 0x82, 
0x01, 0xa0, 0x00, 0x00, 0x00, 0x00, 0x28, 0x82, 
0x01, 0xa0, 0x00, 0x00, 0x00, 0x00, 0x28, 0x82, 
0x01, 0xa0, 0x00, 0x00, 0x00, 0x00, 0x28, 0x81, 
0x01, 0xa0, 0x00, 0x00, 0x00, 0x00, 0x28, 0x81, 
0x01, 0xa0, 0x00, 0x00, 0x00, 0x00, 0xa8, 0x80, 
0x01, 0xa0, 0x00, 0x00, 0x00, 0x00, 0xa8, 0x80, 
0x01, 0x38, 0x01, 0x00, 0x00, 0x00, 0x64, 0x80, 
0x01, 0x26, 0xfe, 0xff, 0xff, 0xff, 0x63, 0x80, 
0x01, 0x21, 0x00, 0x00, 0x00, 0x00, 0x20, 0x80, 
0x81, 0xc0, 0xff, 0xff, 0xff, 0xff, 0x1f, 0x80, 
0x41, 0x00, 0x00, 0x20, 0x80, 0x00, 0x00, 0x80, 
0x21, 0x00, 0x00, 0x20, 0x80, 0x00, 0x00, 0x80, 
0x11, 0xf0, 0xff, 0x1f, 0x00, 0xff, 0xff, 0x87, 
0x11, 0xf8, 0xff, 0x1f, 0x00, 0xff, 0xff, 0x83, 
0x11, 0xf8, 0xff, 0x3f, 0x80, 0xff, 0xff, 0x83, 
0x11, 0xfc, 0xff, 0xff, 0xff, 0xff, 0xff, 0x81, 
0x11, 0xfc, 0xff, 0xff, 0xff, 0xff, 0xff, 0x81, 
0x11, 0x00, 0x00, 0x00, 0x00, 0x00, 0x00, 0x80, 
0x11, 0x00, 0x00, 0x00, 0x00, 0x00, 0x00, 0x80, 
0x21, 0xfe, 0xff, 0xff, 0xff, 0xff, 0xff, 0x80, 
0xc1, 0x01, 0x00, 0x00, 0x00, 0x00, 0x40, 0x80, 
0x01, 0x51, 0x55, 0x55, 0x55, 0x55, 0x41, 0x80, 
0x81, 0x00, 0x00, 0x00, 0x00, 0x00, 0x20, 0x80, 
0x81, 0xa8, 0xaa, 0xaa, 0xaa, 0x2a, 0x21, 0x80, 
0x41, 0x00, 0x00, 0x00, 0x00, 0x80, 0x10, 0x80, 
0x41, 0xb0, 0xff, 0xff, 0xff, 0xdb, 0x10, 0x80, 
0x21, 0x00, 0x00, 0x00, 0x00, 0x00, 0x08, 0x80, 
0xe1, 0xff, 0xff, 0xff, 0xff, 0xff, 0x0f, 0x80, 
0x01, 0x00, 0x00, 0x00, 0x00, 0x00, 0x00, 0x80, 
0xff, 0xff, 0xff, 0xff, 0xff, 0xff, 0xff, 0xff, 
0x01, 0x00, 0x00, 0x00, 0x00, 0x00, 0x00, 0x80, 
0x01, 0x00, 0x00, 0x00, 0x00, 0x00, 0x00, 0x80, 
0x01, 0x00, 0x00, 0x00, 0x00, 0x00, 0x00, 0x80, 
0x01, 0x00, 0x00, 0x00, 0x00, 0x00, 0x00, 0x80, 
0x01, 0x00, 0x00, 0x00, 0x00, 0x00, 0x00, 0x80, 
0x01, 0x00, 0x00, 0x00, 0x00, 0x00, 0x00, 0x80, 
0x01, 0x00, 0x00, 0x00, 0x00, 0x00, 0x00, 0x80, 
0x01, 0x00, 0x00, 0x00, 0x00, 0x00, 0x00, 0x80, 
0x01, 0x00, 0x00, 0x00, 0x00, 0x00, 0x00, 0x80, 
0x01, 0x00, 0x00, 0x00, 0x00, 0x00, 0x00, 0x80, 
0x01, 0x00, 0x00, 0x00, 0x00, 0x00, 0x00, 0x80, 
0x01, 0x00, 0x00, 0x00, 0x00, 0x00, 0x00, 0x80, 
0x01, 0x00, 0x00, 0x00, 0x00, 0x00, 0x00, 0x80, 
0x01, 0x00, 0x00, 0x00, 0x00, 0x00, 0x00, 0x80, 
0x01, 0x00, 0x00, 0x00, 0x00, 0x00, 0x00, 0x80, 
0xff, 0xff, 0xff, 0xff, 0xff, 0xff, 0xff, 0xff, 
}; 
