#define x_width 32
#define x_height 30
static char x_bits[] = {
0x00, 0x00, 0x00, 0x00, 
0x00, 0x00, 0x00, 0x00, 
0x00, 0x00, 0x00, 0x00, 
0x00, 0x00, 0x00, 0x00, 
0x00, 0xe0, 0x07, 0x00, 
0x00, 0x20, 0x04, 0x00, 
0xc0, 0xff, 0xff, 0x03, 
0x40, 0x00, 0x00, 0x02, 
0x40, 0xff, 0xff, 0x02, 
0x00, 0x01, 0x80, 0x00, 
0x00, 0x55, 0xd5, 0x00, 
0x00, 0x55, 0xd5, 0x00, 
0x00, 0x55, 0xd5, 0x00, 
0x00, 0x55, 0xd5, 0x00, 
0x00, 0x55, 0xd5, 0x00, 
0x00, 0x55, 0xd5, 0x00, 
0x00, 0x55, 0xd5, 0x00, 
0x00, 0x55, 0xd5, 0x00, 
0x00, 0x55, 0xd5, 0x00, 
0x00, 0x55, 0xd5, 0x00, 
0x00, 0x55, 0xd5, 0x00, 
0x00, 0x55, 0xd5, 0x00, 
0x00, 0x55, 0xd5, 0x00, 
0x00, 0x55, 0xd5, 0x00, 
0x00, 0x55, 0xd5, 0x00, 
0x00, 0x55, 0xd5, 0x00, 
0x00, 0x55, 0xd5, 0x00, 
0x00, 0x89, 0xc8, 0x00, 
0x00, 0x03, 0x40, 0x00, 
0x00, 0xfc, 0x3f, 0x00, 
}; 
