#define x_width 32
#define x_height 30
static char x_bits[] = {
0x00, 0x00, 0x00, 0x00, 
0x00, 0x00, 0x00, 0x00, 
0x00, 0x0c, 0x0c, 0x00, 
0x00, 0x72, 0x32, 0x00, 
0x00, 0x83, 0xc3, 0x00, 
0x00, 0x1c, 0x4c, 0x00, 
0x00, 0xe6, 0x70, 0x00, 
0x00, 0x22, 0x87, 0x03, 
0x00, 0xff, 0x3f, 0x0c, 
0x00, 0x01, 0xe0, 0x04, 
0x00, 0x55, 0xd5, 0x03, 
0x00, 0x55, 0xd5, 0x00, 
0x00, 0x55, 0xd5, 0x00, 
0x00, 0x55, 0xd5, 0x00, 
0x00, 0x55, 0xd5, 0x00, 
0x00, 0x55, 0xd5, 0x00, 
0x00, 0x55, 0xd5, 0x00, 
0x00, 0x55, 0xd5, 0x00, 
0x00, 0x55, 0xd5, 0x00, 
0x00, 0x55, 0xd5, 0x00, 
0x00, 0x55, 0xd5, 0x00, 
0x00, 0x55, 0xd5, 0x00, 
0x00, 0x55, 0xd5, 0x00, 
0x00, 0x55, 0xd5, 0x00, 
0x00, 0x55, 0xd5, 0x00, 
0x00, 0x55, 0xd5, 0x00, 
0x00, 0x55, 0xd5, 0x00, 
0x00, 0x89, 0xc8, 0x00, 
0x00, 0x03, 0x40, 0x00, 
0x00, 0xfc, 0x3f, 0x00, 
}; 
