#define x_width 64
#define x_height 64
static char x_bits[] = {
0x00, 0x00, 0x00, 0x00, 0x00, 0x00, 0x00, 0x00, 
0x00, 0x00, 0x00, 0x00, 0x00, 0x00, 0x00, 0x00, 
0x00, 0x00, 0x40, 0x92, 0xf0, 0xff, 0x7f, 0x00, 
0x00, 0x00, 0x60, 0xdb, 0x08, 0x00, 0x60, 0x00, 
0x00, 0x00, 0xd0, 0xb6, 0x04, 0x00, 0x50, 0x00, 
0x00, 0x00, 0x48, 0x92, 0x02, 0x00, 0x48, 0x00, 
0x00, 0x00, 0x24, 0x89, 0x01, 0x00, 0x44, 0x00, 
0x00, 0x00, 0x92, 0xe4, 0x00, 0x00, 0x42, 0x00, 
0x00, 0x00, 0x92, 0x1c, 0x00, 0x00, 0x41, 0x10, 
0x00, 0x00, 0x92, 0x04, 0x00, 0x00, 0x42, 0x18, 
0x00, 0x00, 0x92, 0x03, 0x7c, 0x00, 0xc2, 0x1f, 
0x00, 0x00, 0x56, 0x01, 0x82, 0x00, 0xa2, 0x1a, 
0x00, 0x00, 0xaa, 0x00, 0x01, 0x01, 0x52, 0x15, 
0x00, 0x00, 0xd5, 0x00, 0x81, 0x00, 0xaa, 0x12, 
0x00, 0x80, 0xaa, 0x00, 0x42, 0x00, 0x57, 0x11, 
0x00, 0x40, 0x55, 0x01, 0x3c, 0x80, 0xaa, 0x10, 
0x00, 0xa0, 0xaa, 0x01, 0x00, 0x40, 0x56, 0x08, 
0x00, 0x50, 0x55, 0x03, 0x00, 0x30, 0x2a, 0x04, 
0x00, 0xfe, 0xff, 0xff, 0xff, 0x0f, 0x16, 0x02, 
0x00, 0xff, 0xff, 0xff, 0xff, 0x05, 0x0a, 0x01, 
0x00, 0x01, 0x00, 0x00, 0x00, 0x05, 0x84, 0x00, 
0x00, 0xf9, 0x00, 0x00, 0x00, 0x05, 0x42, 0x00, 
0x00, 0x89, 0x00, 0xc0, 0x7f, 0x85, 0x21, 0x00, 
0x00, 0xf9, 0x00, 0x40, 0x40, 0xc5, 0x10, 0x00, 
0x00, 0x01, 0x00, 0x40, 0x40, 0x65, 0x08, 0x00, 
0x00, 0x01, 0x00, 0x40, 0x40, 0x3d, 0x04, 0x00, 
0x00, 0x01, 0x00, 0xc0, 0x7f, 0x1d, 0x02, 0x00, 
0x00, 0x01, 0x00, 0x00, 0x00, 0x0d, 0x01, 0x00, 
0x00, 0x01, 0x00, 0x00, 0x00, 0x85, 0x00, 0x00, 
0x00, 0x01, 0x00, 0x00, 0x00, 0x45, 0x00, 0x00, 
0x00, 0xff, 0xff, 0xff, 0xff, 0x25, 0x00, 0x00, 
0x00, 0x01, 0x00, 0x00, 0x00, 0x15, 0x00, 0x00, 
0x00, 0x01, 0x00, 0x00, 0x00, 0x0d, 0x00, 0x00, 
0x00, 0x01, 0x00, 0x00, 0x00, 0x07, 0x00, 0x00, 
0x00, 0xff, 0xff, 0xff, 0xff, 0x03, 0x00, 0x00, 
0x00, 0x00, 0x00, 0x00, 0x00, 0x00, 0x00, 0x00, 
0x00, 0x00, 0x00, 0x00, 0x00, 0x00, 0x00, 0x00, 
0x00, 0x00, 0x00, 0x00, 0x00, 0x00, 0x00, 0x00, 
0x00, 0x00, 0x00, 0x00, 0x00, 0x00, 0x00, 0x00, 
0x00, 0x00, 0x00, 0x00, 0x00, 0x00, 0x00, 0x00, 
0x00, 0x00, 0x00, 0x00, 0x00, 0x00, 0x00, 0x00, 
0x00, 0x00, 0x00, 0x00, 0x00, 0x00, 0x00, 0x00, 
0x00, 0x00, 0x00, 0x00, 0x00, 0x00, 0x00, 0x00, 
0x00, 0x00, 0x00, 0x00, 0x00, 0x00, 0x00, 0x00, 
0x00, 0x00, 0x00, 0x00, 0x00, 0x00, 0x00, 0x00, 
0x00, 0x00, 0x00, 0x00, 0x00, 0x00, 0x00, 0x00, 
0x00, 0x00, 0x00, 0x00, 0x00, 0x00, 0x00, 0x00, 
0x00, 0x00, 0x00, 0x00, 0x00, 0x00, 0x00, 0x00, 
0x00, 0x00, 0x00, 0x00, 0x00, 0x00, 0x00, 0x00, 
0x00, 0x00, 0x00, 0x00, 0x00, 0x00, 0x00, 0x00, 
0x00, 0x00, 0x00, 0x00, 0x00, 0x00, 0x00, 0x00, 
0x00, 0x00, 0x00, 0x00, 0x00, 0x00, 0x00, 0x00, 
0x00, 0x00, 0x00, 0x00, 0x00, 0x00, 0x00, 0x00, 
0x00, 0x00, 0x00, 0x00, 0x00, 0x00, 0x00, 0x00, 
0x00, 0x00, 0x00, 0x00, 0x00, 0x00, 0x00, 0x00, 
0x00, 0x00, 0x00, 0x00, 0x00, 0x00, 0x00, 0x00, 
0x00, 0x00, 0x00, 0x00, 0x00, 0x00, 0x00, 0x00, 
0x00, 0x00, 0x00, 0x00, 0x00, 0x00, 0x00, 0x00, 
0x00, 0x00, 0x00, 0x00, 0x00, 0x00, 0x00, 0x00, 
0x00, 0x00, 0x00, 0x00, 0x00, 0x00, 0x00, 0x00, 
0x00, 0x00, 0x00, 0x00, 0x00, 0x00, 0x00, 0x00, 
0x00, 0x00, 0x00, 0x00, 0x00, 0x00, 0x00, 0x00, 
0x00, 0x00, 0x00, 0x00, 0x00, 0x00, 0x00, 0x00, 
0x00, 0x00, 0x00, 0x00, 0x00, 0x00, 0x00, 0x00, 
}; 
