#define XGL_width 64
#define XGL_height 64
static unsigned char XGL_bits[] = {
   0x02, 0x00, 0x00, 0x00, 0x00, 0x00, 0x02, 0x00, 0x00, 0x00, 0x00, 0x00,
   0x00, 0x00, 0x00, 0x00, 0x00, 0x00, 0x00, 0x00, 0x00, 0x00, 0x00, 0x00,
   0x00, 0x00, 0x00, 0x00, 0x00, 0x00, 0x00, 0x00, 0x00, 0x00, 0x00, 0x00,
   0x00, 0x00, 0x00, 0x00, 0x00, 0x00, 0x00, 0x00, 0x00, 0x00, 0x00, 0x00,
   0x00, 0x00, 0x00, 0x00, 0x00, 0x00, 0x00, 0x00, 0x00, 0x00, 0x00, 0x00,
   0x00, 0x00, 0x00, 0x00, 0x00, 0x00, 0x00, 0x00, 0x00, 0x00, 0x00, 0x00,
   0x3c, 0x00, 0x00, 0x20, 0x00, 0x00, 0x00, 0x00, 0x7c, 0x00, 0x00, 0x20,
   0x00, 0x01, 0x08, 0x00, 0x7c, 0x00, 0x00, 0x10, 0x00, 0x01, 0x08, 0x00,
   0xfc, 0x00, 0x00, 0x10, 0x80, 0x00, 0x04, 0x00, 0xf8, 0x00, 0x00, 0x08,
   0x80, 0x00, 0x04, 0x00, 0xf8, 0x01, 0x00, 0x08, 0x40, 0x00, 0x02, 0x00,
   0xf0, 0x01, 0x00, 0x04, 0x40, 0x00, 0x02, 0x00, 0xf0, 0x03, 0x00, 0x04,
   0x20, 0x00, 0x01, 0x00, 0xe0, 0x03, 0x00, 0x02, 0x20, 0x00, 0x01, 0x00,
   0xe0, 0x07, 0x00, 0x02, 0x10, 0x80, 0x00, 0x00, 0xc0, 0x07, 0x00, 0x01,
   0x10, 0x80, 0x00, 0x00, 0xc0, 0x0f, 0x00, 0x01, 0x08, 0x40, 0x00, 0x00,
   0x80, 0x0f, 0x80, 0x00, 0x08, 0x40, 0x00, 0x00, 0x80, 0x1f, 0x80, 0x00,
   0x04, 0x20, 0x00, 0x00, 0x00, 0x1f, 0x40, 0x00, 0x06, 0x20, 0x00, 0x00,
   0x00, 0x3f, 0x40, 0x00, 0x02, 0x10, 0x00, 0x00, 0x00, 0x3e, 0x20, 0x00,
   0x01, 0x10, 0x00, 0x00, 0x00, 0x7e, 0x20, 0x00, 0x01, 0x08, 0x00, 0x00,
   0x00, 0x7c, 0x10, 0x80, 0x00, 0x08, 0x00, 0x00, 0x00, 0xfc, 0x10, 0x80,
   0x00, 0x04, 0x00, 0x00, 0x00, 0xf8, 0x08, 0x40, 0x00, 0x04, 0x00, 0x00,
   0x00, 0xf8, 0x09, 0x40, 0x00, 0x02, 0x00, 0x00, 0x00, 0xf0, 0x05, 0x20,
   0x00, 0x02, 0x00, 0x00, 0x00, 0xf0, 0x04, 0x20, 0x00, 0x01, 0x00, 0x00,
   0x00, 0xe0, 0x02, 0x10, 0x00, 0x01, 0x00, 0x00, 0x00, 0x40, 0x06, 0x10,
   0x80, 0x00, 0xf0, 0x3f, 0x00, 0x40, 0x07, 0x38, 0x80, 0x00, 0xf8, 0x1f,
   0x00, 0x20, 0x0f, 0x38, 0xc0, 0x01, 0xf8, 0x1f, 0x00, 0x20, 0x0f, 0x7c,
   0xc0, 0x01, 0x00, 0x08, 0x00, 0x90, 0x1f, 0x7c, 0xe0, 0x03, 0x00, 0x08,
   0x00, 0x90, 0x1f, 0xfc, 0xe0, 0x03, 0x00, 0x04, 0x00, 0x08, 0x3f, 0xf8,
   0xe0, 0x07, 0x00, 0x04, 0x00, 0x08, 0x3f, 0xf8, 0xe1, 0x07, 0x00, 0x02,
   0x00, 0x04, 0x7e, 0xf0, 0xc1, 0x0f, 0x00, 0x02, 0x00, 0x04, 0x7e, 0xf0,
   0xc3, 0x0f, 0x00, 0x01, 0x00, 0x02, 0xfc, 0xe0, 0x83, 0x1f, 0x00, 0x01,
   0x00, 0x02, 0xfc, 0xe0, 0x83, 0x1f, 0x80, 0x00, 0x00, 0x01, 0xf8, 0xc1,
   0x07, 0x3f, 0x80, 0x00, 0x00, 0x01, 0xf8, 0xc1, 0x07, 0x3f, 0x40, 0x00,
   0x80, 0x00, 0xf0, 0x83, 0x0f, 0x7e, 0x40, 0x00, 0x80, 0x00, 0xf0, 0x83,
   0x0f, 0x7e, 0x20, 0x00, 0x40, 0x00, 0xe0, 0x07, 0x1f, 0xfc, 0x20, 0x00,
   0x40, 0x00, 0xe0, 0x07, 0x1f, 0xfc, 0x10, 0x00, 0x20, 0x00, 0xc0, 0x0f,
   0x3e, 0xf8, 0x11, 0x00, 0x20, 0x00, 0xc0, 0x0f, 0x3e, 0xf8, 0x09, 0x00,
   0x10, 0x00, 0x80, 0x1f, 0xfc, 0xff, 0xff, 0x7f, 0x10, 0x00, 0x80, 0x3f,
   0xfc, 0xff, 0xff, 0x7f, 0x08, 0x00, 0x00, 0x00, 0xfc, 0xff, 0xff, 0x3f,
   0x00, 0x00, 0x00, 0x00, 0x00, 0x00, 0x00, 0x00, 0x00, 0x00, 0x00, 0x00,
   0x00, 0x00, 0x00, 0x00, 0x00, 0x00, 0x00, 0x00, 0x00, 0x00, 0x00, 0x00,
   0x00, 0x00, 0x00, 0x00, 0x00, 0x00, 0x00, 0x00, 0x00, 0x00, 0x00, 0x00,
   0x00, 0x00, 0x00, 0x00, 0x00, 0x00, 0x00, 0x00, 0x00, 0x00, 0x00, 0x00,
   0x00, 0x00, 0x00, 0x00, 0x00, 0x00, 0x00, 0x00};
