#define x_width 64
#define x_height 64
static char x_bits[] = {
0x00, 0x00, 0x00, 0x00, 0x00, 0x00, 0x00, 0x00, 
0x00, 0x00, 0x00, 0x00, 0x00, 0x00, 0x00, 0x00, 
0x00, 0x00, 0x00, 0x00, 0x00, 0x00, 0x00, 0x00, 
0xc0, 0xff, 0x0f, 0xff, 0xff, 0xff, 0xff, 0x03, 
0xc0, 0xff, 0x0f, 0xff, 0xff, 0xff, 0xff, 0x03, 
0xf0, 0x00, 0xfc, 0x03, 0x00, 0x00, 0x00, 0x0f, 
0xf0, 0xee, 0xfd, 0x7b, 0xef, 0xbd, 0x3b, 0x0f, 
0x30, 0xee, 0x01, 0x78, 0xef, 0xbd, 0x3b, 0x0c, 
0x30, 0x00, 0x60, 0x00, 0x00, 0x00, 0x00, 0x0c, 
0x30, 0xdb, 0x66, 0xab, 0xaa, 0xb6, 0xb6, 0x0d, 
0x30, 0xdb, 0x66, 0xab, 0xaa, 0xb6, 0xb6, 0x0d, 
0x30, 0xdb, 0x06, 0x03, 0x00, 0x36, 0xb6, 0x0d, 
0x30, 0x00, 0x60, 0xbb, 0xba, 0x80, 0x00, 0x0c, 
0x30, 0xdb, 0x66, 0xb8, 0xba, 0xb6, 0xb6, 0x0d, 
0x30, 0xdb, 0x66, 0x3b, 0x38, 0x36, 0xb6, 0x0d, 
0x30, 0xdb, 0x06, 0xbb, 0xba, 0xb6, 0xb6, 0x0d, 
0x30, 0x00, 0x60, 0xbb, 0xba, 0x80, 0x00, 0x0c, 
0x30, 0xdb, 0x66, 0x00, 0x00, 0x36, 0xb6, 0x0d, 
0x30, 0xdb, 0x66, 0x2b, 0xbb, 0xb6, 0xb6, 0x0d, 
0x30, 0xdb, 0x06, 0x2b, 0xbb, 0xb6, 0xb6, 0x0d, 
0x30, 0x00, 0x60, 0x03, 0x3b, 0x00, 0x00, 0x0c, 
0x30, 0x6d, 0x65, 0x58, 0xbb, 0xb6, 0xca, 0x0d, 
0x30, 0x6d, 0x65, 0x5b, 0xb8, 0xb6, 0xca, 0x0d, 
0x30, 0x6c, 0x00, 0x1b, 0x03, 0x36, 0xc0, 0x0d, 
0x30, 0x01, 0x65, 0x43, 0xab, 0x80, 0xca, 0x0d, 
0x30, 0x6d, 0x65, 0x58, 0xab, 0xb6, 0xca, 0x0d, 
0x30, 0x6c, 0x60, 0x1b, 0x00, 0x36, 0x00, 0x0c, 
0x30, 0x6d, 0x05, 0x9b, 0xab, 0xb6, 0xb6, 0x0d, 
0x30, 0x6d, 0x65, 0x9b, 0xab, 0x80, 0xb6, 0x0d, 
0x30, 0x00, 0x60, 0x80, 0x03, 0x36, 0xb6, 0x0d, 
0x30, 0x6d, 0x65, 0xab, 0xab, 0xb6, 0x00, 0x0c, 
0x30, 0x6d, 0x05, 0xab, 0xab, 0xb6, 0xb6, 0x0d, 
0x30, 0x6c, 0x60, 0x03, 0x00, 0x00, 0xb6, 0x0d, 
0x30, 0x6d, 0x65, 0xab, 0xaa, 0xaa, 0xb6, 0x0d, 
0x30, 0x01, 0x65, 0xa8, 0xaa, 0xaa, 0xb6, 0x0d, 
0x30, 0x00, 0x00, 0x00, 0x00, 0x00, 0x00, 0x0c, 
0xf0, 0xff, 0xff, 0xff, 0xff, 0xff, 0xff, 0x0f, 
0xf0, 0xff, 0xff, 0xff, 0xff, 0xff, 0xff, 0x0f, 
0x7c, 0x00, 0x00, 0x00, 0x00, 0x00, 0x00, 0x3f, 
0x80, 0x00, 0x00, 0x00, 0x00, 0x00, 0x80, 0x00, 
0x00, 0x00, 0x00, 0x00, 0x00, 0x00, 0x00, 0x00, 
0x00, 0x00, 0x00, 0x00, 0x00, 0x00, 0x00, 0x00, 
0x66, 0x66, 0x06, 0x3c, 0x3c, 0x7e, 0x3c, 0x3c, 
0x66, 0x66, 0x06, 0x66, 0x66, 0x18, 0x66, 0x66, 
0x66, 0x66, 0x06, 0x66, 0x46, 0x18, 0x46, 0x06, 
0x3c, 0x3c, 0x06, 0x66, 0x06, 0x18, 0x06, 0x0c, 
0x18, 0x18, 0x06, 0x66, 0x76, 0x18, 0x06, 0x30, 
0x3c, 0x18, 0x06, 0x66, 0x66, 0x18, 0x06, 0x60, 
0x66, 0x18, 0x06, 0x66, 0x66, 0x18, 0x46, 0x66, 
0x66, 0x18, 0x06, 0x66, 0x66, 0x18, 0x66, 0x66, 
0x66, 0x18, 0x7e, 0x3c, 0x5c, 0x7e, 0x3c, 0x3c, 
0x00, 0x00, 0x00, 0x00, 0x00, 0x00, 0x00, 0x00, 
0x00, 0x00, 0x00, 0x00, 0x00, 0x00, 0x00, 0x00, 
0x00, 0x0e, 0x00, 0x00, 0x00, 0x00, 0x70, 0x00, 
0x00, 0x07, 0x00, 0x00, 0x00, 0x00, 0xe0, 0x00, 
0x80, 0x03, 0x00, 0x00, 0x00, 0x00, 0xc0, 0x01, 
0xc0, 0x01, 0x00, 0x00, 0x00, 0x00, 0x80, 0x03, 
0xe0, 0x00, 0x00, 0x00, 0x00, 0x00, 0x00, 0x07, 
0x70, 0x00, 0x00, 0x00, 0x00, 0x00, 0x00, 0x0e, 
0x38, 0x00, 0x00, 0x00, 0x00, 0x00, 0x00, 0x1c, 
0x1c, 0x00, 0x00, 0x00, 0x00, 0x00, 0x00, 0x38, 
0x0e, 0x00, 0x00, 0x00, 0x00, 0x00, 0x00, 0x70, 
0x07, 0x00, 0x00, 0x00, 0x00, 0x00, 0x00, 0xe0, 
0x03, 0x00, 0x00, 0x00, 0x00, 0x00, 0x00, 0xc0, 
}; 
