#define x_width 48
#define x_height 18
static char x_bits[] = {
0x00, 0x00, 0x00, 0x00, 0x00, 0x00, 
0x00, 0x00, 0x00, 0x00, 0x00, 0x00, 
0x00, 0x00, 0x00, 0x00, 0x00, 0x00, 
0x00, 0x00, 0x00, 0x00, 0x00, 0x00, 
0x00, 0xc0, 0x03, 0x00, 0x00, 0x00, 
0x00, 0x80, 0x03, 0x00, 0x00, 0x00, 
0x00, 0x80, 0x03, 0x00, 0x00, 0x00, 
0xf0, 0x83, 0x0f, 0xf8, 0x00, 0x00, 
0x70, 0x87, 0x1b, 0xfc, 0x00, 0x00, 
0x00, 0x87, 0x3b, 0x0e, 0x00, 0x00, 
0xc0, 0x87, 0x3b, 0x0e, 0x00, 0x00, 
0xe0, 0x87, 0x3b, 0x0e, 0x00, 0x00, 
0x70, 0x8f, 0x3b, 0x0e, 0x00, 0x00, 
0x70, 0x8f, 0x1b, 0xdc, 0x00, 0x00, 
0xe0, 0x8f, 0x0f, 0x78, 0x00, 0x00, 
0x00, 0x00, 0x00, 0x00, 0x00, 0x00, 
0x00, 0x00, 0x00, 0x00, 0x00, 0x00, 
0x00, 0x00, 0x00, 0x00, 0x00, 0x00, 
}; 
