#define x_width 48
#define x_height 18
static char x_bits[] = {
0x00, 0x00, 0x00, 0x00, 0x00, 0x00, 
0x00, 0x00, 0x00, 0x00, 0x00, 0x00, 
0x00, 0x00, 0x00, 0x00, 0x00, 0x00, 
0x00, 0x00, 0x00, 0x00, 0x00, 0x00, 
0x00, 0xe0, 0x00, 0x00, 0x00, 0x00, 
0x00, 0xc0, 0x00, 0x00, 0x00, 0x00, 
0x00, 0xc0, 0x00, 0x00, 0x00, 0x00, 
0xf0, 0xc1, 0x03, 0x1e, 0x00, 0x00, 
0x30, 0xc3, 0x04, 0x1b, 0x00, 0x00, 
0x00, 0xc3, 0x8c, 0x01, 0x00, 0x00, 
0xc0, 0xc3, 0x8c, 0x01, 0x00, 0x00, 
0x60, 0xc3, 0x8c, 0x01, 0x00, 0x00, 
0x30, 0xc7, 0x8c, 0x01, 0x00, 0x00, 
0x30, 0xc7, 0x04, 0x13, 0x00, 0x00, 
0xe0, 0x46, 0x03, 0x0e, 0x00, 0x00, 
0x00, 0x00, 0x00, 0x00, 0x00, 0x00, 
0x00, 0x00, 0x00, 0x00, 0x00, 0x00, 
0x00, 0x00, 0x00, 0x00, 0x00, 0x00, 
}; 
