#define on copy_width 64
#define on copy_height 16
static unsigned char on copy_bits[] = {
   0x00, 0x00, 0x00, 0x00, 0xf0, 0x00, 0x00, 0x00, 0x00, 0x00, 0x00, 0x00,
   0xf8, 0x01, 0x00, 0x00, 0x00, 0x00, 0x00, 0x00, 0xfc, 0x03, 0x00, 0x00,
   0x00, 0x00, 0x00, 0x00, 0xfe, 0x03, 0x00, 0x00, 0x00, 0x00, 0x00, 0x00,
   0xff, 0x03, 0x00, 0x00, 0x00, 0x00, 0x00, 0x80, 0xff, 0x01, 0x00, 0x00,
   0x00, 0x00, 0x00, 0xc0, 0xff, 0x00, 0x00, 0x00, 0x00, 0x00, 0x00, 0xe0,
   0x7f, 0x00, 0x00, 0x00, 0x00, 0x00, 0x00, 0xf0, 0x3f, 0x00, 0x00, 0x00,
   0x9f, 0x08, 0x00, 0xf8, 0x1f, 0x80, 0xef, 0xfb, 0x91, 0x09, 0xfe, 0xff,
   0xff, 0x87, 0x28, 0x08, 0x91, 0x09, 0xff, 0xff, 0xff, 0x8f, 0x28, 0x08,
   0x91, 0x0a, 0xff, 0xff, 0xff, 0x8f, 0xe8, 0x79, 0x91, 0x0c, 0xff, 0xff,
   0xff, 0x8f, 0x28, 0x08, 0x91, 0x0c, 0xff, 0xff, 0xff, 0x8f, 0x28, 0x08,
   0x9f, 0x08, 0xff, 0xff, 0xff, 0x8f, 0x2f, 0x08
   };