#define x_width 48
#define x_height 18
static char x_bits[] = {
0x00, 0x00, 0x00, 0x00, 0x00, 0x00, 
0x00, 0x00, 0x00, 0x00, 0x00, 0x00, 
0x00, 0x00, 0x00, 0x00, 0x00, 0x00, 
0x00, 0x00, 0x00, 0x00, 0x00, 0x00, 
0x00, 0x00, 0x00, 0x00, 0x00, 0x00, 
0x00, 0x60, 0x00, 0x00, 0x00, 0x00, 
0x00, 0x60, 0x00, 0x00, 0x00, 0x00, 
0x00, 0x60, 0x00, 0x00, 0x00, 0x00, 
0xe0, 0x61, 0x87, 0x0f, 0x00, 0x00, 
0x30, 0xe3, 0xcc, 0x18, 0x00, 0x00, 
0x00, 0x63, 0xcc, 0x00, 0x00, 0x00, 
0xe0, 0x63, 0xcc, 0x00, 0x00, 0x00, 
0x30, 0x63, 0xcc, 0x00, 0x00, 0x00, 
0x30, 0xe3, 0xcc, 0x18, 0x00, 0x00, 
0xe0, 0x67, 0x87, 0x0f, 0x00, 0x00, 
0x00, 0x00, 0x00, 0x00, 0x00, 0x00, 
0x00, 0x00, 0x00, 0x00, 0x00, 0x00, 
0x00, 0x00, 0x00, 0x00, 0x00, 0x00, 
}; 
