#define x_width 48
#define x_height 18
static char x_bits[] = {
0x00, 0x00, 0x00, 0x00, 0x00, 0x00, 
0x00, 0x00, 0x00, 0x00, 0x00, 0x00, 
0x00, 0x00, 0x00, 0x00, 0x00, 0x00, 
0x00, 0x00, 0x00, 0x00, 0x00, 0x00, 
0x00, 0x00, 0x00, 0x00, 0x00, 0x00, 
0x00, 0x00, 0x00, 0x00, 0x00, 0x00, 
0x00, 0x30, 0x00, 0x00, 0x00, 0x00, 
0x00, 0x30, 0x00, 0x00, 0x00, 0x00, 
0xe0, 0xb1, 0xe1, 0x01, 0x00, 0x00, 
0x30, 0x73, 0x33, 0x03, 0x00, 0x00, 
0x00, 0x33, 0x33, 0x00, 0x00, 0x00, 
0xe0, 0x33, 0x33, 0x00, 0x00, 0x00, 
0x30, 0x33, 0x33, 0x00, 0x00, 0x00, 
0x30, 0x73, 0x33, 0x03, 0x00, 0x00, 
0xe0, 0xb3, 0xe1, 0x01, 0x00, 0x00, 
0x00, 0x00, 0x00, 0x00, 0x00, 0x00, 
0x00, 0x00, 0x00, 0x00, 0x00, 0x00, 
0x00, 0x00, 0x00, 0x00, 0x00, 0x00, 
}; 
