#define x_width 48
#define x_height 18
static char x_bits[] = {
0x00, 0x00, 0x00, 0x00, 0x00, 0x00, 
0x00, 0x00, 0x00, 0x00, 0x00, 0x00, 
0x00, 0x00, 0x00, 0x00, 0x00, 0x00, 
0x00, 0x00, 0x00, 0x00, 0x00, 0x00, 
0x00, 0x00, 0x00, 0x00, 0x00, 0x00, 
0x00, 0x00, 0x00, 0x00, 0x00, 0x00, 
0x00, 0x04, 0x00, 0x00, 0x00, 0x00, 
0x00, 0x04, 0x00, 0x00, 0x00, 0x00, 
0x70, 0x34, 0x1c, 0x00, 0x00, 0x00, 
0x88, 0x4c, 0x22, 0x00, 0x00, 0x00, 
0x80, 0x44, 0x02, 0x00, 0x00, 0x00, 
0xf0, 0x44, 0x02, 0x00, 0x00, 0x00, 
0x88, 0x44, 0x02, 0x00, 0x00, 0x00, 
0x88, 0x4c, 0x22, 0x00, 0x00, 0x00, 
0xf0, 0x34, 0x1c, 0x00, 0x00, 0x00, 
0x00, 0x00, 0x00, 0x00, 0x00, 0x00, 
0x00, 0x00, 0x00, 0x00, 0x00, 0x00, 
0x00, 0x00, 0x00, 0x00, 0x00, 0x00, 
}; 
