#define x_width 48
#define x_height 18
static char x_bits[] = {
0x00, 0x00, 0x00, 0x00, 0x00, 0x00, 
0x00, 0x00, 0x00, 0x00, 0x00, 0x00, 
0x00, 0x00, 0x00, 0x00, 0x00, 0x00, 
0x00, 0x00, 0x00, 0x00, 0x00, 0x00, 
0x00, 0x00, 0x00, 0x00, 0x00, 0x00, 
0x00, 0x10, 0x00, 0x00, 0x00, 0x00, 
0x00, 0x10, 0x00, 0x00, 0x00, 0x00, 
0x00, 0x10, 0x00, 0x00, 0x00, 0x00, 
0xe0, 0xd0, 0xe1, 0x01, 0x00, 0x00, 
0x10, 0x31, 0x12, 0x02, 0x00, 0x00, 
0x00, 0x11, 0x12, 0x00, 0x00, 0x00, 
0xe0, 0x11, 0x12, 0x00, 0x00, 0x00, 
0x10, 0x11, 0x12, 0x00, 0x00, 0x00, 
0x10, 0x31, 0x12, 0x02, 0x00, 0x00, 
0xe0, 0xd2, 0xe1, 0x01, 0x00, 0x00, 
0x00, 0x00, 0x00, 0x00, 0x00, 0x00, 
0x00, 0x00, 0x00, 0x00, 0x00, 0x00, 
0x00, 0x00, 0x00, 0x00, 0x00, 0x00, 
}; 
